!!!!SEGMENT: pl-cz--iii-560--001-010-pc0_raszek-waclaw--missa-in-d-benedictus-ante-correcturam-pc0.krn
!!!cenid: 17xx:1056a
!!!COM: Raszek, Wacław
!!!COM-rismid: pe30020314
!!!CDT: <1848->1848
!!!CNT:
!!!OPR: Missa in D
!!!OTL: Benedictus [ante-correcturam]
!!!OMV: 010
!!!PDT:
!!!AGN: Sacred; Mass
!!!SMS-siglum: PL-CZ
!!!SMS-shelfmark: III-560
!!!SMS-shelfwork: 001-010 M
!!!SMS-variant:
!!!SMS-altvar:
!!!NIFC-rismid: 300001046
!!!URL-scan: http://repozytorium.nifc.pl/skany/pl-cz-nut--iii-560
!!!ONB-nifc: UWAGA: części Mszy: Kyrie, Gloria, Domine Deus, Cum Sancto spiritu, Credo, Et incarnatus, Et resurrexit, Sanctus, Pleni, Benedictus, Agnus Dei, Dona nobis
!!!key: D
**kern	**dynam	**kern	**dynam	**kern	**dynam	**kern	**kern	**kern	**kern	**text	**kern	**text	**kern	**kern	**dynam	**kern	**kern	**kern	**dynam	**kern	**dynam
*	*	*group4	*	*group4	*	*group4	*group3	*group3	*group3	*	*group3	*	*group2	*group2	*	*group1	*group1	*group1	*	*group1	*
*part14	*part14	*part13	*part13	*part12	*part12	*part11	*part10	*part9	*part8	*part8	*part7	*part7	*part6	*part5	*part5	*part4	*part3	*part2	*part2	*part1	*part1
*staff14	*	*staff13	*	*staff12	*	*staff11	*staff10	*staff9	*staff8	*staff8	*staff7	*staff7	*staff6	*staff5	*	*staff4	*staff3	*staff2	*	*staff1	*
*I"Organo.	*	*I"Alto Viola Obligat	*	*I"Violino Secundo	*	*I"Violino Primo.	*I"Baſſo.	*I"Tenore.	*I"Alto.	*	*I"Canto.	*	*I"Corno 2do in D#	*I"Corno 1mo in D#	*	*I"Oboe Secondo	*I"Oboe Primo	*I"Flauto Solo	*	*I"Flauto Solo.	*
*I'org	*	*I'vla	*	*I'vl 2	*	*I'vl 1	*I'B	*I'T	*I'A	*	*I'S	*	*I'cor 2 in D#	*I'cor 1 in D#	*	*I'ob 2	*I'ob 1	*I'ob 1	*	*I'vl 1	*
*Iorgan	*	*Iviola	*	*Ivioln	*	*Ivioln	*Ibass	*Itenor	*Ialto	*	*Isoprn	*	*Icor	*Icor	*	*Ioboe	*Ioboe	*Iflt	*	*Iflt	*
*ICklav	*	*ICstr	*	*ICstr	*	*ICstr	*ICvox	*ICvox	*ICvox	*	*ICvox	*	*ICbras	*ICbras	*	*ICww	*ICww	*ICww	*	*ICww	*
*	*	*	*	*	*	*	*	*	*	*	*	*	*	*	*	*	*	*IGsolo	*	*IGsolo	*
*clefF4	*	*clefC3	*	*clefG2	*	*clefF4	*clefF4	*clefC4	*clefC3	*	*clefC1	*	*clefG2	*clefG2	*	*clefG2	*clefG2	*clefG2	*	*clefG2	*
*	*	*	*	*	*	*	*	*	*	*	*	*	*ITrd6c10	*ITrd6c10	*	*	*	*	*	*	*
*k[f#c#]	*	*k[f#c#]	*	*k[f#c#]	*	*k[f#c#]	*k[f#c#]	*k[f#c#]	*k[f#c#]	*	*k[f#c#]	*	*k[f#c#]	*k[f#c#]	*	*k[f#c#]	*k[f#c#]	*k[f#c#]	*	*k[f#c#]	*
*D:	*	*D:	*	*D:	*	*D:	*D:	*D:	*D:	*	*D:	*	*D:	*D:	*	*D:	*D:	*D:	*	*D:	*
*M2/4	*	*M2/4	*	*M2/4	*	*M2/4	*M2/4	*M2/4	*M2/4	*	*M2/4	*	*M2/4	*M2/4	*	*M2/4	*M2/4	*M2/4	*	*M2/4	*
*all\left or middle	*	*	*	*all\middle	*	*all\left or middle	*all\left or middle	*all\left or middle	*all\left or middle	*	*all\left or middle	*	*all\middle	*all\right	*	*all\right	*all\left or middle	*all\left or middle	*	*all\left or middle	*
*2\right	*	*2\right	*	*2\right	*	*2\right	*2\right	*2\right	*2\right	*	*2\right	*	*2\right	*2\right	*	*2\right	*2\right	*2\right	*	*2\right	*
=1	=1	=1	=1	=1	=1	=1	=1	=1	=1	=1	=1	=1	=1	=1	=1	=1	=1	=1	=1	=1	=1
!	!	!	!	!	!	!LO:TX:t=P:problem=w miejscu vl 1 zapisany flet solo ("Flauto Solo.")	!	!	!	!	!	!	!	!	!	!	!	!LO:TX:t=P:problem=dwa flety solo pojawiają się tylko w tej części, zapisane w partiach vl 1 i ob 1	!	!LO:TX:t=P:problem=dwa flety solo pojawiają się tylko w tej części, zapisane w partiach vl 1 i ob 1	!
!LO:TX:i:a:t=Solo.	!	!	!	!	!	!	!	!	!	!	!	!	!LO:TX:a:t=3.	!LO:TX:a:t=3	!	!	!	!LO:TX:a:t=6.	!	!	!
!LO:TX:i:a:t=Andante	!	!	!LO:DY:a:t=p.	!LO:TX:i:a:t=Adagio	!	!	!LO:TX:a:t=Benedictus Tacet.	!LO:TX:a:t=Benedictus Tacet	!LO:TX:a:t=23.	!	!LO:TX:a:t=23.	!	!	!LO:TX:i:a:t=adaio	!	!LO:TX:a:t=45.	!LO:TX:t=P:problem=w miejscu ob 1 zapisany flet solo ("Flauto Solo")	!	!	!LO:TX:i:a:t=Adagio	!
!	!	!	!	!	!	!	!	!	!	!	!	!	!	!	!	!	!	!	!	!	!LO:DY:b:t=pia
8D\	.	8d\	p	16r	.	2ryy	2ryy	2ryy	2r	.	2r	.	2r	2r	.	2r	2ryy	2r	.	2aa\	p
!	!	!	!	!	!LO:DY:a:t=p&colon;	!	!	!	!	!	!	!	!	!	!	!	!	!	!	!	!
.	.	.	.	16A/LL	p	.	.	.	.	.	.	.	.	.	.	.	.	.	.	.	.
8r	.	8r	.	16d/	.	.	.	.	.	.	.	.	.	.	.	.	.	.	.	.	.
.	.	.	.	16f#/JJ	.	.	.	.	.	.	.	.	.	.	.	.	.	.	.	.	.
8C#\	.	16r	.	16g/LL	.	.	.	.	.	.	.	.	.	.	.	.	.	.	.	.	.
.	.	16A\LL	.	16A/	.	.	.	.	.	.	.	.	.	.	.	.	.	.	.	.	.
8r	.	16c#\	.	16e/	.	.	.	.	.	.	.	.	.	.	.	.	.	.	.	.	.
.	.	16e\JJ	.	16g/JJ	.	.	.	.	.	.	.	.	.	.	.	.	.	.	.	.	.
=2	=2	=2	=2	=2	=2	=2	=2	=2	=2	=2	=2	=2	=2	=2	=2	=2	=2	=2	=2	=2	=2
!	!	!	!	!	!	!	!	!	!	!	!	!	!	!	!	!	!	!	!	!	!LO:HP:b:t=cres
8D\	.	8d\	.	16f#/LL	.	2ryy	2ryy	2ryy	2r	.	2r	.	2r	2r	.	2r	2ryy	2r	.	2aa\	<
.	.	.	.	16A/	.	.	.	.	.	.	.	.	.	.	.	.	.	.	.	.	.
8r	.	8r	.	16d/	.	.	.	.	.	.	.	.	.	.	.	.	.	.	.	.	.
.	.	.	.	16f#/JJ	.	.	.	.	.	.	.	.	.	.	.	.	.	.	.	.	.
8C#\	.	16e\LL	.	16g/LL	.	.	.	.	.	.	.	.	.	.	.	.	.	.	.	.	.
.	.	16A\	.	16A/	.	.	.	.	.	.	.	.	.	.	.	.	.	.	.	.	.
8r	.	16c#\	.	16e/	.	.	.	.	.	.	.	.	.	.	.	.	.	.	.	.	.
.	.	16e\JJ	.	16g/JJ	.	.	.	.	.	.	.	.	.	.	.	.	.	.	.	.	.
=3	=3	=3	=3	=3	=3	=3	=3	=3	=3	=3	=3	=3	=3	=3	=3	=3	=3	=3	=3	=3	=3
!	!	!	!	!	!	!	!	!	!	!	!	!	!	!	!	!	!	!	!	!	!LO:DY:b:t=for
8D\	.	8d\	.	8f#/	.	2ryy	2ryy	2ryy	2r	.	2r	.	2r	2r	.	2r	2ryy	2r	.	4aa\	f
8r	.	8r	.	8r	.	.	.	.	.	.	.	.	.	.	.	.	.	.	.	.	.
4r	.	4r	.	4r	.	.	.	.	.	.	.	.	.	.	.	.	.	.	.	16gg\LL	.
.	.	.	.	.	.	.	.	.	.	.	.	.	.	.	.	.	.	.	.	16ff#\	.
.	.	.	.	.	.	.	.	.	.	.	.	.	.	.	.	.	.	.	.	16ee\	.
.	.	.	.	.	.	.	.	.	.	.	.	.	.	.	.	.	.	.	.	16dd\JJ	.
!	!	!	!	!LO:LB:g=original	!	!	!	!	!	!	!	!	!	!	!	!	!	!	!	!	!
=4	=4	=4	=4	=4	=4	=4	=4	=4	=4	=4	=4	=4	=4	=4	=4	=4	=4	=4	=4	=4	=4
!	!	!	!LO:DY:a	!	!	!	!	!	!	!	!	!	!	!	!	!	!	!	!	!	!
!	!	!	!	!	!LO:DY:b:t=for	!	!	!	!	!	!	!	!	!	!	!	!	!	!	!	!
8r	.	8r	f	8r	f	2ryy	2ryy	2ryy	2r	.	2r	.	8r	8r	.	2r	2ryy	2r	.	16dd#X\LL	.
.	.	.	.	.	.	.	.	.	.	.	.	.	.	.	.	.	.	.	.	16ee\	.
!LO:TX:t=P:problem=mixed beam	!	!	!	!	!	!	!	!	!	!	!	!	!LO:TX:t=P:problem=mixed beam	!	!	!	!	!	!	!	!
8G\L	.	8g\L	.	8b\L	.	.	.	.	.	.	.	.	8e\L	8e\L	.	.	.	.	.	16gg\	.
.	.	.	.	.	.	.	.	.	.	.	.	.	.	.	.	.	.	.	.	16bb\JJ	.
8A\	.	8f#\	.	8a\	.	.	.	.	.	.	.	.	8d\	8f#\	.	.	.	.	.	16aa\LL	.
.	.	.	.	.	.	.	.	.	.	.	.	.	.	.	.	.	.	.	.	16ff#\	.
8AA/J	.	8e\J	.	8g\J	.	.	.	.	.	.	.	.	8A/J	8e\J	.	.	.	.	.	16gg\	.
.	.	.	.	.	.	.	.	.	.	.	.	.	.	.	.	.	.	.	.	16ee\JJ	.
!	!	!LO:LB:g=original	!	!	!	!	!	!	!	!	!	!	!	!	!	!	!	!	!	!	!
=5	=5	=5	=5	=5	=5	=5	=5	=5	=5	=5	=5	=5	=5	=5	=5	=5	=5	=5	=5	=5	=5
.	.	.	.	.	.	.	.	.	.	.	.	.	.	.	.	.	.	.	.	8qff#/	.
!	!	!	!	!	!	!	!	!	!	!	!	!	!LO:TX:i:a:t=adante	!	!	!	!	!	!	!	!
8BB/L	.	8d\L	.	8f#/L	.	2ryy	2ryy	2ryy	2r	.	2r	.	4F#/	4d\	.	2r	2ryy	2r	.	16ee\LL	.
.	.	.	.	.	.	.	.	.	.	.	.	.	.	.	.	.	.	.	.	32ddn\L	.
.	.	.	.	.	.	.	.	.	.	.	.	.	.	.	.	.	.	.	.	32ee\JJJ	.
8BB/	.	8d\	.	8f#/	.	.	.	.	.	.	.	.	.	.	.	.	.	.	.	16dd\LL	.
.	.	.	.	.	.	.	.	.	.	.	.	.	.	.	.	.	.	.	.	16dd\JJ	.
!	!	!	!	!	!	!	!	!	!	!	!	!	!	!	!	!	!	!	!	!LO:LB:g=original	!
8F#/	.	8f#\	.	8a/	.	.	.	.	.	.	.	.	4r	4r	.	.	.	.	.	8.dd\L	.
8F#/J	.	8f#\J	.	8a/J	.	.	.	.	.	.	.	.	.	.	.	.	.	.	.	.	.
.	.	.	.	.	.	.	.	.	.	.	.	.	.	.	.	.	.	.	.	16dd#X\Jk	.
=6	=6	=6	=6	=6	=6	=6	=6	=6	=6	=6	=6	=6	=6	=6	=6	=6	=6	=6	=6	=6	=6
!LO:TX:t=P:problem=mixed beam	!	!LO:TX:t=P:problem=mixed beam	!	!	!	!	!	!	!	!	!	!	!	!	!	!	!	!	!	!	!
!	!	!	!	!	!	!	!	!	!	!	!	!	!	!	!	!	!	!	!	!LO:SIC:v:s=16dd#\LL	!
8G\L	.	8g\L	.	8b/L	.	2ryy	2ryy	2ryy	2r	.	2r	.	8r	8r	.	2r	2ryy	2r	.	16dd\LL	.
.	.	.	.	.	.	.	.	.	.	.	.	.	.	.	.	.	.	.	.	16ee\	.
!	!	!	!	!	!	!	!	!	!	!	!	!	!LO:TX:t=P:problem=mixed beam	!	!	!	!	!	!	!	!
8G\	.	8g\	.	8g/J	.	.	.	.	.	.	.	.	8e\L	8e\L	.	.	.	.	.	16gg\	.
.	.	.	.	.	.	.	.	.	.	.	.	.	.	.	.	.	.	.	.	16bb\JJ	.
8A\	.	8a\	.	16f#/LL	.	.	.	.	.	.	.	.	8d\	8f#\	.	.	.	.	.	16aa\LL	.
.	.	.	.	16d/	.	.	.	.	.	.	.	.	.	.	.	.	.	.	.	16ff#\	.
8AA/J	.	8A/J	.	16e/	.	.	.	.	.	.	.	.	8A/J	8e\J	.	.	.	.	.	16gg\	.
.	.	.	.	16c#/JJ	.	.	.	.	.	.	.	.	.	.	.	.	.	.	.	16ee\JJ	.
=7	=7	=7	=7	=7	=7	=7	=7	=7	=7	=7	=7	=7	=7	=7	=7	=7	=7	=7	=7	=7	=7
!	!	!	!LO:DY:a	!	!	!	!	!	!	!	!	!	!	!	!	!	!	!	!	!LO:TX:t=P:problem=mixed beam	!
.	.	.	.	.	.	.	.	.	.	.	.	.	.	.	.	.	.	16qqgg#/L	.	.	.
.	.	.	.	.	.	.	.	.	.	.	.	.	.	.	.	.	.	16qqbb/J	.	.	.
!	!	!	!LO:DY:a:t=p.	!	!	!	!	!	!	!	!	!	!	!	!	!	!	!	!	!	!
!	!LO:DY:a:t=pi&colon;	!	!	!	!	!	!	!	!	!	!	!	!	!	!	!	!	!	!	!	!
8D\	p	8d\	p	8d/	.	2ryy	2ryy	2ryy	2r	.	2r	.	8F#/	8d\	.	2r	2ryy	2aa\	.	16ff#\LL	.
.	.	.	.	.	.	.	.	.	.	.	.	.	.	.	.	.	.	.	.	16A/	.
!	!	!	!	!	!LO:DY:b:t=p&colon;	!	!	!	!	!	!	!	!	!	!	!	!	!	!	!	!
8r	.	8r	.	16r	p	.	.	.	.	.	.	.	8r	4d\	.	.	.	.	.	16d/	.
.	.	.	.	16d/	.	.	.	.	.	.	.	.	.	.	.	.	.	.	.	16f#/JJ	.
8C#\	.	8A/	.	16e/LL	.	.	.	.	.	.	.	.	4r	.	.	.	.	.	.	16g/LL	.
.	.	.	.	16A/	.	.	.	.	.	.	.	.	.	.	.	.	.	.	.	16A/	.
8r	.	8r	.	16c#/	.	.	.	.	.	.	.	.	.	8r	.	.	.	.	.	16e/	.
.	.	.	.	16e/JJ	.	.	.	.	.	.	.	.	.	.	.	.	.	.	.	16g/JJ	.
=8	=8	=8	=8	=8	=8	=8	=8	=8	=8	=8	=8	=8	=8	=8	=8	=8	=8	=8	=8	=8	=8
!	!	!	!	!	!	!	!	!	!	!	!	!	!LO:TX:a:t=12.	!LO:TX:a:t=12	!	!	!	!	!	!	!
8D\	.	8d\	.	8d/	.	2ryy	2ryy	2ryy	2r	.	2r	.	2r	2r	.	2r	2ryy	2aa\	.	16f#/LL	.
.	.	.	.	.	.	.	.	.	.	.	.	.	.	.	.	.	.	.	.	16A/	.
8r	.	8r	.	16r	.	.	.	.	.	.	.	.	.	.	.	.	.	.	.	16d/	.
.	.	.	.	16d/	.	.	.	.	.	.	.	.	.	.	.	.	.	.	.	16f#/JJ	.
8C#\	.	8A/	.	16e/LL	.	.	.	.	.	.	.	.	.	.	.	.	.	.	.	16g/LL	.
.	.	.	.	16A/	.	.	.	.	.	.	.	.	.	.	.	.	.	.	.	16A/	.
8r	.	8r	.	16c#/	.	.	.	.	.	.	.	.	.	.	.	.	.	.	.	16e/	.
.	.	.	.	16e/JJ	.	.	.	.	.	.	.	.	.	.	.	.	.	.	.	16g/JJ	.
!LO:LB:g=original	!	!	!	!	!	!	!	!	!	!	!	!	!	!	!	!	!	!	!	!	!
=9	=9	=9	=9	=9	=9	=9	=9	=9	=9	=9	=9	=9	=9	=9	=9	=9	=9	=9	=9	=9	=9
8D\	.	8d\	.	8d/	.	2ryy	2ryy	2ryy	2r	.	2r	.	2r	2r	.	2r	2ryy	4aa\	.	8f#/	.
8r	.	8r	.	8r	.	.	.	.	.	.	.	.	.	.	.	.	.	.	.	8r	.
4r	.	4r	.	4r	.	.	.	.	.	.	.	.	.	.	.	.	.	16gg\LL	.	4r	.
.	.	.	.	.	.	.	.	.	.	.	.	.	.	.	.	.	.	16ff#\	.	.	.
.	.	.	.	.	.	.	.	.	.	.	.	.	.	.	.	.	.	16ee\	.	.	.
.	.	.	.	.	.	.	.	.	.	.	.	.	.	.	.	.	.	16dd\JJ	.	.	.
=10	=10	=10	=10	=10	=10	=10	=10	=10	=10	=10	=10	=10	=10	=10	=10	=10	=10	=10	=10	=10	=10
*	*	*	*	*	*	*	*	*	*	*	*	*	*	*	*	*	*	*Xtuplet	*	*	*
!LO:TX:a:t=4	!	!LO:TX:a:t=5	!	!	!	!	!	!	!	!	!	!	!	!	!	!	!	!	!	!	!
2r	.	2r	.	8r	.	2ryy	2ryy	2ryy	2r	.	2r	.	2r	2r	.	2r	2ryy	24dd|\LL	.	8r	.
.	.	.	.	.	.	.	.	.	.	.	.	.	.	.	.	.	.	24ff#|\	.	.	.
.	.	.	.	.	.	.	.	.	.	.	.	.	.	.	.	.	.	24aa|\JJ	.	.	.
.	.	.	.	8d/L	.	.	.	.	.	.	.	.	.	.	.	.	.	24ddd|\LL	.	8f#/L	.
.	.	.	.	.	.	.	.	.	.	.	.	.	.	.	.	.	.	24fff#|\	.	.	.
.	.	.	.	.	.	.	.	.	.	.	.	.	.	.	.	.	.	24eee|\JJ	.	.	.
.	.	.	.	8d/	.	.	.	.	.	.	.	.	.	.	.	.	.	(24ddd\LL	.	8f#/	.
.	.	.	.	.	.	.	.	.	.	.	.	.	.	.	.	.	.	24ccc#\)	.	.	.
.	.	.	.	.	.	.	.	.	.	.	.	.	.	.	.	.	.	24bb|\JJ	.	.	.
.	.	.	.	8d/J	.	.	.	.	.	.	.	.	.	.	.	.	.	(24aa\LL	.	8f#/J	.
.	.	.	.	.	.	.	.	.	.	.	.	.	.	.	.	.	.	24gg\)	.	.	.
.	.	.	.	.	.	.	.	.	.	.	.	.	.	.	.	.	.	24ff#|\JJ	.	.	.
!	!	!	!	!LO:LB:g=original	!	!	!	!	!	!	!	!	!	!	!	!	!	!	!	!LO:LB:g=original	!
=11	=11	=11	=11	=11	=11	=11	=11	=11	=11	=11	=11	=11	=11	=11	=11	=11	=11	=11	=11	=11	=11
2r	.	2r	.	8r	.	2ryy	2ryy	2ryy	2r	.	2r	.	2r	2r	.	2r	2ryy	(32aa\LLL	.	8r	.
.	.	.	.	.	.	.	.	.	.	.	.	.	.	.	.	.	.	32gg\	.	.	.
.	.	.	.	.	.	.	.	.	.	.	.	.	.	.	.	.	.	32ff#\	.	.	.
.	.	.	.	.	.	.	.	.	.	.	.	.	.	.	.	.	.	32gg\JJJ)	.	.	.
.	.	.	.	8d/L	.	.	.	.	.	.	.	.	.	.	.	.	.	4gg\	.	8b\L	.
.	.	.	.	8d/	.	.	.	.	.	.	.	.	.	.	.	.	.	.	.	8b\	.
.	.	.	.	8d/J	.	.	.	.	.	.	.	.	.	.	.	.	.	8r	.	8b\J	.
!	!	!	!	!	!	!	!	!	!	!	!	!	!	!	!	!	!	!LO:LB:g=original	!	!	!
=12	=12	=12	=12	=12	=12	=12	=12	=12	=12	=12	=12	=12	=12	=12	=12	=12	=12	=12	=12	=12	=12
2r	.	2r	.	8r	.	2ryy	2ryy	2ryy	2r	.	2r	.	2r	2r	.	2r	2ryy	24a|\LL	.	8r	.
.	.	.	.	.	.	.	.	.	.	.	.	.	.	.	.	.	.	24cc#|\	.	.	.
.	.	.	.	.	.	.	.	.	.	.	.	.	.	.	.	.	.	24ee|\JJ	.	.	.
.	.	.	.	8c#/L	.	.	.	.	.	.	.	.	.	.	.	.	.	24gg|\LL	.	8a\L	.
.	.	.	.	.	.	.	.	.	.	.	.	.	.	.	.	.	.	24aa|\	.	.	.
.	.	.	.	.	.	.	.	.	.	.	.	.	.	.	.	.	.	24gg|\JJ	.	.	.
.	.	.	.	8c#/	.	.	.	.	.	.	.	.	.	.	.	.	.	24eee|\LL	.	8a\	.
.	.	.	.	.	.	.	.	.	.	.	.	.	.	.	.	.	.	24ddd|\	.	.	.
.	.	.	.	.	.	.	.	.	.	.	.	.	.	.	.	.	.	24ccc#|\JJ	.	.	.
.	.	.	.	8c#/J	.	.	.	.	.	.	.	.	.	.	.	.	.	(24bb\LL	.	8a\J	.
.	.	.	.	.	.	.	.	.	.	.	.	.	.	.	.	.	.	24aa\)	.	.	.
.	.	.	.	.	.	.	.	.	.	.	.	.	.	.	.	.	.	24gg|\JJ	.	.	.
=13	=13	=13	=13	=13	=13	=13	=13	=13	=13	=13	=13	=13	=13	=13	=13	=13	=13	=13	=13	=13	=13
2r	.	2r	.	8d/	.	2ryy	2ryy	2ryy	2r	.	2r	.	2r	2r	.	2r	2ryy	16ff#|\LL	.	16a/LL	.
.	.	.	.	.	.	.	.	.	.	.	.	.	.	.	.	.	.	16aa|\	.	16f#/	.
.	.	.	.	8r	.	.	.	.	.	.	.	.	.	.	.	.	.	16aa|\	.	16f#/	.
.	.	.	.	.	.	.	.	.	.	.	.	.	.	.	.	.	.	16aa|\JJ	.	16f#/JJ	.
.	.	.	.	8r	.	.	.	.	.	.	.	.	.	.	.	.	.	24aa\LL	.	16f#/LL	.
.	.	.	.	.	.	.	.	.	.	.	.	.	.	.	.	.	.	24gg\	.	.	.
.	.	.	.	.	.	.	.	.	.	.	.	.	.	.	.	.	.	.	.	32e/L	.
.	.	.	.	.	.	.	.	.	.	.	.	.	.	.	.	.	.	24ff#\JJ	.	.	.
.	.	.	.	.	.	.	.	.	.	.	.	.	.	.	.	.	.	.	.	32d/JJJ	.
.	.	.	.	8d/	.	.	.	.	.	.	.	.	.	.	.	.	.	24aa\LL	.	16f#/LL	.
.	.	.	.	.	.	.	.	.	.	.	.	.	.	.	.	.	.	24gg\	.	.	.
.	.	.	.	.	.	.	.	.	.	.	.	.	.	.	.	.	.	.	.	32e/L	.
.	.	.	.	.	.	.	.	.	.	.	.	.	.	.	.	.	.	24ff#\JJ	.	.	.
.	.	.	.	.	.	.	.	.	.	.	.	.	.	.	.	.	.	.	.	32d/JJJ	.
=14	=14	=14	=14	=14	=14	=14	=14	=14	=14	=14	=14	=14	=14	=14	=14	=14	=14	=14	=14	=14	=14
!LO:TX:t=P:problem=3 nadmiarowe takty w cor 2	!	!	!	!	!	!	!	!	!	!	!	!	!	!	!	!	!	!	!	!	!
.	.	.	.	.	.	.	.	.	.	.	.	.	.	.	.	.	.	8qqgg/	.	.	.
2ryy	.	2r	.	8r	.	2ryy	2ryy	2ryy	2r	.	2r	.	2r	2r	.	2r	2ryy	16ff#\LL	.	8c#/L	.
.	.	.	.	.	.	.	.	.	.	.	.	.	.	.	.	.	.	32ee\L	.	.	.
.	.	.	.	.	.	.	.	.	.	.	.	.	.	.	.	.	.	32ff#\JJ	.	.	.
.	.	.	.	8A/L	.	.	.	.	.	.	.	.	.	.	.	.	.	8ee\J	.	8c#/	.
.	.	.	.	8a/J	.	.	.	.	.	.	.	.	.	.	.	.	.	8r	.	8c#/J	.
.	.	.	.	8r	.	.	.	.	.	.	.	.	.	.	.	.	.	(32aa\LLL	.	8r	.
.	.	.	.	.	.	.	.	.	.	.	.	.	.	.	.	.	.	32gg#X\)	.	.	.
.	.	.	.	.	.	.	.	.	.	.	.	.	.	.	.	.	.	(32bb\	.	.	.
.	.	.	.	.	.	.	.	.	.	.	.	.	.	.	.	.	.	32aa\JJJ)	.	.	.
=15	=15	=15	=15	=15	=15	=15	=15	=15	=15	=15	=15	=15	=15	=15	=15	=15	=15	=15	=15	=15	=15
!	!	!	!LO:DY:a:t=p.	!	!	!	!	!	!	!	!	!	!	!	!	!	!	!	!	!	!
!	!LO:DY:b:t=p.	!	!	!	!	!	!	!	!	!	!	!	!	!	!	!	!	!	!	!	!
8C#/	p	8A/	p	8c#/	.	2ryy	2ryy	2ryy	2r	.	2r	.	2r	2r	.	2r	2ryy	(24ggn\LL	.	8a/L	.
.	.	.	.	.	.	.	.	.	.	.	.	.	.	.	.	.	.	24ff#\)	.	.	.
.	.	.	.	.	.	.	.	.	.	.	.	.	.	.	.	.	.	24ee|\	.	.	.
!	!	!	!	!	!	!	!	!	!	!	!	!	!	!	!	!	!	!	!	!LO:TUP:b:problem=klamra łukowa	!
8r	.	8r	.	8r	.	.	.	.	.	.	.	.	.	.	.	.	.	(24bb\	.	24g/L	.
.	.	.	.	.	.	.	.	.	.	.	.	.	.	.	.	.	.	24aa\)	.	24f#/	.
.	.	.	.	.	.	.	.	.	.	.	.	.	.	.	.	.	.	24gg|\JJ	.	24e/JJ	.
8D/	.	8A/	.	8d/	.	.	.	.	.	.	.	.	.	.	.	.	.	16ff#\LL	.	(16d/LL	.
.	.	.	.	.	.	.	.	.	.	.	.	.	.	.	.	.	.	16ddd\	.	16f#/)	.
8r	.	8r	.	8r	.	.	.	.	.	.	.	.	.	.	.	.	.	16aa\	.	16f#|/	.
.	.	.	.	.	.	.	.	.	.	.	.	.	.	.	.	.	.	16aa\JJ	.	16f#|/JJ	.
!	!	!	!	!	!	!	!	!	!	!	!	!	!	!	!	!	!	!	!	!LO:LB:g=original	!
=16	=16	=16	=16	=16	=16	=16	=16	=16	=16	=16	=16	=16	=16	=16	=16	=16	=16	=16	=16	=16	=16
8C#/	.	8A/	.	8c#/	.	2ryy	2ryy	2ryy	2r	.	2r	.	2r	2r	.	2r	2ryy	(24gg\LL	.	16e/LL	.
.	.	.	.	.	.	.	.	.	.	.	.	.	.	.	.	.	.	24ff#\)	.	.	.
.	.	.	.	.	.	.	.	.	.	.	.	.	.	.	.	.	.	.	.	16g/	.
.	.	.	.	.	.	.	.	.	.	.	.	.	.	.	.	.	.	24ee|\	.	.	.
8r	.	8r	.	8r	.	.	.	.	.	.	.	.	.	.	.	.	.	(24bb\	.	16f#/	.
.	.	.	.	.	.	.	.	.	.	.	.	.	.	.	.	.	.	24aa\)	.	.	.
.	.	.	.	.	.	.	.	.	.	.	.	.	.	.	.	.	.	.	.	16e/JJ	.
.	.	.	.	.	.	.	.	.	.	.	.	.	.	.	.	.	.	24gg|\JJ	.	.	.
8D/	.	8A/	.	8d/	.	.	.	.	.	.	.	.	.	.	.	.	.	(16ff#\LL	.	(16d/LL	.
.	.	.	.	.	.	.	.	.	.	.	.	.	.	.	.	.	.	16ddd\)	.	16f#/)	.
8r	.	8r	.	8r	.	.	.	.	.	.	.	.	.	.	.	.	.	16aa|\	.	16f#|/	.
.	.	.	.	.	.	.	.	.	.	.	.	.	.	.	.	.	.	16aa|\JJ	.	16f#|/JJ	.
!	!	!	!	!	!	!	!	!	!	!	!	!	!	!	!	!	!	!LO:LB:g=original	!	!	!
=17	=17	=17	=17	=17	=17	=17	=17	=17	=17	=17	=17	=17	=17	=17	=17	=17	=17	=17	=17	=17	=17
.	.	.	.	.	.	.	.	.	.	.	.	.	.	.	.	.	.	8qqaa#X/	.	.	.
8r	.	8r	.	8r	.	2ryy	2ryy	2ryy	2r	.	2r	.	2r	2r	.	2r	2ryy	4bb\	.	8r	.
!	!	!LO:TX:t=P:problem=mixed beam	!	!	!	!	!	!	!	!	!	!	!	!	!	!	!	!	!	!	!
8G\L	.	8g\L	.	8g/L	.	.	.	.	.	.	.	.	.	.	.	.	.	.	.	8d/L	.
8G\J	.	8G/J	.	8g/J	.	.	.	.	.	.	.	.	.	.	.	.	.	(32bb\LLL	.	8d/J	.
.	.	.	.	.	.	.	.	.	.	.	.	.	.	.	.	.	.	32ccc#\	.	.	.
.	.	.	.	.	.	.	.	.	.	.	.	.	.	.	.	.	.	32ddd\	.	.	.
.	.	.	.	.	.	.	.	.	.	.	.	.	.	.	.	.	.	32ccc#\JJJ)	.	.	.
8r	.	8r	.	8r	.	.	.	.	.	.	.	.	.	.	.	.	.	(32ddd\LLL	.	8r	.
.	.	.	.	.	.	.	.	.	.	.	.	.	.	.	.	.	.	32bb\	.	.	.
.	.	.	.	.	.	.	.	.	.	.	.	.	.	.	.	.	.	32aany\	.	.	.
.	.	.	.	.	.	.	.	.	.	.	.	.	.	.	.	.	.	32gg\JJJ)	.	.	.
!	!	!LO:LB:g=original	!	!	!	!	!	!	!	!	!	!	!	!	!	!	!	!	!	!	!
=18	=18	=18	=18	=18	=18	=18	=18	=18	=18	=18	=18	=18	=18	=18	=18	=18	=18	=18	=18	=18	=18
*	*	*tremolo	*	*	*	*	*	*	*	*	*	*	*	*	*	*	*	*	*	*	*
*	*	*	*	*	*	*	*	*	*	*	*	*	*	*	*	*	*	*	*	*tremolo	*
!LO:TX:t=P:problem=mixed beam	!	!	!	!	!	!	!	!	!	!	!	!	!	!	!	!	!	!	!	!	!
8A\L	.	8A/L	.	8f#/L	.	2ryy	2ryy	2ryy	2r	.	2r	.	2r	2r	.	2r	2ryy	(16ff#\LL	.	16dd\LL	.
.	.	.	.	.	.	.	.	.	.	.	.	.	.	.	.	.	.	16aa\)	.	16dd\	.
8A\	.	8A/	.	8f#/	.	.	.	.	.	.	.	.	.	.	.	.	.	(32gg\L	.	16dd\	.
.	.	.	.	.	.	.	.	.	.	.	.	.	.	.	.	.	.	32ff#\	.	.	.
.	.	.	.	.	.	.	.	.	.	.	.	.	.	.	.	.	.	32ee\	.	16dd\JJ	.
.	.	.	.	.	.	.	.	.	.	.	.	.	.	.	.	.	.	32dd\JJJ)	.	.	.
*	*	*	*	*	*	*	*	*	*	*	*	*	*	*	*	*	*	*	*	*Xtremolo	*
8AA/	.	8A/	.	8e/	.	.	.	.	.	.	.	.	.	.	.	.	.	4eeT\	.	16dd\LL	.
.	.	.	.	.	.	.	.	.	.	.	.	.	.	.	.	.	.	.	.	16dd\	.
8AA/J	.	8A/J	.	8e/J	.	.	.	.	.	.	.	.	.	.	.	.	.	.	.	16cc#\	.
.	.	.	.	.	.	.	.	.	.	.	.	.	.	.	.	.	.	.	.	16cc#\JJ	.
*	*	*Xtremolo	*	*	*	*	*	*	*	*	*	*	*	*	*	*	*	*	*	*	*
!	!	!	!	!LO:LB:g=original	!	!	!	!	!	!	!	!	!	!	!	!	!	!	!	!	!
=19	=19	=19	=19	=19	=19	=19	=19	=19	=19	=19	=19	=19	=19	=19	=19	=19	=19	=19	=19	=19	=19
*	*	*	*	*	*	*	*	*	*	*	*	*	*	*	*	*	*	*	*	*tremolo	*
!	!	!	!	!	!	!	!	!	!	!	!	!	!	!	!	!	!	!	!	!LO:TX:a:t=||||:note=pomocnicze oznaczenie tremola	!
8D\	.	4A/	.	8f#/	.	2ryy	2ryy	2ryy	2r	.	2r	.	2r	2r	.	2r	2ryy	4dd\	.	8dd\L	.
8r	.	.	.	8r	.	.	.	.	.	.	.	.	.	.	.	.	.	.	.	8dd\	.
4r	.	4r	.	4r	.	.	.	.	.	.	.	.	.	.	.	.	.	4r	.	8dd\	.
.	.	.	.	.	.	.	.	.	.	.	.	.	.	.	.	.	.	.	.	8dd\J	.
*	*	*	*	*	*	*	*	*	*	*	*	*	*	*	*	*	*	*	*	*Xtremolo	*
=20	=20	=20	=20	=20	=20	=20	=20	=20	=20	=20	=20	=20	=20	=20	=20	=20	=20	=20	=20	=20	=20
*	*	*	*	*tremolo	*	*	*	*	*	*	*	*	*	*	*	*	*	*	*	*	*
!	!	!	!	!	!	!	!	!	!	!	!	!	!	!	!	!	!	!LO:TX:a:t=2.	!	!	!LO:DY:a:t=for
.	.	.	.	.	.	.	.	.	.	.	.	.	.	.	.	.	.	.	.	8qqa/	f
!	!LO:DY:a:t=forte	!	!	!	!	!	!	!	!	!	!	!	!	!	!	!	!	!	!	!	!
!	!	!	!	!	!LO:DY:b:t=for	!	!	!	!	!	!	!	!	!	!	!	!	!	!	!	!
8C#/L	f	2r	.	16e/LL	f	2ryy	2ryy	2ryy	2r	.	2r	.	2A/	2e\	.	2r	2ryy	2r	.	2gg\	.
.	.	.	.	16a/	.	.	.	.	.	.	.	.	.	.	.	.	.	.	.	.	.
8E/	.	.	.	16e/	.	.	.	.	.	.	.	.	.	.	.	.	.	.	.	.	.
.	.	.	.	16a/	.	.	.	.	.	.	.	.	.	.	.	.	.	.	.	.	.
8AA/	.	.	.	16e/	.	.	.	.	.	.	.	.	.	.	.	.	.	.	.	.	.
.	.	.	.	16a/	.	.	.	.	.	.	.	.	.	.	.	.	.	.	.	.	.
8C#/J	.	.	.	16e/	.	.	.	.	.	.	.	.	.	.	.	.	.	.	.	.	.
.	.	.	.	16a/JJ	.	.	.	.	.	.	.	.	.	.	.	.	.	.	.	.	.
=21	=21	=21	=21	=21	=21	=21	=21	=21	=21	=21	=21	=21	=21	=21	=21	=21	=21	=21	=21	=21	=21
*	*	*tremolo	*	*	*	*	*	*	*	*	*	*	*	*	*	*	*	*	*	*	*
!	!	!	!LO:DY:a:t=for	!	!	!	!	!	!	!	!	!	!	!	!	!	!	!	!	!	!LO:DY:a
!	!	!	!	!	!LO:DY:b	!	!	!	!	!	!	!	!	!	!	!	!	!	!	!	!
!	!LO:DY:b:t=pia.	!	!	!	!	!	!	!	!	!	!	!	!	!	!	!	!	!	!	!	!
8D\L	p	16c#\LL	f	16f#/LL	p	2ryy	2ryy	2ryy	2r	.	2r	.	2d\	2f#\	.	2r	2ryy	2r	.	(16gg\LL	p
.	.	16e\	.	16a/	.	.	.	.	.	.	.	.	.	.	.	.	.	.	.	16aa\)	.
8F#\	.	16c#\	.	16f#/	.	.	.	.	.	.	.	.	.	.	.	.	.	.	.	16dd|\	.
.	.	16e\	.	16a/	.	.	.	.	.	.	.	.	.	.	.	.	.	.	.	16dd|\JJ	.
8D\	.	16c#\	.	16f#/	.	.	.	.	.	.	.	.	.	.	.	.	.	.	.	(16dd\LL	.
.	.	16e\	.	16a/	.	.	.	.	.	.	.	.	.	.	.	.	.	.	.	16ee\)	.
8F#\J	.	16c#\	.	16f#/	.	.	.	.	.	.	.	.	.	.	.	.	.	.	.	(16ee\	.
.	.	16e\JJ	.	16a/JJ	.	.	.	.	.	.	.	.	.	.	.	.	.	.	.	16ff#\JJ)	.
!	!	!	!	!	!	!	!	!	!	!	!	!	!	!	!	!	!	!	!	!LO:LB:g=original	!
=22	=22	=22	=22	=22	=22	=22	=22	=22	=22	=22	=22	=22	=22	=22	=22	=22	=22	=22	=22	=22	=22
!LO:TX:t=P:problem=mixed beam	!LO:DY:a	!	!LO:DY:a	!	!	!	!	!	!	!	!	!	!	!	!	!	!	!	!	!	!
!	!	!	!	!	!	!	!	!	!	!	!	!	!	!	!	!	!	!	!	!	!LO:DY:b:t=for
!	!	!	!	!	!LO:DY:b:t=for	!	!	!	!	!	!	!	!	!	!	!	!	!	!	!	!
!	!LO:DY:a:t=forte	!	!	!	!	!	!	!	!	!	!	!	!	!	!	!	!	!	!	!	!
8C#/L	f	16d\LL	p	16e/LL	f	2ryy	2ryy	2ryy	2r	.	2r	.	2A/	2e\	.	2r	2ryy	4r	.	4.gg\	f
.	.	16f#\	.	16a/	.	.	.	.	.	.	.	.	.	.	.	.	.	.	.	.	.
8E/	.	16d\	.	16e/	.	.	.	.	.	.	.	.	.	.	.	.	.	.	.	.	.
.	.	16f#\	.	16a/	.	.	.	.	.	.	.	.	.	.	.	.	.	.	.	.	.
8AA/	.	16d\	.	16e/	.	.	.	.	.	.	.	.	.	.	.	.	.	8r	p	.	.
.	.	16f#\	.	16a/	.	.	.	.	.	.	.	.	.	.	.	.	.	.	.	.	.
8A\J	.	16d\	.	16e/	.	.	.	.	.	.	.	.	.	.	.	.	.	8ccc#\	.	16ee\LL	.
.	.	16f#\JJ	.	16a/JJ	.	.	.	.	.	.	.	.	.	.	.	.	.	.	.	16cc#\JJ	.
*	*	*	*	*Xtremolo	*	*	*	*	*	*	*	*	*	*	*	*	*	*	*	*	*
=23	=23	=23	=23	=23	=23	=23	=23	=23	=23	=23	=23	=23	=23	=23	=23	=23	=23	=23	=23	=23	=23
!	!	!	!LO:DY:a:t=fo	!	!	!	!	!	!	!	!	!	!	!	!	!	!	!	!	!	!LO:DY:a:t=p&colon;
!	!	!	!	!	!LO:DY:b	!	!	!	!	!	!	!	!	!	!	!	!	!	!	!	!
8d\L	.	16c#\LL	f	4e/	p	2ryy	2ryy	2ryy	2r	.	2r	.	4A/	4e\	.	2r	2ryy	(4ccc#\	.	4cc#\	p
.	.	16e\	.	.	.	.	.	.	.	.	.	.	.	.	.	.	.	.	.	.	.
8A\	.	16c#\	.	.	.	.	.	.	.	.	.	.	.	.	.	.	.	.	.	.	.
.	.	16e\	.	.	.	.	.	.	.	.	.	.	.	.	.	.	.	.	.	.	.
8D\J	.	16c#\	.	8f#/	.	.	.	.	.	.	.	.	8d\	8f#\	.	.	.	8ddd\)	.	8dd\	.
.	.	16e\	.	.	.	.	.	.	.	.	.	.	.	.	.	.	.	.	.	.	.
8r	.	16c#\	.	8r	.	.	.	.	.	.	.	.	8r	8r	.	.	.	8r	.	8r	.
.	.	16e\JJ	.	.	.	.	.	.	.	.	.	.	.	.	.	.	.	.	.	.	.
*	*	*Xtremolo	*	*	*	*	*	*	*	*	*	*	*	*	*	*	*	*	*	*	*
!	!	!	!	!	!	!	!	!	!	!	!	!	!	!LO:LB:g=original	!	!	!	!	!	!	!
=24	=24	=24	=24	=24	=24	=24	=24	=24	=24	=24	=24	=24	=24	=24	=24	=24	=24	=24	=24	=24	=24
*tremolo	*	*	*	*	*	*	*	*	*	*	*	*	*	*	*	*	*	*	*	*	*
!	!LO:DY:a:t=p.	!	!	!	!	!	!	!	!	!	!LO:TX:i:a:t=Solo	!	!LO:TX:a:t=7.	!LO:TX:a:t=7	!	!	!	!LO:TX:a:t=23.	!	!	!
!	!	!	!	!	!	!	!	!	!	!	!	!	!	!	!	!	!	!	!	!	!LO:DY:b:t=pia
!	!	!	!	!	!LO:DY:b:t=pp&colon;	!	!	!	!	!	!	!	!	!	!	!	!	!	!	!	!
8D\L	p	4A/	p	16r	pp	2ryy	2ryy	2ryy	4.f#\	Be-	4.dd\	Be-	2r	2r	.	2r	2ryy	2r	.	16r	p
.	.	.	.	16f#/LL	.	.	.	.	.	.	.	.	.	.	.	.	.	.	.	16dd\LL	.
8D\	.	.	.	16e/	.	.	.	.	.	.	.	.	.	.	.	.	.	.	.	16cc#\	.
.	.	.	.	16f#/JJ	.	.	.	.	.	.	.	.	.	.	.	.	.	.	.	16dd\JJ	.
8D\	.	8A/	.	16r	.	.	.	.	.	.	.	.	.	.	.	.	.	.	.	16r	.
.	.	.	.	16f#/LL	.	.	.	.	.	.	.	.	.	.	.	.	.	.	.	16dd\LL	.
8D\J	.	8r	.	16f#/	.	.	.	.	8f#\	-ne-	32dd\LLL	-ne-	.	.	.	.	.	.	.	16dd\	.
.	.	.	.	.	.	.	.	.	.	.	32cc#\	.	.	.	.	.	.	.	.	.	.
.	.	.	.	16f#/JJ	.	.	.	.	.	.	32ff#\	.	.	.	.	.	.	.	.	16dd\JJ	.
.	.	.	.	.	.	.	.	.	.	.	32ee\JJJ	.	.	.	.	.	.	.	.	.	.
=25	=25	=25	=25	=25	=25	=25	=25	=25	=25	=25	=25	=25	=25	=25	=25	=25	=25	=25	=25	=25	=25
*	*	*tremolo	*	*	*	*	*	*	*	*	*	*	*	*	*	*	*	*	*	*	*
.	.	.	.	.	.	.	.	.	.	.	8qee/	.	.	.	.	.	.	.	.	.	.
!	!	!	!LO:DY:a:t=p.	!	!	!	!	!	!	!	!	!	!	!	!	!	!	!	!	!	!
8BB/L	.	8A/L	p	16r	.	2ryy	2ryy	2ryy	8f#\	-di-	8dd\	-di-	2r	2r	.	2r	2ryy	2r	.	16r	.
.	.	.	.	16f#/LL	.	.	.	.	.	.	.	.	.	.	.	.	.	.	.	16dd\LL	.
8BB/	.	8A/	.	16e/	.	.	.	.	8f#\	-ctus	8dd\	-ctus	.	.	.	.	.	.	.	16cc#\	.
.	.	.	.	16f#/JJ	.	.	.	.	.	.	.	.	.	.	.	.	.	.	.	16dd\JJ	.
8BB/	.	8A/	.	16r	.	.	.	.	8r	.	8r	.	.	.	.	.	.	.	.	16r	.
.	.	.	.	16f#/LL	.	.	.	.	.	.	.	.	.	.	.	.	.	.	.	16dd\LL	.
8BB/J	.	8A/J	.	16e/	.	.	.	.	8f#\	qui	8dd\	qui	.	.	.	.	.	.	.	16cc#\	.
.	.	.	.	16f#/JJ	.	.	.	.	.	.	.	.	.	.	.	.	.	.	.	16dd\JJ	.
!LO:LB:g=original	!	!	!	!LO:LB:g=original	!	!	!	!	!	!	!	!	!	!	!	!	!	!	!	!	!
=26	=26	=26	=26	=26	=26	=26	=26	=26	=26	=26	=26	=26	=26	=26	=26	=26	=26	=26	=26	=26	=26
8G\L	.	8B/L	.	16r	.	2ryy	2ryy	2ryy	2g\	ve-	4.ee\	ve-	2r	2r	.	2r	2ryy	2r	.	16r	.
.	.	.	.	16B/LL	.	.	.	.	.	.	.	.	.	.	.	.	.	.	.	16ee\LL	.
8G\	.	8B/	.	16B/	.	.	.	.	.	.	.	.	.	.	.	.	.	.	.	16dd#X\	.
.	.	.	.	16B/JJ	.	.	.	.	.	.	.	.	.	.	.	.	.	.	.	16ee\JJ	.
8G\	.	8B/	.	16r	.	.	.	.	.	.	.	.	.	.	.	.	.	.	.	16r	.
.	.	.	.	16B/LL	.	.	.	.	.	.	.	.	.	.	.	.	.	.	.	16ee\LL	.
8G\J	.	8B/J	.	16B/	.	.	.	.	.	.	32ee\LLL	.	.	.	.	.	.	.	.	16dd#\	.
.	.	.	.	.	.	.	.	.	.	.	32dd#X\	.	.	.	.	.	.	.	.	.	.
.	.	.	.	16B/JJ	.	.	.	.	.	.	32gg\	.	.	.	.	.	.	.	.	16ee\JJ	.
.	.	.	.	.	.	.	.	.	.	.	32ff#\JJJ	.	.	.	.	.	.	.	.	.	.
!	!	!	!	!	!	!	!	!	!	!	!	!	!	!	!	!	!	!	!	!LO:LB:g=original	!
=27	=27	=27	=27	=27	=27	=27	=27	=27	=27	=27	=27	=27	=27	=27	=27	=27	=27	=27	=27	=27	=27
.	.	.	.	.	.	.	.	.	.	.	8qff#/	.	.	.	.	.	.	.	.	.	.
8G\L	.	8G/L	.	16r	.	2ryy	2ryy	2ryy	8g\	.	8ee\	.	2r	2r	.	2r	2ryy	2r	.	16r	.
.	.	.	.	16B/LL	.	.	.	.	.	.	.	.	.	.	.	.	.	.	.	16ee|\LL	.
8G\	.	8G/	.	16B/	.	.	.	.	8g\	-nit	8ee\	-nit	.	.	.	.	.	.	.	(16dd#X\	.
.	.	.	.	16B/JJ	.	.	.	.	.	.	.	.	.	.	.	.	.	.	.	16ee\JJ)	.
8G\	.	8G/	.	8r	.	.	.	.	8r	.	8r	.	.	.	.	.	.	.	.	16r	.
.	.	.	.	.	.	.	.	.	.	.	.	.	.	.	.	.	.	.	.	16ee\LL	.
8G\J	.	8G/J	.	16B/LL	.	.	.	.	8b\	qui	8gg\	in	.	.	.	.	.	.	.	16gg\	.
.	.	.	.	16g/JJ	.	.	.	.	.	.	.	.	.	.	.	.	.	.	.	16bb\JJ	.
*Xtremolo	*	*	*	*	*	*	*	*	*	*	*	*	*	*	*	*	*	*	*	*	*
!	!	!	!	!	!	!	!	!	!LO:LB:g=original	!	!LO:LB:g=original	!	!	!	!	!	!	!	!	!	!
=28	=28	=28	=28	=28	=28	=28	=28	=28	=28	=28	=28	=28	=28	=28	=28	=28	=28	=28	=28	=28	=28
!LO:TX:t=P:problem=mixed beam	!	!	!	!	!	!	!	!	!	!	!	!	!	!	!	!	!	!	!	!	!
8A\L	.	8G/L	.	8.f#/L	.	2ryy	2ryy	2ryy	8.a\L	ve-	8.ff#\L	no-	2r	2r	.	2r	2ryy	2r	.	8.aa\L	.
8A\	.	8G/	.	.	.	.	.	.	.	.	.	.	.	.	.	.	.	.	.	.	.
.	.	.	.	16d/K	.	.	.	.	16f#\Jk	.	16dd\Jk	.	.	.	.	.	.	.	.	16ff#\Jk	.
8AA/	.	8G/	.	8e/	.	.	.	.	16a\LL	.	16ff#\LL	.	.	.	.	.	.	.	.	16aa\LL	.
.	.	.	.	.	.	.	.	.	16g\	.	16ee\	.	.	.	.	.	.	.	.	16gg\	.
8AA/J	.	8G/J	.	8g/J	.	.	.	.	16f#\	.	16dd\	.	.	.	.	.	.	.	.	16ff#\	.
.	.	.	.	.	.	.	.	.	16e\JJ	.	16cc#\JJ	-mi-	.	.	.	.	.	.	.	16ee\JJ	.
=29	=29	=29	=29	=29	=29	=29	=29	=29	=29	=29	=29	=29	=29	=29	=29	=29	=29	=29	=29	=29	=29
.	.	.	.	.	.	.	.	.	.	.	8qqcc#/	.	.	.	.	.	.	.	.	.	.
8D\L	.	8A/L	.	16g/LL	.	2ryy	2ryy	2ryy	4f#\	-nit	4dd\	-ne	2r	2r	.	2r	2ryy	2r	.	(16ee\LL	.
.	.	.	.	16f#/	.	.	.	.	.	.	.	.	.	.	.	.	.	.	.	16dd\)	.
8D\	.	8A/	.	16f#/	.	.	.	.	.	.	.	.	.	.	.	.	.	.	.	16dd|\	.
.	.	.	.	16f#/JJ	.	.	.	.	.	.	.	.	.	.	.	.	.	.	.	16dd|\JJ	.
8F#\	.	8A/	.	8a/L	.	.	.	.	8r	.	16r	.	.	.	.	.	.	.	.	16r	.
.	.	.	.	.	.	.	.	.	.	.	16dd\LL	Do-	.	.	.	.	.	.	.	16dd\LL	.
8F#\J	.	8A/J	.	8a/J	.	.	.	.	8a\	in	16cc#\	.	.	.	.	.	.	.	.	16cc#\	.
.	.	.	.	.	.	.	.	.	.	.	16ccn\JJ	.	.	.	.	.	.	.	.	16ccn\JJ	.
*	*	*Xtremolo	*	*	*	*	*	*	*	*	*	*	*	*	*	*	*	*	*	*	*
=30	=30	=30	=30	=30	=30	=30	=30	=30	=30	=30	=30	=30	=30	=30	=30	=30	=30	=30	=30	=30	=30
!	!	!LO:TX:t=P:problem=pominięty takt	!	!	!	!	!	!	!	!	!	!	!	!	!	!	!	!	!	!	!
!	!	!	!	!	!	!	!	!	!	!	!	!	!	!LO:TX:t=P:problem=alternatywna wersja t. 30-32 zapisana inną ręką u dołu strony za pomocą odnośnika "vide retro", transkrypcja znajduje się w drugiej wersji niniejszej edycji	!	!	!	!	!	!	!
8G\L	.	2ryy	.	8g/L	.	2ryy	2ryy	2ryy	4.b\	no-	8b\L	.	2r	2r	.	2r	2ryy	2r	.	8b\L	.
8G\	.	.	.	8.b/J	.	.	.	.	.	.	8.gg\J	.	.	.	.	.	.	.	.	8.gg\J	.
8E\	.	.	.	.	.	.	.	.	.	.	.	.	.	.	.	.	.	.	.	.	.
.	.	.	.	16g/LL	.	.	.	.	.	.	16ee\LL	.	.	.	.	.	.	.	.	16ee\LL	.
*	*	*	*	*	*	*	*	*	*Xtuplet	*	*	*	*	*	*	*	*	*	*	*	*
8A\J	.	.	.	16f#/	.	.	.	.	24g\LL	.	16dd\	.	.	.	.	.	.	.	.	16dd\	.
!	!	!	!	!	!	!	!	!	!LO:TX:t=P:problem=po nucie belka rozdzielona późniejszą ręką (?)	!	!	!	!	!	!	!	!	!	!	!	!
.	.	.	.	.	.	.	.	.	24f#\	.	.	.	.	.	.	.	.	.	.	.	.
.	.	.	.	16e/JJ	.	.	.	.	.	.	16cc#\JJ	-mi-	.	.	.	.	.	.	.	16cc#X\JJ	.
.	.	.	.	.	.	.	.	.	24e\JJ	-mi-	.	.	.	.	.	.	.	.	.	.	.
=31	=31	=31	=31	=31	=31	=31	=31	=31	=31	=31	=31	=31	=31	=31	=31	=31	=31	=31	=31	=31	=31
!	!	!	!	!	!	!	!	!	!	!	!	!	!LO:TX:t=P:problem=alternatywna wersja t. 31-32 zapisana inną ręką u dołu strony za pomocą odnośnika "vide retro", transkrypcja znajduje się w drugiej wersji niniejszej edycji	!	!	!	!	!	!	!	!
!	!	!	!	!	!	!	!	!	!	!	!	!	!LO:TX:t=P:problem=t. 31-32 poddane nieoczywistym korektom	!	!	!	!	!	!	!	!
.	.	.	.	.	.	.	.	.	8qqe/	.	8qqcc#/	.	.	.	.	.	.	.	.	8qqcc#/	.
8.D\L	.	8B\L	.	8.f#/L	.	2ryy	2ryy	2ryy	4f#\	-ne	4dd\	-ni	8r	8r	.	2r	2ryy	2r	.	4dd\	.
!	!	!	!	!	!	!	!	!	!	!	!	!	!LO:TX:b:t=c	!	!LO:DY:a:t=p&colon;	!	!	!	!	!	!
.	.	8B\	.	.	.	.	.	.	.	.	.	.	8AL 8D/	8d\L	p	.	.	.	.	.	.
16B\Jk	.	.	.	16d/Jk	.	.	.	.	.	.	.	.	.	.	.	.	.	.	.	.	.
!	!	!	!	!	!	!	!	!	!	!	!	!	!LO:TX:b:t=c	!	!	!	!	!	!	!	!
16A\LL	.	8f#\	.	16c#/LL	.	.	.	.	4r	.	4r	.	8A 8D/	8d\	.	.	.	.	.	4r	.
16G\	.	.	.	16B/	.	.	.	.	.	.	.	.	.	.	.	.	.	.	.	.	.
!	!	!	!	!	!	!	!	!	!	!	!	!	!LO:TX:b:t=c	!	!	!	!	!	!	!	!
16F#\	.	8f#\J	.	16A/	.	.	.	.	.	.	.	.	8AJ 8D/	8d\J	.	.	.	.	.	.	.
16E\JJ	.	.	.	16G/JJ	.	.	.	.	.	.	.	.	.	.	.	.	.	.	.	.	.
!	!	!	!	!	!	!	!	!	!	!	!	!	!	!	!	!	!	!	!	!LO:PB:g=original	!
=32	=32	=32	=32	=32	=32	=32	=32	=32	=32	=32	=32	=32	=32	=32	=32	=32	=32	=32	=32	=32	=32
!	!	!	!	!	!	!	!	!	!	!	!	!	!	!LO:N:vis=8.	!	!	!	!	!	!	!
8D\	.	8g\L	.	8f#/	.	2ryy	2ryy	2ryy	4r	.	4r	.	8D/	8d\	.	2r	2ryy	2r	.	16r	.
.	.	.	.	.	.	.	.	.	.	.	.	.	.	.	.	.	.	.	.	16d/LL	.
8r	.	8g\	.	8r	.	.	.	.	.	.	.	.	8r	8r	.	.	.	.	.	16f#/	.
.	.	.	.	.	.	.	.	.	.	.	.	.	.	.	.	.	.	.	.	16a/JJ	.
8r	.	8e\	.	8r	.	.	.	.	8f#\	Be-	8a\	Be-	8r	4r	.	.	.	.	.	16dd\LL	.
.	.	.	.	.	.	.	.	.	.	.	.	.	.	.	.	.	.	.	.	16ff#\	.
!	!	!	!	!	!	!	!	!	!	!	!	!	!LO:TX:b:t=g	!	!	!	!	!	!	!	!
8D\	.	8A\J	.	8f#/	.	.	.	.	8f#\	-ne-	8a\	-ne-	8A	.	.	.	.	.	.	16ff#\	.
.	.	.	.	.	.	.	.	.	.	.	.	.	.	.	.	.	.	.	.	16aa\JJ	.
!	!	!	!	!LO:LB:g=original	!	!	!	!	!	!	!	!	!LO:LB:g=original	!	!	!	!	!	!	!	!
=33	=33	=33	=33	=33	=33	=33	=33	=33	=33	=33	=33	=33	=33	=33	=33	=33	=33	=33	=33	=33	=33
!LO:TX:t=P:problem=mixed beam	!	!	!	!	!	!	!	!	!	!	!	!	!LO:TX:t=P:problem=pominięte takty	!	!	!	!	!	!	!	!
8AA/L	.	8d\L	.	32e/LLL	.	2ryy	2ryy	2ryy	4e\	-di-	4a\	-di-	2ryy	8r	.	2r	2ryy	2r	.	32gg\LLL	.
.	.	.	.	32f#/	.	.	.	.	.	.	.	.	.	.	.	.	.	.	.	32aa\	.
.	.	.	.	32e/	.	.	.	.	.	.	.	.	.	.	.	.	.	.	.	32gg\	.
.	.	.	.	32d/JJ	.	.	.	.	.	.	.	.	.	.	.	.	.	.	.	32ff#\JJ	.
8A\	.	16r	.	8c#/J	.	.	.	.	.	.	.	.	.	8e\L	.	.	.	.	.	8ee\J	.
.	.	16b\Jk	.	.	.	.	.	.	.	.	.	.	.	.	.	.	.	.	.	.	.
8AA/	.	16a\LL	.	16r	.	.	.	.	8c#\	-ctus	8a\	-ctus	.	8e\	.	.	.	.	.	16r	.
.	.	16g\	.	16c#/LL	.	.	.	.	.	.	.	.	.	.	.	.	.	.	.	16ee\LL	.
8C#/J	.	16f#\	.	16c#/	.	.	.	.	8e\	qui	8a\	qui	.	8e\J	.	.	.	.	.	16ee\	.
.	.	16e\JJ	.	16e/JJ	.	.	.	.	.	.	.	.	.	.	.	.	.	.	.	16gg\JJ	.
!	!	!	!	!	!	!	!	!	!	!	!LO:LB:g=original	!	!	!	!	!	!	!	!	!	!
=34	=34	=34	=34	=34	=34	=34	=34	=34	=34	=34	=34	=34	=34	=34	=34	=34	=34	=34	=34	=34	=34
!	!	!	!	!	!	!	!	!	!	!	!	!	!	!	!	!	!	!	!	!LO:TX:t=P:problem=mixed beam	!
8D\	.	8d\	.	8f#/	.	2ryy	2ryy	2ryy	2f#\	ve-	2a\	ve-	2ryy	8f#\	.	2r	2ryy	2r	.	16ff#\LL	.
.	.	.	.	.	.	.	.	.	.	.	.	.	.	.	.	.	.	.	.	16d/	.
8r	.	8r	.	8r	.	.	.	.	.	.	.	.	.	8r	.	.	.	.	.	16f#/	.
.	.	.	.	.	.	.	.	.	.	.	.	.	.	.	.	.	.	.	.	16a/JJ	.
8r	.	8r	.	8r	.	.	.	.	.	.	.	.	.	4r	.	.	.	.	.	16dd\LL	.
.	.	.	.	.	.	.	.	.	.	.	.	.	.	.	.	.	.	.	.	16ff#\	.
8D\	.	8A/	.	8f#/	.	.	.	.	.	.	.	.	.	.	.	.	.	.	.	16ff#\	.
.	.	.	.	.	.	.	.	.	.	.	.	.	.	.	.	.	.	.	.	16aa\JJ	.
!	!	!	!	!	!	!	!	!	!LO:LB:g=original	!	!	!	!	!	!	!	!	!	!	!	!
=35	=35	=35	=35	=35	=35	=35	=35	=35	=35	=35	=35	=35	=35	=35	=35	=35	=35	=35	=35	=35	=35
*	*	*tremolo	*	*	*	*	*	*	*	*	*	*	*	*	*	*	*	*	*	*	*
!LO:TX:t=P:problem=mixed beam	!	!	!	!	!	!	!	!	!	!	!	!	!	!	!	!	!	!	!	!	!
8AA/L	.	8A/L	.	32e/LLL	.	2ryy	2ryy	2ryy	2e\	.	2a\	.	2ryy	8r	.	2r	2ryy	2r	.	32gg\LLL	.
.	.	.	.	32f#/	.	.	.	.	.	.	.	.	.	.	.	.	.	.	.	32aa\	.
.	.	.	.	32e/	.	.	.	.	.	.	.	.	.	.	.	.	.	.	.	32gg\	.
.	.	.	.	32d/JJ	.	.	.	.	.	.	.	.	.	.	.	.	.	.	.	32ff#\JJ	.
8A\	.	8A/	.	8c#/J	.	.	.	.	.	.	.	.	.	8e\L	.	.	.	.	.	8ee\J	.
8AA/	.	8A/	.	16r	.	.	.	.	.	.	.	.	.	8e\	.	.	.	.	.	16r	.
.	.	.	.	16c#/LL	.	.	.	.	.	.	.	.	.	.	.	.	.	.	.	16ee\LL	.
8C#/J	.	8A/J	.	16c#/	.	.	.	.	.	.	.	.	.	8e\J	.	.	.	.	.	16ee\	.
.	.	.	.	16e/JJ	.	.	.	.	.	.	.	.	.	.	.	.	.	.	.	16gg\JJ	.
*	*	*Xtremolo	*	*	*	*	*	*	*	*	*	*	*	*	*	*	*	*	*	*	*
!	!	!	!	!	!	!	!	!	!	!	!	!	!	!	!	!	!	!	!	!LO:LB:g=original	!
=36	=36	=36	=36	=36	=36	=36	=36	=36	=36	=36	=36	=36	=36	=36	=36	=36	=36	=36	=36	=36	=36
8D\L	.	8A/	.	8d/L	.	2ryy	2ryy	2ryy	4.f#\	-nit	4a\	-nit	2ryy	8f#\	.	2r	2ryy	2r	.	(16ee\LL	.
.	.	.	.	.	.	.	.	.	.	.	.	.	.	.	.	.	.	.	.	16ff#\)	.
8D\	.	8r	.	8d/	.	.	.	.	.	.	.	.	.	8r	.	.	.	.	.	16ff#|\	.
.	.	.	.	.	.	.	.	.	.	.	.	.	.	.	.	.	.	.	.	16ff#|\JJ	.
8E\	.	8r	.	8d/	.	.	.	.	.	.	8r	.	.	8e\	.	.	.	.	.	(16aa\LL	.
.	.	.	.	.	.	.	.	.	.	.	.	.	.	.	.	.	.	.	.	16gg#X\)	.
8E\J	.	8A/	.	8d/J	.	.	.	.	8g#X\	in	8dd\	qui	.	8r	.	.	.	.	.	16gg#|\	.
.	.	.	.	.	.	.	.	.	.	.	.	.	.	.	.	.	.	.	.	16gg#|\JJ	.
!LO:LB:g=original	!	!	!	!	!	!	!	!	!	!	!	!	!	!	!	!	!	!	!	!	!
=37	=37	=37	=37	=37	=37	=37	=37	=37	=37	=37	=37	=37	=37	=37	=37	=37	=37	=37	=37	=37	=37
*	*	*tremolo	*	*	*	*	*	*	*	*	*	*	*	*	*	*	*	*	*	*	*
!	!	!	!	!	!	!	!	!	!	!	!	!	!	!LO:N:vis=8.	!	!	!	!	!	!	!
8AA/	.	8A/L	.	8c#/L	.	2ryy	2ryy	2ryy	4.a\	no-	8cc#\L	ve-	8A	8e\	.	2r	2ryy	2r	.	16aa\LL	.
.	.	.	.	.	.	.	.	.	.	.	.	.	.	.	.	.	.	.	.	16a\	.
8r	.	8A/	.	8d/	.	.	.	.	.	.	8ff#\	.	8r	8r	.	.	.	.	.	16a\	.
.	.	.	.	.	.	.	.	.	.	.	.	.	.	.	.	.	.	.	.	16a\JJ	.
8r	.	8A/	.	8c#/	.	.	.	.	.	.	8ee\	.	4r	4r	.	.	.	.	.	16ee\LL	.
.	.	.	.	.	.	.	.	.	.	.	.	.	.	.	.	.	.	.	.	16a\	.
8E\	.	8A/J	.	8B/J	.	.	.	.	8g#X\	-mi-	8dd\J	.	.	.	.	.	.	.	.	16g#X\	.
.	.	.	.	.	.	.	.	.	.	.	.	.	.	.	.	.	.	.	.	16dd\JJ	.
*	*	*Xtremolo	*	*	*	*	*	*	*	*	*	*	*	*	*	*	*	*	*	*	*
=38	=38	=38	=38	=38	=38	=38	=38	=38	=38	=38	=38	=38	=38	=38	=38	=38	=38	=38	=38	=38	=38
!	!	!	!	!	!	!	!	!	!	!	!	!	!	!LO:TX:a:t=1	!	!	!	!	!	!	!
8AA/	.	8A/L	.	8c#/L	.	2ryy	2ryy	2ryy	8a\	-ne	8cc#\	-nit	2r	2r	.	2r	2ryy	2r	.	16cc#\LL	.
.	.	.	.	.	.	.	.	.	.	.	.	.	.	.	.	.	.	.	.	16a\	.
8r	.	8d/	.	8d/	.	.	.	.	4a\	Do-	8ff#\	qui	.	.	.	.	.	.	.	16ff#\	.
.	.	.	.	.	.	.	.	.	.	.	.	.	.	.	.	.	.	.	.	16a\JJ	.
8r	.	8B/	.	8c#/	.	.	.	.	.	.	8ee\L	ve-	.	.	.	.	.	.	.	16ee\LL	.
.	.	.	.	.	.	.	.	.	.	.	.	.	.	.	.	.	.	.	.	16a\	.
8E\	.	8B/J	.	8B/J	.	.	.	.	8g#X\	.	8dd\J	.	.	.	.	.	.	.	.	16g#X\	.
.	.	.	.	.	.	.	.	.	.	.	.	.	.	.	.	.	.	.	.	16dd\JJ	.
=39	=39	=39	=39	=39	=39	=39	=39	=39	=39	=39	=39	=39	=39	=39	=39	=39	=39	=39	=39	=39	=39
*	*	*	*	*tremolo	*	*	*	*	*	*	*	*	*	*	*	*	*	*	*	*	*
8A\L	.	8A/	.	8e/L	.	2ryy	2ryy	2ryy	8a\L	.	16cc#\LL	.	8r	8r	.	2r	2ryy	2r	.	16cc#\LL	.
.	.	.	.	.	.	.	.	.	.	.	16a\	.	.	.	.	.	.	.	.	16a\	.
8G#X\	.	8r	.	8e/	.	.	.	.	8b\	.	16b\	.	8e\L	8e\L	.	.	.	.	.	16b\	.
.	.	.	.	.	.	.	.	.	.	.	16dd\JJ	.	.	.	.	.	.	.	.	16dd\JJ	.
8A\	.	8r	.	8e/	.	.	.	.	8a\	.	16cc#\LL	.	8e\	8e\	.	.	.	.	.	16cc#\LL	.
.	.	.	.	.	.	.	.	.	.	.	16a\	.	.	.	.	.	.	.	.	16a\	.
8G#\J	.	8B 8G#X/	.	8e/J	.	.	.	.	8b\J	.	16b\	.	8e\J	8e\J	.	.	.	.	.	16b\	.
.	.	.	.	.	.	.	.	.	.	.	16dd\JJ	.	.	.	.	.	.	.	.	16dd\JJ	.
*	*	*	*	*Xtremolo	*	*	*	*	*	*	*	*	*	*	*	*	*	*	*	*	*
!	!	!LO:LB:g=original	!	!	!	!	!	!	!	!	!	!	!	!	!	!	!	!	!	!LO:LB:g=original	!
=40	=40	=40	=40	=40	=40	=40	=40	=40	=40	=40	=40	=40	=40	=40	=40	=40	=40	=40	=40	=40	=40
.	.	.	.	.	.	.	.	.	.	.	.	.	.	.	.	.	.	.	.	8qdd/	.
8A\L	.	8A/	.	8a/L	.	2ryy	2ryy	2ryy	16a\	.	8cc#\	.	8e\L	8e\L	.	2r	2ryy	2r	.	16cc#\LL	.
.	.	.	.	.	.	.	.	.	16a\	-mi-	.	.	.	.	.	.	.	.	.	32b\L	.
.	.	.	.	.	.	.	.	.	.	.	.	.	.	.	.	.	.	.	.	32cc#\JJ	.
8E\J	.	8r	.	8g#X/J	.	.	.	.	8g#X\	-ni	8b\	-nit	8e\J	8e\J	.	.	.	.	.	8b\J	.
16E\LL	.	8r	.	4r	.	.	.	.	4r	.	4r	.	4r	4r	.	.	.	.	.	4r	.
16D\	.	.	.	.	.	.	.	.	.	.	.	.	.	.	.	.	.	.	.	.	.
16C#\	.	8A/	.	.	.	.	.	.	.	.	.	.	.	.	.	.	.	.	.	.	.
16BB\JJ	.	.	.	.	.	.	.	.	.	.	.	.	.	.	.	.	.	.	.	.	.
!	!	!	!	!LO:LB:g=original	!	!	!	!	!	!	!LO:LB:g=original	!	!	!LO:LB:g=original	!	!	!	!	!	!	!
=41	=41	=41	=41	=41	=41	=41	=41	=41	=41	=41	=41	=41	=41	=41	=41	=41	=41	=41	=41	=41	=41
*	*	*	*	*	*	*	*	*	*	*	*	*	*tremolo	*	*	*	*	*	*	*	*
*	*	*	*	*	*	*	*	*	*	*	*	*	*	*tremolo	*	*	*	*	*	*	*
!LO:TX:t=P:problem=mixed beam	!	!	!	!	!	!	!	!	!	!	!	!	!	!	!	!	!	!	!	!	!
8AA/L	.	8A/L	.	16c#X/LL	.	2ryy	2ryy	2ryy	4.a\	Be-	4a\	Be-	8AA/L	8A/L	.	2r	2ryy	2r	.	4a\	.
.	.	.	.	16e/	.	.	.	.	.	.	.	.	.	.	.	.	.	.	.	.	.
8A\	.	8B/	.	16c#/	.	.	.	.	.	.	.	.	8AA/	8A/	.	.	.	.	.	.	.
.	.	.	.	16e/JJ	.	.	.	.	.	.	.	.	.	.	.	.	.	.	.	.	.
8A\	.	8A/	.	16c#/LL	.	.	.	.	.	.	16cc#\LL	.	8AA/	8A/	.	.	.	.	.	16cc#\LL	.
.	.	.	.	16e/	.	.	.	.	.	.	16a\JJ	.	.	.	.	.	.	.	.	16a\	.
8A\J	.	8B/J	.	16c#/	.	.	.	.	8e\	-ne-	16cc#\LL	-ne-	8AA/J	8A/J	.	.	.	.	.	16cc#\	.
.	.	.	.	16e/JJ	.	.	.	.	.	.	16ee\JJ	.	.	.	.	.	.	.	.	16ee\JJ	.
=42	=42	=42	=42	=42	=42	=42	=42	=42	=42	=42	=42	=42	=42	=42	=42	=42	=42	=42	=42	=42	=42
*tremolo	*	*	*	*	*	*	*	*	*	*	*	*	*	*	*	*	*	*	*	*	*
8A\L	.	8e\L	.	16d/LL	.	2ryy	2ryy	2ryy	8f#\	-di-	16ee\LL	-di-	8AA/L	8A/L	.	2r	2ryy	2r	.	16ee\LL	.
.	.	.	.	16f#/	.	.	.	.	.	.	16dd\JJ	.	.	.	.	.	.	.	.	16dd\JJ	.
8A\	.	8e\J	.	16d/	.	.	.	.	4f#\	-ctus	4dd\	-ctus	8AA/	8A/	.	.	.	.	.	4dd\	.
.	.	.	.	16f#/JJ	.	.	.	.	.	.	.	.	.	.	.	.	.	.	.	.	.
8A\	.	16e\LL	.	16d/LL	.	.	.	.	.	.	.	.	8AA/	8A/	.	.	.	.	.	.	.
.	.	16d\	.	16f#/	.	.	.	.	.	.	.	.	.	.	.	.	.	.	.	.	.
8A\J	.	16c#\	.	16d/	.	.	.	.	8d\	qui	16b\LL	qui	8AA/J	8A/J	.	.	.	.	.	16b\LL	.
.	.	16B\JJ	.	16f#/JJ	.	.	.	.	.	.	16g#X\JJ	.	.	.	.	.	.	.	.	16g#X\JJ	.
!	!	!	!	!	!	!	!	!	!LO:LB:g=original	!	!	!	!	!	!	!	!	!	!	!	!
=43	=43	=43	=43	=43	=43	=43	=43	=43	=43	=43	=43	=43	=43	=43	=43	=43	=43	=43	=43	=43	=43
*	*	*tremolo	*	*	*	*	*	*	*	*	*	*	*	*	*	*	*	*	*	*	*
8A\L	.	16A/LL	.	16c#/LL	.	2ryy	2ryy	2ryy	4c#\	ve-	4a\	ve-	8AA/L	8A/L	.	2r	2ryy	2r	.	4a\	.
.	.	16c#/	.	16e/	.	.	.	.	.	.	.	.	.	.	.	.	.	.	.	.	.
8A\	.	16A/	.	16c#/	.	.	.	.	.	.	.	.	8AA/	8A/	.	.	.	.	.	.	.
.	.	16c#/	.	16e/JJ	.	.	.	.	.	.	.	.	.	.	.	.	.	.	.	.	.
8A\	.	16A/	.	16c#/LL	.	.	.	.	8e\	-nit	16cc#\LL	.	8AA/	8A/	.	.	.	.	.	16cc#\LL	.
.	.	16c#/	.	16e/	.	.	.	.	.	.	16a\JJ	.	.	.	.	.	.	.	.	16a\	.
8A\J	.	16A/	.	16c#/	.	.	.	.	8e\	qui	16cc#\LL	.	8AA/J	8A/J	.	.	.	.	.	16cc#\	.
.	.	16c#/JJ	.	16e/JJ	.	.	.	.	.	.	16ee\JJ	.	.	.	.	.	.	.	.	16ee\JJ	.
*	*	*Xtremolo	*	*	*	*	*	*	*	*	*	*	*	*	*	*	*	*	*	*	*
=44	=44	=44	=44	=44	=44	=44	=44	=44	=44	=44	=44	=44	=44	=44	=44	=44	=44	=44	=44	=44	=44
8A\L	.	16A\LL	.	16d/LL	.	2ryy	2ryy	2ryy	4.f#\	ve-	16ee\LL	.	8AA/L	8A/L	.	2r	2ryy	2r	.	16ee\LL	.
.	.	16d\	.	16f#/	.	.	.	.	.	.	16dd\JJ	.	.	.	.	.	.	.	.	16dd\JJ	.
8A\	.	16A\	.	16d/	.	.	.	.	.	.	4dd\	.	8AA/	8A/	.	.	.	.	.	4dd\	.
.	.	16d\JJ	.	16f#/JJ	.	.	.	.	.	.	.	.	.	.	.	.	.	.	.	.	.
8A\	.	16A\LL	.	16d/LL	.	.	.	.	.	.	.	.	8AA/	8A/	.	.	.	.	.	.	.
.	.	16d\	.	16f#/	.	.	.	.	.	.	.	.	.	.	.	.	.	.	.	.	.
8A\J	.	16G#X\	.	16d/	.	.	.	.	8d\	.	16b\LL	.	8AA/J	8A/J	.	.	.	.	.	16b\LL	.
!	!	!	!	!	!	!	!	!	!	!	!LO:SIC:v:s=16g#\JJ	!	!	!	!	!	!	!	!	!	!
.	.	16B\JJ	.	16f#/JJ	.	.	.	.	.	.	16g\JJ	.	.	.	.	.	.	.	.	16g#X\JJ	.
*Xtremolo	*	*	*	*	*	*	*	*	*	*	*	*	*Xtremolo	*Xtremolo	*	*	*	*	*	*	*
!	!	!	!	!	!	!	!	!	!	!	!	!	!	!	!	!	!	!	!	!LO:LB:g=original	!
=45	=45	=45	=45	=45	=45	=45	=45	=45	=45	=45	=45	=45	=45	=45	=45	=45	=45	=45	=45	=45	=45
*	*	*tremolo	*	*	*	*	*	*	*	*	*	*	*	*	*	*	*	*	*	*	*
8A\	.	16A\LL	.	8e/L	.	2ryy	2ryy	2ryy	16c#\LL	.	16a\LL	.	8AA/	8A/	.	2r	2ryy	2r	.	16a\LL	.
.	.	16c#\	.	.	.	.	.	.	16a\	.	16cc#\	.	.	.	.	.	.	.	.	16cc#\	.
8r	.	16A\	.	8e/J	.	.	.	.	16b\	.	16dd\	.	8r	8r	.	.	.	.	.	16dd\	.
.	.	16c#\	.	.	.	.	.	.	16g#X\JJ	.	16b\JJ	.	.	.	.	.	.	.	.	16b\JJ	.
8A\	.	16A\	.	8e/L	.	.	.	.	16a\LL	.	16cc#\LL	.	4r	4r	.	.	.	.	.	16cc#\LL	.
.	.	16c#\	.	.	.	.	.	.	16cc#\	.	16ee\	.	.	.	.	.	.	.	.	16ee\	.
8r	.	16A\	.	16d/L	.	.	.	.	16dd\	.	16ff#\	.	.	.	.	.	.	.	.	16ff#\	.
.	.	16c#\JJ	.	16f#/JJ	.	.	.	.	16b\JJ	.	16dd\JJ	.	.	.	.	.	.	.	.	16dd\JJ	.
*	*	*Xtremolo	*	*	*	*	*	*	*	*	*	*	*	*	*	*	*	*	*	*	*
=46	=46	=46	=46	=46	=46	=46	=46	=46	=46	=46	=46	=46	=46	=46	=46	=46	=46	=46	=46	=46	=46
!	!	!	!	!	!	!	!	!	!	!	!	!	!LO:TX:a:t=1.	!LO:TX:a:t=1	!	!	!	!LO:TX:i:b:t=Verte	!	!	!
8A\	.	16A\LL	.	8c#/	.	2ryy	2ryy	2ryy	8cc#\	-nit	8ee\	-nit	2r	2r	.	2r	2ryy	2r	.	16ee\LL	.
.	.	16d\	.	.	.	.	.	.	.	.	.	.	.	.	.	.	.	.	.	16aa\	.
8r	.	16A\	.	8r	.	.	.	.	8r	.	8r	.	.	.	.	.	.	.	.	(16gg#X\	.
.	.	16d\JJ	.	.	.	.	.	.	.	.	.	.	.	.	.	.	.	.	.	16aa\JJ)	.
4r	.	16A\LL	.	4r	.	.	.	.	4r	.	4r	.	.	.	.	.	.	.	.	16gg#\LL	.
.	.	16d\	.	.	.	.	.	.	.	.	.	.	.	.	.	.	.	.	.	16aa\	.
.	.	16G#X\	.	.	.	.	.	.	.	.	.	.	.	.	.	.	.	.	.	16ee\	.
.	.	16d\JJ	.	.	.	.	.	.	.	.	.	.	.	.	.	.	.	.	.	16ff#\JJ	.
!	!	!LO:LB:g=original	!	!LO:LB:g=original	!	!	!	!	!	!	!LO:LB:g=original	!	!	!	!	!	!	!LO:PB:g=original	!	!	!
=47	=47	=47	=47	=47	=47	=47	=47	=47	=47	=47	=47	=47	=47	=47	=47	=47	=47	=47	=47	=47	=47
*tremolo	*	*	*	*tremolo	*	*	*	*	*	*	*	*	*	*	*	*	*	*	*	*	*
8C#/L	.	8A/L	.	8a/L	.	2ryy	2ryy	2ryy	8r	.	8r	.	8r	8r	.	2r	2ryy	(32aa\LLL	.	16ggn\KL	.
.	.	.	.	.	.	.	.	.	.	.	.	.	.	.	.	.	.	32ggn\	.	.	.
.	.	.	.	.	.	.	.	.	.	.	.	.	.	.	.	.	.	32ee\	.	8gg\	.
.	.	.	.	.	.	.	.	.	.	.	.	.	.	.	.	.	.	32cc#\JJJ)	.	.	.
8C#/	.	16B/L	.	8a/	.	.	.	.	8g#X\	in	8ee\	in	8A/L	8e\L	.	.	.	(32a\LLL	.	.	.
.	.	.	.	.	.	.	.	.	.	.	.	.	.	.	.	.	.	32cc#\	.	.	.
.	.	16G#X/JJ	.	.	.	.	.	.	.	.	.	.	.	.	.	.	.	32ee\	.	8gg\	.
.	.	.	.	.	.	.	.	.	.	.	.	.	.	.	.	.	.	32ggn\JJJ)	.	.	.
8C#/	.	16A/LL	.	8a/	.	.	.	.	8g#\	no-	8ee\	no-	8A/	8e\	.	.	.	(32aa\LLL	.	.	.
.	.	.	.	.	.	.	.	.	.	.	.	.	.	.	.	.	.	32gg\	.	.	.
.	.	16c#/	.	.	.	.	.	.	.	.	.	.	.	.	.	.	.	32ee\	.	8gg\	.
.	.	.	.	.	.	.	.	.	.	.	.	.	.	.	.	.	.	32cc#\JJJ)	.	.	.
8C#/J	.	16d/	.	8a/J	.	.	.	.	16g#\	-mi-	16ee\	-mi-	8A/J	8e\J	.	.	.	(32a\LLL	.	.	.
.	.	.	.	.	.	.	.	.	.	.	.	.	.	.	.	.	.	32cc#\	.	.	.
.	.	16B/JJ	.	.	.	.	.	.	16g#\	-ne	16ee\	-ne	.	.	.	.	.	32ee\	.	16gg\Jk	.
.	.	.	.	.	.	.	.	.	.	.	.	.	.	.	.	.	.	32ggn\JJJ)	.	.	.
=48	=48	=48	=48	=48	=48	=48	=48	=48	=48	=48	=48	=48	=48	=48	=48	=48	=48	=48	=48	=48	=48
8D\L	.	8A/	.	8a/L	.	2ryy	2ryy	2ryy	8f#\L	Do-	8.ff#\L	Do-	8d\	8f#\	.	2r	2ryy	8ff#\	.	8.ff#\L	.
8D\	.	8r	.	8a/	.	.	.	.	8a\J	.	.	.	8r	8r	.	.	.	8r	.	.	.
.	.	.	.	.	.	.	.	.	.	.	16aa\Jk	.	.	.	.	.	.	.	.	16aa\Jk	.
8D\	.	4r	.	8a/	.	.	.	.	4a\	.	16gg#X\LL	.	4r	4r	.	.	.	4r	.	16gg#X\LL	.
.	.	.	.	.	.	.	.	.	.	.	16ff#\	.	.	.	.	.	.	.	.	16ff#\	.
8D\J	.	.	.	8a/J	.	.	.	.	.	.	16ee\	.	.	.	.	.	.	.	.	16ee\	.
.	.	.	.	.	.	.	.	.	.	.	16dd\JJ	.	.	.	.	.	.	.	.	16dd\JJ	.
*	*	*	*	*Xtremolo	*	*	*	*	*	*	*	*	*	*	*	*	*	*	*	*	*
!	!	!	!	!	!	!	!	!	!LO:LB:g=original	!	!	!	!	!	!	!	!	!	!	!LO:LB:g=original	!
=49	=49	=49	=49	=49	=49	=49	=49	=49	=49	=49	=49	=49	=49	=49	=49	=49	=49	=49	=49	=49	=49
*	*	*tremolo	*	*	*	*	*	*	*	*	*	*	*tremolo	*tremolo	*	*	*	*	*	*	*
8E\L	.	8e\L	.	8a/L	.	2ryy	2ryy	2ryy	4.a\	.	16cc#\LL	.	8e\L	8e\L	.	4cc#\	2ryy	4aa\	.	16cc#\LL	.
.	.	.	.	.	.	.	.	.	.	.	16ee\JJ	.	.	.	.	.	.	.	.	16ee\JJ	.
.	.	.	.	.	.	.	.	.	.	.	.	.	.	.	.	.	.	.	.	8qdd/	.
8E\	.	8e\	.	8a/	.	.	.	.	.	.	32dd\LLL	.	8e\	8e\	.	.	.	.	.	16cc#\LL	.
.	.	.	.	.	.	.	.	.	.	.	32cc#\	.	.	.	.	.	.	.	.	.	.
.	.	.	.	.	.	.	.	.	.	.	32b\	.	.	.	.	.	.	.	.	32b\L	.
.	.	.	.	.	.	.	.	.	.	.	32a\JJJ	.	.	.	.	.	.	.	.	32a\JJJ	.
.	.	.	.	.	.	.	.	.	.	.	.	.	.	.	.	.	.	.	.	8qqcc#/	.
8E\	.	8e\	.	8a/	.	.	.	.	.	.	4bT\	-mi-	8e\	8e\	.	4b\	.	4gg#X\	.	4b\	.
8E\J	.	8e\J	.	8g#X/J	.	.	.	.	8g#X\	-mi-	.	.	8e\J	8e\J	.	.	.	.	.	.	.
*Xtremolo	*	*Xtremolo	*	*	*	*	*	*	*	*	*	*	*Xtremolo	*Xtremolo	*	*	*	*	*	*	*
=50	=50	=50	=50	=50	=50	=50	=50	=50	=50	=50	=50	=50	=50	=50	=50	=50	=50	=50	=50	=50	=50
*	*	*	*	*tremolo	*	*	*	*	*	*	*	*	*	*	*	*	*	*	*	*	*
!LO:TX:t=P:problem=mixed beam	!	!	!	!	!	!	!	!	!	!	!	!	!	!	!	!	!	!	!	!	!
!	!	!	!	!	!	!	!	!	!	!	!LO:TX:t=P:problem=belka rozdzielona późniejszą ręką (?)	!	!	!	!	!	!	!	!	!	!
8A\L	.	8d\L	.	8a/L	.	2ryy	2ryy	2ryy	8a\	-ni	8cc#\L	-ni	8A/	8e\	.	8cc#\	2ryy	8aa\	.	16cc#\LL	.
.	.	.	.	.	.	.	.	.	.	.	.	.	.	.	.	.	.	.	.	16ee\	.
8C#/	.	8d\	.	8a/	.	.	.	.	8a\	in	16ee\L	in	8r	8r	.	8r	.	8r	.	16ee\	.
.	.	.	.	.	.	.	.	.	.	.	16ee#X\JJ	.	.	.	.	.	.	.	.	16ee#X\JJ	.
8D/	.	8f#\	.	8a/	.	.	.	.	16a\LL	no-	16ff#\LL	no-	4r	4r	.	4r	.	4r	.	16ff#\LL	.
.	.	.	.	.	.	.	.	.	16f#\JJ	.	16dd\JJ	.	.	.	.	.	.	.	.	16dd\	.
8D/J	.	8f#\J	.	8a/J	.	.	.	.	16e\	-mi-	16cc#\	-mi-	.	.	.	.	.	.	.	16cc#\	.
.	.	.	.	.	.	.	.	.	16d\	-ne	16b\	-ne	.	.	.	.	.	.	.	16b\JJ	.
!LO:LB:g=original	!	!	!	!	!	!	!	!	!	!	!	!	!	!	!	!LO:LB:g=original	!	!	!	!	!
=51	=51	=51	=51	=51	=51	=51	=51	=51	=51	=51	=51	=51	=51	=51	=51	=51	=51	=51	=51	=51	=51
*tremolo	*	*tremolo	*	*	*	*	*	*	*	*	*	*	*tremolo	*tremolo	*	*	*	*	*	*tremolo	*
8E\L	.	8e\L	.	16c#/LL	.	2ryy	2ryy	2ryy	4c#/	Do-	4a\	Do-	8e\L	8e\L	.	4cc#\	2ryy	4aa\	.	16a/LL	.
.	.	.	.	16c#/	.	.	.	.	.	.	.	.	.	.	.	.	.	.	.	16a/	.
8E\	.	8e\	.	16c#/	.	.	.	.	.	.	.	.	8e\	8e\	.	.	.	.	.	16a/	.
.	.	.	.	16c#/JJ	.	.	.	.	.	.	.	.	.	.	.	.	.	.	.	16a/JJ	.
!	!	!	!	!	!	!	!	!	!	!	!	!	!	!	!	!	!	!LO:SIC:v:s=4gg#\	!	!	!
8E\	.	8e\	.	16B/LL	.	.	.	.	8.B/	.	8.g#X\	.	8e\	8e\	.	4b\	.	4gg\	.	16g#X/LL	.
.	.	.	.	16B/	.	.	.	.	.	.	.	.	.	.	.	.	.	.	.	16g#X/	.
8E\J	.	8e\J	.	16B/	.	.	.	.	.	.	.	.	8e\J	8e\J	.	.	.	.	.	16g#X/	.
.	.	.	.	16B/JJ	.	.	.	.	16B/	-mi-	16g#\	-mi-	.	.	.	.	.	.	.	16g#X/JJ	.
*Xtremolo	*	*Xtremolo	*	*Xtremolo	*	*	*	*	*	*	*	*	*Xtremolo	*Xtremolo	*	*	*	*	*	*Xtremolo	*
!	!	!	!	!	!	!	!	!	!	!	!LO:LB:g=original	!	!LO:LB:g=original	!	!	!	!	!	!	!	!
=52	=52	=52	=52	=52	=52	=52	=52	=52	=52	=52	=52	=52	=52	=52	=52	=52	=52	=52	=52	=52	=52
!	!	!	!	!	!LO:DY:a:t=for	!	!	!	!	!	!	!	!	!	!	!	!	!	!	!	!
8AA/	.	8a\L	.	8c#/L	f	2ryy	2ryy	2ryy	8c#/	-ni	8a\	-ni	8A\L	8e\L	.	8cc#\L	2ryy	8aa\	.	8a/	.
8r	.	8c#\	.	8e/	.	.	.	.	8r	.	8r	.	8e\	8e\	.	8ee\	.	8ee\L	.	8r	.
4r	.	8d\	.	8e/	.	.	.	.	4r	.	4r	.	8e\	8e\	.	8ee\	.	8ee\	.	4r	.
.	.	8e\J	.	8e/J	.	.	.	.	.	.	.	.	8e\J	8e\J	.	8ee\J	.	8ee\J	.	.	.
=53	=53	=53	=53	=53	=53	=53	=53	=53	=53	=53	=53	=53	=53	=53	=53	=53	=53	=53	=53	=53	=53
*	*	*tremolo	*	*tremolo	*	*	*	*	*	*	*	*	*tremolo	*tremolo	*	*	*	*	*	*	*
!	!	!	!	!	!	!	!	!	!	!	!LO:TX:a:t=10	!	!	!	!	!	!	!	!	!	!
.	.	.	.	.	.	.	.	.	.	.	.	.	.	.	.	.	.	.	.	8qqe/	.
!	!LO:DY:a:t=for&colon;	!	!	!	!	!	!	!	!	!	!	!	!	!	!LO:DY:a:t=for	!	!	!	!	!	!LO:DY:b:t=for
8G#X\L	f	16e\LL	.	16B/LL	.	2ryy	2ryy	2ryy	2r	.	2r	.	8e\L	8e\L	f	2dd\	2ryy	2ee\	.	2dd\	f
.	.	16e\	.	16e/	.	.	.	.	.	.	.	.	.	.	.	.	.	.	.	.	.
8B\	.	16e\	.	16B/	.	.	.	.	.	.	.	.	8e\	8e\	.	.	.	.	.	.	.
.	.	16e\	.	16e/	.	.	.	.	.	.	.	.	.	.	.	.	.	.	.	.	.
8E\	.	16e\	.	16B/	.	.	.	.	.	.	.	.	8e\	8e\	.	.	.	.	.	.	.
.	.	16e\	.	16e/	.	.	.	.	.	.	.	.	.	.	.	.	.	.	.	.	.
8G#\J	.	16e\	.	16B/	.	.	.	.	.	.	.	.	8e\J	8e\J	.	.	.	.	.	.	.
.	.	16e\JJ	.	16e/JJ	.	.	.	.	.	.	.	.	.	.	.	.	.	.	.	.	.
*	*	*Xtremolo	*	*	*	*	*	*	*	*	*	*	*Xtremolo	*Xtremolo	*	*	*	*	*	*	*
=54	=54	=54	=54	=54	=54	=54	=54	=54	=54	=54	=54	=54	=54	=54	=54	=54	=54	=54	=54	=54	=54
8A\L	.	8e\	.	16c#/LL	.	2ryy	2ryy	2ryy	2r	.	2r	.	2A/	2e\	.	8cc#\	2ryy	8ee\	.	16cc#\LL	.
.	.	.	.	16e/	.	.	.	.	.	.	.	.	.	.	.	.	.	.	.	16aa\	.
8c#\	.	8r	.	16c#/	.	.	.	.	.	.	.	.	.	.	.	8r	.	8r	.	16ee\	.
.	.	.	.	16e/	.	.	.	.	.	.	.	.	.	.	.	.	.	.	.	16ee\JJ	.
!	!	!	!	!	!	!	!	!	!	!	!	!	!	!	!	!	!	!	!	!LO:LB:g=original	!
8A\	.	4r	.	16c#/	.	.	.	.	.	.	.	.	.	.	.	4r	.	4r	.	32dd#X\LLL	.
.	.	.	.	.	.	.	.	.	.	.	.	.	.	.	.	.	.	.	.	32ee\	.
.	.	.	.	16e/	.	.	.	.	.	.	.	.	.	.	.	.	.	.	.	32ff#\	.
.	.	.	.	.	.	.	.	.	.	.	.	.	.	.	.	.	.	.	.	32ee\JJJ	.
8c#\J	.	.	.	16c#/	.	.	.	.	.	.	.	.	.	.	.	.	.	.	.	32ddn\LLL	.
.	.	.	.	.	.	.	.	.	.	.	.	.	.	.	.	.	.	.	.	32cc#\	.
.	.	.	.	16e/JJ	.	.	.	.	.	.	.	.	.	.	.	.	.	.	.	32b\	.
.	.	.	.	.	.	.	.	.	.	.	.	.	.	.	.	.	.	.	.	32a\JJJ	.
!	!	!LO:LB:g=original	!	!	!	!	!	!	!	!	!	!	!	!	!	!	!	!	!	!	!
=55	=55	=55	=55	=55	=55	=55	=55	=55	=55	=55	=55	=55	=55	=55	=55	=55	=55	=55	=55	=55	=55
*	*	*	*	*	*	*	*	*	*	*	*	*	*	*tremolo	*	*	*	*	*	*	*
!	!	!	!LO:DY:a:t=for	!	!	!	!	!	!	!	!	!	!	!	!	!	!	!	!	!	!
8G#X\L	.	8e\L	f	16B/LL	.	2ryy	2ryy	2ryy	2r	.	2r	.	2e\	8e\L	.	2dd\	2ryy	2ee\	.	2dd\	.
.	.	.	.	16e/	.	.	.	.	.	.	.	.	.	.	.	.	.	.	.	.	.
8B\	.	8g#X\	.	16B/	.	.	.	.	.	.	.	.	.	8e\	.	.	.	.	.	.	.
.	.	.	.	16e/	.	.	.	.	.	.	.	.	.	.	.	.	.	.	.	.	.
8E\	.	8e\	.	16B/	.	.	.	.	.	.	.	.	.	8e\	.	.	.	.	.	.	.
.	.	.	.	16e/	.	.	.	.	.	.	.	.	.	.	.	.	.	.	.	.	.
8G#\J	.	8g#\J	.	16B/	.	.	.	.	.	.	.	.	.	8e\J	.	.	.	.	.	.	.
.	.	.	.	16e/JJ	.	.	.	.	.	.	.	.	.	.	.	.	.	.	.	.	.
*	*	*	*	*	*	*	*	*	*	*	*	*	*	*Xtremolo	*	*	*	*	*	*	*
!	!	!	!	!	!	!	!	!	!	!	!	!	!	!	!	!	!	!LO:LB:g=original	!	!	!
=56	=56	=56	=56	=56	=56	=56	=56	=56	=56	=56	=56	=56	=56	=56	=56	=56	=56	=56	=56	=56	=56
8A\L	.	8a\L	.	8a/L	.	2ryy	2ryy	2ryy	2r	.	2r	.	8A/	8e\	.	16cc#\KL	2ryy	16cc#\KL	.	16cc#\KL	.
.	.	.	.	.	.	.	.	.	.	.	.	.	.	.	.	8dd\	.	8dd\	.	8dd\	.
8F#\	.	8e\	.	8a/	.	.	.	.	.	.	.	.	8r	8r	.	.	.	.	.	.	.
.	.	.	.	.	.	.	.	.	.	.	.	.	.	.	.	8ee\	.	8ee\	.	8ee\	.
8C#\	.	8c#\	.	8a/	.	.	.	.	.	.	.	.	4r	4r	.	.	.	.	.	.	.
.	.	.	.	.	.	.	.	.	.	.	.	.	.	.	.	8ff#\	.	8ff#\	.	8ff#\	.
8D\J	.	8A\J	.	8a/J	.	.	.	.	.	.	.	.	.	.	.	.	.	.	.	.	.
.	.	.	.	.	.	.	.	.	.	.	.	.	.	.	.	16aa\Jk	.	16aa\Jk	.	16aa\Jk	.
*	*	*	*	*Xtremolo	*	*	*	*	*	*	*	*	*	*	*	*	*	*	*	*	*
!	!	!	!	!LO:LB:g=original	!	!	!	!	!	!	!	!	!	!LO:LB:g=original	!	!	!	!	!	!	!
=57	=57	=57	=57	=57	=57	=57	=57	=57	=57	=57	=57	=57	=57	=57	=57	=57	=57	=57	=57	=57	=57
*tremolo	*	*	*	*	*	*	*	*	*	*	*	*	*tremolo	*tremolo	*	*	*	*	*	*	*
!	!	!	!	!	!	!	!	!	!	!	!	!	!	!	!	!	!	!	!	!LO:TX:t=P:problem=mixed beam	!
8E\L	.	8e\L	.	8a/L	.	2ryy	2ryy	2ryy	2r	.	2r	.	8e\L	8e\L	.	4cc#\	2ryy	4aa\	.	16e/LL	.
.	.	.	.	.	.	.	.	.	.	.	.	.	.	.	.	.	.	.	.	16ee\JJ	.
!	!	!LO:SIC:v:s=8g#\	!	!	!	!	!	!	!	!	!	!	!	!	!	!	!	!	!	!	!
8E\	.	8g\	.	8a/	.	.	.	.	.	.	.	.	8e\	8e\	.	.	.	.	.	32dd\LLL	.
.	.	.	.	.	.	.	.	.	.	.	.	.	.	.	.	.	.	.	.	32cc#\	.
.	.	.	.	.	.	.	.	.	.	.	.	.	.	.	.	.	.	.	.	32b\	.
.	.	.	.	.	.	.	.	.	.	.	.	.	.	.	.	.	.	.	.	32a\JJJ	.
.	.	.	.	.	.	.	.	.	.	.	.	.	.	.	.	.	.	.	.	8qqcc#/	.
8E\	.	8e\	.	8a/	.	.	.	.	.	.	.	.	8e\	8e\	.	4b\	.	4gg#X\	.	4bT\	.
!	!	!LO:SIC:v:s=8g#\J	!	!	!	!	!	!	!	!	!	!	!	!	!	!	!	!	!	!	!
8E\J	.	8g\J	.	8g#X/J	.	.	.	.	.	.	.	.	8e\J	8e\J	.	.	.	.	.	.	.
*Xtremolo	*	*	*	*	*	*	*	*	*	*	*	*	*Xtremolo	*Xtremolo	*	*	*	*	*	*	*
!	!	!	!	!	!	!	!	!	!	!	!	!	!	!	!	!LO:LB:g=original	!	!	!	!	!
=58	=58	=58	=58	=58	=58	=58	=58	=58	=58	=58	=58	=58	=58	=58	=58	=58	=58	=58	=58	=58	=58
*	*	*	*	*tremolo	*	*	*	*	*	*	*	*	*	*	*	*	*	*	*	*	*
!LO:TX:t=P:problem=mixed beam	!	!	!	!	!	!	!	!	!	!	!	!	!	!	!	!	!	!	!	!	!
8A\L	.	8a\L	.	8a/L	.	2ryy	2ryy	2ryy	2r	.	2r	.	8A/	8e\	.	8cc#\	2ryy	8aa\	.	16a\KL	.
.	.	.	.	.	.	.	.	.	.	.	.	.	.	.	.	.	.	.	.	8ee\	.
8C#/	.	8e\	.	8a/	.	.	.	.	.	.	.	.	8r	8r	.	8r	.	8r	.	.	.
.	.	.	.	.	.	.	.	.	.	.	.	.	.	.	.	.	.	.	.	8ggn\	.
8D/	.	8c#\	.	8a/	.	.	.	.	.	.	.	.	4r	4r	.	4r	.	4r	.	.	.
.	.	.	.	.	.	.	.	.	.	.	.	.	.	.	.	.	.	.	.	8ff#\	.
8F#/J	.	8d\J	.	8a/J	.	.	.	.	.	.	.	.	.	.	.	.	.	.	.	.	.
.	.	.	.	.	.	.	.	.	.	.	.	.	.	.	.	.	.	.	.	16dd\Jk	.
*	*	*	*	*Xtremolo	*	*	*	*	*	*	*	*	*	*	*	*	*	*	*	*	*
!	!	!	!	!	!	!	!	!	!	!	!	!	!	!	!	!	!	!	!	!LO:LB:g=original	!
=59	=59	=59	=59	=59	=59	=59	=59	=59	=59	=59	=59	=59	=59	=59	=59	=59	=59	=59	=59	=59	=59
*tremolo	*	*tremolo	*	*	*	*	*	*	*	*	*	*	*tremolo	*tremolo	*	*	*	*	*	*	*
8E\L	.	8e\L	.	8a/L	.	2ryy	2ryy	2ryy	2r	.	2r	.	8e\L	8e\L	.	4cc#\	2ryy	4aa\	.	16cc#\LL	.
.	.	.	.	.	.	.	.	.	.	.	.	.	.	.	.	.	.	.	.	16ee\JJ	.
.	.	.	.	.	.	.	.	.	.	.	.	.	.	.	.	.	.	.	.	8qqdd/	.
8E\	.	8e\	.	8a/	.	.	.	.	.	.	.	.	8e\	8e\	.	.	.	.	.	16cc#\LL	.
.	.	.	.	.	.	.	.	.	.	.	.	.	.	.	.	.	.	.	.	32b\L	.
.	.	.	.	.	.	.	.	.	.	.	.	.	.	.	.	.	.	.	.	32a\JJJ	.
.	.	.	.	.	.	.	.	.	.	.	.	.	.	.	.	.	.	.	.	8qqcc#/	.
8E\	.	8e\	.	8a/	.	.	.	.	.	.	.	.	8e\	8e\	.	4b\	.	4gg#X\	.	4b\	.
8E\J	.	8e\J	.	8g#X/J	.	.	.	.	.	.	.	.	8e\J	8e\J	.	.	.	.	.	.	.
*Xtremolo	*	*Xtremolo	*	*	*	*	*	*	*	*	*	*	*	*Xtremolo	*	*	*	*	*	*	*
*	*	*	*	*	*	*	*	*	*	*	*	*	*Xtremolo	*	*	*	*	*	*	*	*
=60	=60	=60	=60	=60	=60	=60	=60	=60	=60	=60	=60	=60	=60	=60	=60	=60	=60	=60	=60	=60	=60
!LO:TX:t=P:problem=mixed beam	!	!LO:TX:t=P:problem=mixed beam	!	!	!	!	!	!	!	!	!	!	!	!	!	!	!	!	!	!	!
8A\L	.	8A/L	.	8a/	.	2ryy	2ryy	2ryy	2r	.	2r	.	8A/	8e\	.	8cc#\	2ryy	8aa\	.	8a\L	.
8AA/J	.	8a\J	.	16r	.	.	.	.	.	.	.	.	8r	8r	.	8r	.	8r	.	16r	.
.	.	.	.	16cc#/	.	.	.	.	.	.	.	.	.	.	.	.	.	.	.	16ee\Jk	.
8r	.	8r	.	16cc#/LL	.	.	.	.	.	.	.	.	4r	4r	.	4r	.	4r	.	16ee\LL	.
.	.	.	.	16b/	.	.	.	.	.	.	.	.	.	.	.	.	.	.	.	16dd\	.
8E\	.	8e\	.	16a/	.	.	.	.	.	.	.	.	.	.	.	.	.	.	.	16cc#\	.
.	.	.	.	16g/JJ	.	.	.	.	.	.	.	.	.	.	.	.	.	.	.	16b\JJ	.
=61	=61	=61	=61	=61	=61	=61	=61	=61	=61	=61	=61	=61	=61	=61	=61	=61	=61	=61	=61	=61	=61
!LO:TX:t=P:problem=mixed beam	!	!	!	!	!	!	!	!	!	!	!	!	!	!	!	!	!	!	!	!	!
8AA/L	.	8e\	.	8a/	.	2ryy	2ryy	2ryy	2r	.	2r	.	4r	4r	.	8r	2ryy	8r	.	8a\L	.
8A\J	.	8r	.	16r	.	.	.	.	.	.	.	.	.	.	.	16r	.	16r	.	16r	.
.	.	.	.	16e/	.	.	.	.	.	.	.	.	.	.	.	16ccc#\	.	16eee|\	.	16cc#\Jk	.
8r	.	8r	.	16e/LL	.	.	.	.	.	.	.	.	8r	8r	.	16ccc#\LL	.	16eee|\LL	.	16cc#\LL	.
.	.	.	.	16d/	.	.	.	.	.	.	.	.	.	.	.	16bb\	.	16ddd|\	.	16b\	.
8E\	.	8e\	.	16c#/	.	.	.	.	.	.	.	.	8e\	8e\	.	16aa\	.	16ccc#|\	.	16a\	.
.	.	.	.	16B/JJ	.	.	.	.	.	.	.	.	.	.	.	16gg#X\JJ	.	16bb|\JJ	.	16g#X\JJ	.
!LO:LB:g=original	!	!	!	!	!	!	!	!	!	!	!	!	!	!	!	!	!	!	!	!	!
=62	=62	=62	=62	=62	=62	=62	=62	=62	=62	=62	=62	=62	=62	=62	=62	=62	=62	=62	=62	=62	=62
!LO:TX:t=P:problem=zapis niewyraźny	!	!	!	!	!	!	!	!	!	!	!	!	!	!	!	!	!	!	!	!	!
8AA/L	.	8e\L	.	8c#/L	.	2ryy	2ryy	2ryy	2r	.	2r	.	8A/L	8e\L	.	8aa\L	2ryy	8ccc#|\L	.	8a/L	.
8A\	.	8e\	.	8c#/	.	.	.	.	.	.	.	.	8A/	8e\	.	8aa\	.	8ccc#|\	.	8a/	.
8AA/J	.	8e\J	.	8c#/J	.	.	.	.	.	.	.	.	8A/J	8e\J	.	8aa\J	.	8ccc#|\J	.	8a/J	.
!	!	!	!LO:DY:a:t=p.	!	!	!	!	!	!	!	!	!	!	!	!	!	!	!	!	!	!
8r	.	8r	p	8r	.	.	.	.	.	.	.	.	8r	8r	.	8r	.	8r	.	8r	.
!	!	!LO:LB:g=original	!	!	!	!	!	!	!	!	!	!	!	!	!	!	!	!	!	!	!
=63	=63	=63	=63	=63	=63	=63	=63	=63	=63	=63	=63	=63	=63	=63	=63	=63	=63	=63	=63	=63	=63
*tremolo	*	*tremolo	*	*tremolo	*	*	*	*	*	*	*	*	*	*	*	*	*	*	*	*	*
!	!LO:DY:a:t=pia.	!	!	!	!	!	!	!	!LO:TX:i:a:t=Solo	!	!	!	!LO:TX:a:t=5.	!LO:TX:a:t=5	!	!LO:TX:a:t=55	!	!LO:TX:a:t=38.	!	!	!
!	!	!	!	!	!LO:DY:b:t=p&colon;	!	!	!	!	!	!	!	!	!	!	!	!	!	!	!	!
8A\L	p	8e\L	.	8c#/L	p	2ryy	2ryy	2ryy	4.c#\	Be-	4.a\	Be-	2r	2r	.	2r	2ryy	2r	.	16r	.
!	!	!	!	!	!	!	!	!	!	!	!	!	!	!	!	!	!	!	!	!	!LO:DY:b:t=pia
.	.	.	.	.	.	.	.	.	.	.	.	.	.	.	.	.	.	.	.	16a/LL	p
8A\	.	8e\	.	8c#/	.	.	.	.	.	.	.	.	.	.	.	.	.	.	.	16g#X/	.
.	.	.	.	.	.	.	.	.	.	.	.	.	.	.	.	.	.	.	.	16a/JJ	.
!	!	!	!	!	!	!	!	!	!	!	!	!	!	!	!	!	!	!	!	!LO:LB:g=original	!
8A\	.	8e\	.	8c#/	.	.	.	.	.	.	.	.	.	.	.	.	.	.	.	16r	.
.	.	.	.	.	.	.	.	.	.	.	.	.	.	.	.	.	.	.	.	16a/LL	.
8A\J	.	8e\J	.	8c#/J	.	.	.	.	8c#\	-ne-	32a\LLL	.	.	.	.	.	.	.	.	16g#/	.
.	.	.	.	.	.	.	.	.	.	.	32g\	.	.	.	.	.	.	.	.	.	.
.	.	.	.	.	.	.	.	.	.	.	32cc#\	.	.	.	.	.	.	.	.	16a/JJ	.
.	.	.	.	.	.	.	.	.	.	.	32b\JJJ	-ne-	.	.	.	.	.	.	.	.	.
=64	=64	=64	=64	=64	=64	=64	=64	=64	=64	=64	=64	=64	=64	=64	=64	=64	=64	=64	=64	=64	=64
8F#\L	.	8f#\L	.	8c#/L	.	2ryy	2ryy	2ryy	8c#\	-di-	8a\	-di-	2r	2r	.	2r	2ryy	2r	.	16r	.
.	.	.	.	.	.	.	.	.	.	.	.	.	.	.	.	.	.	.	.	16a/LL	.
8F#\	.	8f#\	.	8c#/	.	.	.	.	8c#\	-ctus	8a\	-ctus	.	.	.	.	.	.	.	16g#X/	.
.	.	.	.	.	.	.	.	.	.	.	.	.	.	.	.	.	.	.	.	16a/JJ	.
8F#\	.	8f#\	.	8c#/	.	.	.	.	8r	.	8r	.	.	.	.	.	.	.	.	16r	.
.	.	.	.	.	.	.	.	.	.	.	.	.	.	.	.	.	.	.	.	16a/LL	.
8F#\J	.	8f#\J	.	8c#/J	.	.	.	.	8a\	qui	8a\	qui	.	.	.	.	.	.	.	16a/	.
.	.	.	.	.	.	.	.	.	.	.	.	.	.	.	.	.	.	.	.	16a/JJ	.
!	!	!	!	!LO:PB:g=original	!	!	!	!	!LO:LB:g=original	!	!	!	!	!	!	!	!	!	!	!	!
=65	=65	=65	=65	=65	=65	=65	=65	=65	=65	=65	=65	=65	=65	=65	=65	=65	=65	=65	=65	=65	=65
8D\L	.	8d\L	.	8f#/L	.	2ryy	2ryy	2ryy	2f#\	ve-	4.b\	ve-	2r	2r	.	2r	2ryy	2r	.	16r	.
.	.	.	.	.	.	.	.	.	.	.	.	.	.	.	.	.	.	.	.	16b/LL	.
8D\	.	8d\	.	8f#/	.	.	.	.	.	.	.	.	.	.	.	.	.	.	.	16a#X/	.
.	.	.	.	.	.	.	.	.	.	.	.	.	.	.	.	.	.	.	.	16b/JJ	.
8D\	.	8d\	.	8f#/	.	.	.	.	.	.	.	.	.	.	.	.	.	.	.	16r	.
.	.	.	.	.	.	.	.	.	.	.	.	.	.	.	.	.	.	.	.	16b\	.
8D\J	.	8d\J	.	8f#/J	.	.	.	.	.	.	32dd\LLL	.	.	.	.	.	.	.	.	32dd\LLL	.
.	.	.	.	.	.	.	.	.	.	.	32cc#\	.	.	.	.	.	.	.	.	32cc#\	.
.	.	.	.	.	.	.	.	.	.	.	32b\	.	.	.	.	.	.	.	.	32b\	.
!	!	!	!	!	!	!	!	!	!	!	!	!	!	!	!	!	!	!	!	!LO:SIC:v:s=32a\JJJ	!
.	.	.	.	.	.	.	.	.	.	.	32a\JJJ	.	.	.	.	.	.	.	.	32a#\JJJ	.
*Xtremolo	*	*Xtremolo	*	*Xtremolo	*	*	*	*	*	*	*	*	*	*	*	*	*	*	*	*	*
=66	=66	=66	=66	=66	=66	=66	=66	=66	=66	=66	=66	=66	=66	=66	=66	=66	=66	=66	=66	=66	=66
!	!	!LO:TX:t=P:problem=mixed beam	!	!	!	!	!	!	!	!	!	!	!	!	!	!	!	!	!	!	!
8E\L	.	8e\L	.	8B/L	.	2ryy	2ryy	2ryy	8e\	-nit	8.g#X\L	.	2r	2r	.	2r	2ryy	2r	.	8.g#X/L	.
8E\	.	8e\	.	8B/	.	.	.	.	8e\	in	.	.	.	.	.	.	.	.	.	.	.
.	.	.	.	.	.	.	.	.	.	.	16a\Jk	.	.	.	.	.	.	.	.	16a/Jk	.
8G#X\	.	8G#X/	.	8e/	.	.	.	.	4e\	no-	8b\	-nit	.	.	.	.	.	.	.	16b\LL	.
.	.	.	.	.	.	.	.	.	.	.	.	.	.	.	.	.	.	.	.	16cc#\	.
8G#\J	.	8G#/J	.	8e/J	.	.	.	.	.	.	8dd\	qui	.	.	.	.	.	.	.	16dd\	.
.	.	.	.	.	.	.	.	.	.	.	.	.	.	.	.	.	.	.	.	16dd\JJ	.
!	!	!	!	!	!	!	!	!	!	!	!	!	!	!	!	!	!	!	!	!LO:LB:g=original	!
=67	=67	=67	=67	=67	=67	=67	=67	=67	=67	=67	=67	=67	=67	=67	=67	=67	=67	=67	=67	=67	=67
8A\L	.	8A\L	.	8e/L	.	2ryy	2ryy	2ryy	4e\	.	8cc#\L	ve-	2r	2r	.	2r	2ryy	2r	.	8cc#\L	.
8C#\	.	8c#\	.	8e/	.	.	.	.	.	.	16a\L	.	.	.	.	.	.	.	.	16a\L	.
.	.	.	.	.	.	.	.	.	.	.	16cc#\JJ	.	.	.	.	.	.	.	.	16cc#\JJ	.
!	!	!	!	!	!	!	!	!	!	!	!LO:LB:g=original	!	!	!	!	!	!	!	!	!	!
8D\	.	8d\	.	8f#/	.	.	.	.	8f#\L	.	16b\LL	.	.	.	.	.	.	.	.	16b\LL	.
.	.	.	.	.	.	.	.	.	.	.	16dd\	.	.	.	.	.	.	.	.	16dd\JJ	.
8E\J	.	8e\J	.	8d/J	.	.	.	.	8d\J	-mi-	16g#X\	.	.	.	.	.	.	.	.	16g#X/LL	.
.	.	.	.	.	.	.	.	.	.	.	16b\JJ	.	.	.	.	.	.	.	.	16b/JJ	.
=68	=68	=68	=68	=68	=68	=68	=68	=68	=68	=68	=68	=68	=68	=68	=68	=68	=68	=68	=68	=68	=68
!	!	!	!	!	!	!	!	!	!	!	!	!	!	!	!LO:DY:a:t=p&colon;	!	!	!	!	!	!
8AA/L	.	8A\L	.	8c#/L	.	2ryy	2ryy	2ryy	8c#\	-ne	8a\	-nit	4r	4r	p	2r	2ryy	2r	.	16a/LL	.
.	.	.	.	.	.	.	.	.	.	.	.	.	.	.	.	.	.	.	.	16a/	.
8AA/	.	8A\	.	8c#/	.	.	.	.	8r	.	8r	.	.	.	.	.	.	.	.	16g#X/	.
.	.	.	.	.	.	.	.	.	.	.	.	.	.	.	.	.	.	.	.	16a/JJ	.
8C#/	.	8c#\	.	8e/	.	.	.	.	8r	.	4r	.	4e\	4e\	.	.	.	.	.	16gn/LL	.
.	.	.	.	.	.	.	.	.	.	.	.	.	.	.	.	.	.	.	.	16g/	.
8C#/J	.	8c#\J	.	8e/J	.	.	.	.	8gn\	qui	.	.	.	.	.	.	.	.	.	16f#/	.
.	.	.	.	.	.	.	.	.	.	.	.	.	.	.	.	.	.	.	.	16g/JJ	.
=69	=69	=69	=69	=69	=69	=69	=69	=69	=69	=69	=69	=69	=69	=69	=69	=69	=69	=69	=69	=69	=69
8D\L	.	8d\L	.	8A/L	.	2ryy	2ryy	2ryy	2f#\	ve-	4r	.	4d\	4f#\	.	2r	2ryy	2r	.	16f#/LL	.
.	.	.	.	.	.	.	.	.	.	.	.	.	.	.	.	.	.	.	.	16f#/	.
8D\	.	8d\	.	8A/	.	.	.	.	.	.	.	.	.	.	.	.	.	.	.	16e/	.
.	.	.	.	.	.	.	.	.	.	.	.	.	.	.	.	.	.	.	.	16f#/JJ	.
8A#X\	.	8c#\	.	8f#/	.	.	.	.	.	.	4ee\	qui	8r	8r	.	.	.	.	.	16ee\LL	.
.	.	.	.	.	.	.	.	.	.	.	.	.	.	.	.	.	.	.	.	16ee\	.
8A#\J	.	8c#\J	.	8f#/J	.	.	.	.	.	.	.	.	8F#/	8f#\	.	.	.	.	.	16dd\	.
.	.	.	.	.	.	.	.	.	.	.	.	.	.	.	.	.	.	.	.	16ee\JJ	.
=70	=70	=70	=70	=70	=70	=70	=70	=70	=70	=70	=70	=70	=70	=70	=70	=70	=70	=70	=70	=70	=70
*	*	*	*	*tremolo	*	*	*	*	*	*	*	*	*	*	*	*	*	*	*	*	*
!LO:TX:t=P:problem=mixed beam	!	!	!	!	!	!	!	!	!	!	!	!	!	!	!	!	!	!	!	!	!
8B\L	.	8B\L	.	8f#/L	.	2ryy	2ryy	2ryy	2f#\	.	(4dd\	ve-	4F#/	4f#\	.	2r	2ryy	2r	.	16dd\LL	.
.	.	.	.	.	.	.	.	.	.	.	.	.	.	.	.	.	.	.	.	16dd\	.
8B\	.	8d\	.	8f#/	.	.	.	.	.	.	.	.	.	.	.	.	.	.	.	16cc#\	.
.	.	.	.	.	.	.	.	.	.	.	.	.	.	.	.	.	.	.	.	16b\JJ	.
!	!	!	!	!	!	!	!	!	!	!	!	!	!	!	!	!	!	!	!	!LO:LB:g=original	!
8D/ 8BB/	.	8d\	.	8f#/	.	.	.	.	.	.	4b\)	.	4r	4r	.	.	.	.	.	16b\LL	.
.	.	.	.	.	.	.	.	.	.	.	.	.	.	.	.	.	.	.	.	16b\	.
8D/J 8BB/	.	8d\J	.	8f#/J	.	.	.	.	.	.	.	.	.	.	.	.	.	.	.	16a#X\	.
.	.	.	.	.	.	.	.	.	.	.	.	.	.	.	.	.	.	.	.	16b\JJ	.
=71	=71	=71	=71	=71	=71	=71	=71	=71	=71	=71	=71	=71	=71	=71	=71	=71	=71	=71	=71	=71	=71
8E\L	.	8A#X/L	.	8f#/L	.	2ryy	2ryy	2ryy	32f#\LLL	.	32a#X\LLL	.	8r	8r	.	2r	2ryy	2r	.	32cc#\LLL	.
.	.	.	.	.	.	.	.	.	32g\	.	32b\	.	.	.	.	.	.	.	.	32dd\	.
.	.	.	.	.	.	.	.	.	32f#\	.	32a#\	.	.	.	.	.	.	.	.	32cc#\	.
.	.	.	.	.	.	.	.	.	32g\JJ	.	32b\JJ	.	.	.	.	.	.	.	.	32dd\JJ	.
8E\	.	8A#/	.	8f#/	.	.	.	.	8a#X\J	-nit	8cc#\J	-nit	8F#/L	8f#\L	.	.	.	.	.	8ee\J	.
8A#X\	.	8c#/	.	8f#/	.	.	.	.	8r	.	8r	.	8F#/	8f#\	.	.	.	.	.	16r	.
!	!	!	!	!	!	!	!	!	!	!	!	!	!	!	!	!	!	!	!	!LO:TX:t=P:problem=mixed beam	!
.	.	.	.	.	.	.	.	.	.	.	.	.	.	.	.	.	.	.	.	16f#/LL	.
8A#\J	.	8c#/J	.	8f#/J	.	.	.	.	8f#\	qui	16cc#\LL	qui	8F#/J	8f#\J	.	.	.	.	.	16cc#\	.
.	.	.	.	.	.	.	.	.	.	.	16ee\JJ	.	.	.	.	.	.	.	.	16ee\JJ	.
*	*	*	*	*Xtremolo	*	*	*	*	*	*	*	*	*	*	*	*	*	*	*	*	*
!	!	!LO:LB:g=original	!	!	!	!	!	!	!	!	!	!	!LO:LB:g=original	!	!	!	!	!	!	!	!
=72	=72	=72	=72	=72	=72	=72	=72	=72	=72	=72	=72	=72	=72	=72	=72	=72	=72	=72	=72	=72	=72
*	*	*	*	*	*	*	*	*	*	*	*Xtuplet	*	*	*	*	*	*	*	*	*Xtuplet	*
8B\L	.	8d\L	.	8f#/L	.	2ryy	2ryy	2ryy	4f#\	ve-	24dd\LL	.	8F#/	8f#\	.	2r	2ryy	2r	.	24dd\LL	.
.	.	.	.	.	.	.	.	.	.	.	24ff#\	.	.	.	.	.	.	.	.	24ff#\	.
.	.	.	.	.	.	.	.	.	.	.	24ee\	.	.	.	.	.	.	.	.	24ee\JJ	.
8D\	.	8d\	.	8b/	.	.	.	.	.	.	24dd\	.	8r	8r	.	.	.	.	.	24dd\LL	.
.	.	.	.	.	.	.	.	.	.	.	24cc#\	.	.	.	.	.	.	.	.	24cc#\	.
.	.	.	.	.	.	.	.	.	.	.	24b\JJ	.	.	.	.	.	.	.	.	24b\JJ	.
8E\	.	8e\	.	8b/	.	.	.	.	4g\	.	24gg\LL	.	4r	4r	.	.	.	.	.	24gg\LL	.
.	.	.	.	.	.	.	.	.	.	.	24ff#\	.	.	.	.	.	.	.	.	24ff#\	.
.	.	.	.	.	.	.	.	.	.	.	24ee\	.	.	.	.	.	.	.	.	24ee\JJ	.
8E\J	.	8e\J	.	8g/J	.	.	.	.	.	.	24dd\	.	.	.	.	.	.	.	.	24dd\LL	.
.	.	.	.	.	.	.	.	.	.	.	24cc#\	.	.	.	.	.	.	.	.	24cc#\	.
.	.	.	.	.	.	.	.	.	.	.	24b\JJ	.	.	.	.	.	.	.	.	24b\JJ	.
!	!	!	!	!	!	!	!	!	!	!	!	!	!	!LO:LB:g=original	!	!	!	!	!	!	!
=73	=73	=73	=73	=73	=73	=73	=73	=73	=73	=73	=73	=73	=73	=73	=73	=73	=73	=73	=73	=73	=73
!	!	!LO:TX:t=P:problem=mixed beam	!	!LO:TX:a:t=d	!	!	!	!	!	!	!	!	!	!	!	!	!	!	!	!	!
4F#|\	.	8f#\L	.	8c#/L	.	2ryy	2ryy	2ryy	8d\	.	8b\	ve-	8r	8r	.	2r	2ryy	2r	.	8b/L	.
.	.	8F#/J	.	8c#/J	.	.	.	.	8c#\	-nit	8a#X\	-nit	8F#/L	8f#\L	.	.	.	.	.	8a#X/J	.
(16F#\LL	.	16f#\LL	.	4r	.	.	.	.	4r	.	4r	.	8F#/J	8f#\J	.	.	.	.	.	4r	.
16E\	.	16e\	.	.	.	.	.	.	.	.	.	.	.	.	.	.	.	.	.	.	.
16D\	.	16d\	.	.	.	.	.	.	.	.	.	.	8r	8r	.	.	.	.	.	.	.
16C#\JJ)	.	16c#\JJ	.	.	.	.	.	.	.	.	.	.	.	.	.	.	.	.	.	.	.
!LO:PB:g=original	!	!	!	!LO:LB:g=original	!	!	!	!	!LO:LB:g=original	!	!LO:LB:g=original	!	!	!	!	!	!	!	!	!LO:LB:g=original	!
=74	=74	=74	=74	=74	=74	=74	=74	=74	=74	=74	=74	=74	=74	=74	=74	=74	=74	=74	=74	=74	=74
*tremolo	*	*tremolo	*	*tremolo	*	*	*	*	*	*	*	*	*	*	*	*	*	*	*	*	*
!	!	!	!	!	!	!	!	!	!	!	!	!	!LO:TX:a:t=3.	!LO:TX:a:t=3	!	!	!	!	!	!	!
8BB/L	.	16B\LL	.	16d/LL	.	2ryy	2ryy	2ryy	4.d\	Be-	4.b\	Be-	2r	2r	.	2r	2ryy	2r	.	4b\	.
.	.	16d\	.	16f#/	.	.	.	.	.	.	.	.	.	.	.	.	.	.	.	.	.
8BB/	.	16B\	.	16d/	.	.	.	.	.	.	.	.	.	.	.	.	.	.	.	.	.
.	.	16d\	.	16f#/	.	.	.	.	.	.	.	.	.	.	.	.	.	.	.	.	.
8BB/	.	16B\	.	16d/	.	.	.	.	.	.	.	.	.	.	.	.	.	.	.	16r	.
.	.	16d\	.	16f#/	.	.	.	.	.	.	.	.	.	.	.	.	.	.	.	16b\LL	.
8BB/J	.	16B\	.	16d/	.	.	.	.	8d\	-ne-	8dd\	-ne-	.	.	.	.	.	.	.	16cc#\	.
.	.	16d\JJ	.	16f#/JJ	.	.	.	.	.	.	.	.	.	.	.	.	.	.	.	16dd\JJ	.
*	*	*	*	*Xtremolo	*	*	*	*	*	*	*	*	*	*	*	*	*	*	*	*	*
=75	=75	=75	=75	=75	=75	=75	=75	=75	=75	=75	=75	=75	=75	=75	=75	=75	=75	=75	=75	=75	=75
8BB/L	.	16c#\LL	.	16e/LL	.	2ryy	2ryy	2ryy	4e\	-di-	16dd\LL	-di-	2r	2r	.	2r	2ryy	2r	.	16dd\LL	.
.	.	16e\	.	16g/	.	.	.	.	.	.	16cc#\J	.	.	.	.	.	.	.	.	16cc#\J	.
8BB/	.	16c#\	.	16e/	.	.	.	.	.	.	8.cc#\J	-ctus	.	.	.	.	.	.	.	8.cc#\J	.
.	.	16e\	.	16g/JJ	.	.	.	.	.	.	.	.	.	.	.	.	.	.	.	.	.
8BB/	.	16c#\	.	16e/LL	.	.	.	.	8e\	-ctus	.	.	.	.	.	.	.	.	.	.	.
.	.	16e\	.	16g/	.	.	.	.	.	.	16ee\LL	qui	.	.	.	.	.	.	.	16ee\LL	.
8BB/J	.	16c#\	.	16c#/	.	.	.	.	8e\	qui	16a#X\	.	.	.	.	.	.	.	.	16a#X\	.
.	.	16e\JJ	.	16e/JJ	.	.	.	.	.	.	16cc#\JJ	.	.	.	.	.	.	.	.	16cc#\JJ	.
*Xtremolo	*	*	*	*	*	*	*	*	*	*	*	*	*	*	*	*	*	*	*	*	*
=76	=76	=76	=76	=76	=76	=76	=76	=76	=76	=76	=76	=76	=76	=76	=76	=76	=76	=76	=76	=76	=76
*	*	*	*	*tremolo	*	*	*	*	*	*	*	*	*	*	*	*	*	*	*	*	*
!LO:TX:t=P:problem=mixed beam	!	!	!	!	!	!	!	!	!	!	!	!	!	!	!	!	!	!	!	!	!
8BB/L	.	16B\LL	.	16d/LL	.	2ryy	2ryy	2ryy	16e\LL	ve-	16cc#\LL	ve-	2r	2r	.	2r	2ryy	2r	.	16cc#\LL	.
.	.	16d\	.	16f#/	.	.	.	.	16d\JJ	.	16b\JJ	.	.	.	.	.	.	.	.	16b\JJ	.
!	!	!	!	!	!	!	!	!	!	!	!LO:N:vis=4.	!	!	!	!	!	!	!	!	!	!
8B\	.	16B\	.	16d/	.	.	.	.	4d\	-nit	4b\	-nit	.	.	.	.	.	.	.	4b\	.
.	.	16d\	.	16f#/	.	.	.	.	.	.	.	.	.	.	.	.	.	.	.	.	.
8B\	.	16B\	.	16d/	.	.	.	.	.	.	.	.	.	.	.	.	.	.	.	.	.
.	.	16d\	.	16f#/	.	.	.	.	.	.	.	.	.	.	.	.	.	.	.	.	.
8B\J	.	16B\	.	16d/	.	.	.	.	8d\	in	8dd\	qui	.	.	.	.	.	.	.	8dd\	.
.	.	16d\JJ	.	16f#/JJ	.	.	.	.	.	.	.	.	.	.	.	.	.	.	.	.	.
=77	=77	=77	=77	=77	=77	=77	=77	=77	=77	=77	=77	=77	=77	=77	=77	=77	=77	=77	=77	=77	=77
*tremolo	*	*	*	*	*	*	*	*	*	*	*	*	*	*	*	*	*	*	*	*	*
8F#\L	.	16d\LL	.	16d/LL	.	2ryy	2ryy	2ryy	4.d\	no-	32dd\LLL	ve-	8r	8r	.	2r	2ryy	2r	.	16dd\LL	.
.	.	.	.	.	.	.	.	.	.	.	32ccn\	.	.	.	.	.	.	.	.	.	.
.	.	16f#\	.	16a/	.	.	.	.	.	.	32b\	.	.	.	.	.	.	.	.	16ccn\JJ	.
.	.	.	.	.	.	.	.	.	.	.	32cc\JJJ	.	.	.	.	.	.	.	.	.	.
8F#\	.	16d\	.	16d/	.	.	.	.	.	.	4cc\	-nit	8D/L	8d\L	.	.	.	.	.	4cc\	.
.	.	16f#\	.	16a/	.	.	.	.	.	.	.	.	.	.	.	.	.	.	.	.	.
8F#\	.	16d\	.	16d/	.	.	.	.	.	.	.	.	8D/	8d\	.	.	.	.	.	.	.
.	.	16f#\	.	16a/	.	.	.	.	.	.	.	.	.	.	.	.	.	.	.	.	.
8F#\J	.	16d\	.	16d/	.	.	.	.	8d\	-mi-	16a\LL	in	8D/J	8d\J	.	.	.	.	.	16a\LL	.
.	.	16f#\JJ	.	16a/JJ	.	.	.	.	.	.	16cc\JJ	.	.	.	.	.	.	.	.	16cc\JJ	.
*Xtremolo	*	*Xtremolo	*	*Xtremolo	*	*	*	*	*	*	*	*	*	*	*	*	*	*	*	*	*
=78	=78	=78	=78	=78	=78	=78	=78	=78	=78	=78	=78	=78	=78	=78	=78	=78	=78	=78	=78	=78	=78
8G\	.	8g\	.	8d/	.	2ryy	2ryy	2ryy	8d\	-ne	16b\LL	no-	8D/	8d\	.	2r	2ryy	2r	.	16b\LL	.
.	.	.	.	.	.	.	.	.	.	.	16gg\	.	.	.	.	.	.	.	.	16gg\	.
8r	.	8r	.	8r	.	.	.	.	8r	.	16ff#\	.	8r	8r	.	.	.	.	.	16ff#\	.
.	.	.	.	.	.	.	.	.	.	.	16ee\JJ	.	.	.	.	.	.	.	.	16ee\JJ	.
8G\	.	8g\	.	8b\	.	.	.	.	4r	.	16dd#X\LL	-mi-	4r	4r	.	.	.	.	.	16dd#X\LL	.
.	.	.	.	.	.	.	.	.	.	.	16ee\	.	.	.	.	.	.	.	.	16ee\	.
8r	.	8r	.	8r	.	.	.	.	.	.	16bb\	-ne	.	.	.	.	.	.	.	16bb\	.
.	.	.	.	.	.	.	.	.	.	.	16gg\JJ	.	.	.	.	.	.	.	.	16gg\JJ	.
!	!	!	!	!	!	!	!	!	!	!	!	!	!	!	!	!	!	!	!	!LO:LB:g=original	!
=79	=79	=79	=79	=79	=79	=79	=79	=79	=79	=79	=79	=79	=79	=79	=79	=79	=79	=79	=79	=79	=79
*	*	*	*	*tremolo	*	*	*	*	*	*	*	*	*	*	*	*	*	*	*	*	*
8r	.	8r	.	8b\L	.	2ryy	2ryy	2ryy	8r	.	16ff#\LL	Do-	8r	8r	.	2r	2ryy	2r	.	16ff#\LL	.
.	.	.	.	.	.	.	.	.	.	.	16ee\JJ	.	.	.	.	.	.	.	.	16ee\JJ	.
8G\L	.	8g\L	.	8b\	.	.	.	.	4b\	Do-	4ee\	.	8e\L	8e\L	.	.	.	.	.	4ee\	.
8G\	.	8g\	.	8b\	.	.	.	.	.	.	.	.	8e\	8e\	.	.	.	.	.	.	.
8G#X\J	.	8e\J	.	8b\J	.	.	.	.	8b\	-mi-	8dd\	-mi-	8e\J	8e\J	.	.	.	.	.	8ddn\	.
*	*	*	*	*Xtremolo	*	*	*	*	*	*	*	*	*	*	*	*	*	*	*	*	*
!	!	!LO:LB:g=original	!	!	!	!	!	!	!	!	!LO:LB:g=original	!	!	!	!	!	!	!	!	!	!
=80	=80	=80	=80	=80	=80	=80	=80	=80	=80	=80	=80	=80	=80	=80	=80	=80	=80	=80	=80	=80	=80
8A\	.	8e\	.	8e/	.	2ryy	2ryy	2ryy	8e\	-ni	8cc#\	-ni	8A/	8e\	.	2r	2ryy	2r	.	16cc#\LL	.
.	.	.	.	.	.	.	.	.	.	.	.	.	.	.	.	.	.	.	.	16ee\	.
8r	.	8r	.	8r	.	.	.	.	8r	.	8r	.	8r	8r	.	.	.	.	.	16a\	.
.	.	.	.	.	.	.	.	.	.	.	.	.	.	.	.	.	.	.	.	16a\JJ	.
8E\	.	8G/	.	8d/	.	.	.	.	4r	.	4r	.	8e\	8e\	.	.	.	.	.	16g#X/LL	.
.	.	.	.	.	.	.	.	.	.	.	.	.	.	.	.	.	.	.	.	16a/JJ	.
8r	.	8r	.	8r	.	.	.	.	.	.	.	.	8r	8r	.	.	.	.	.	16b/LL	.
.	.	.	.	.	.	.	.	.	.	.	.	.	.	.	.	.	.	.	.	32a/L	.
.	.	.	.	.	.	.	.	.	.	.	.	.	.	.	.	.	.	.	.	32g#/JJJ	.
=81	=81	=81	=81	=81	=81	=81	=81	=81	=81	=81	=81	=81	=81	=81	=81	=81	=81	=81	=81	=81	=81
!LO:SIC:v:s=8G#\	!	!	!	!	!	!	!	!	!	!	!	!	!	!	!	!	!	!	!	!	!
8G\	.	8e\	.	8c#/	.	2ryy	2ryy	2ryy	2r	.	2r	.	8A/	8e\	.	2r	2ryy	2r	.	32a\LLL	.
.	.	.	.	.	.	.	.	.	.	.	.	.	.	.	.	.	.	.	.	32cc#\	.
.	.	.	.	.	.	.	.	.	.	.	.	.	.	.	.	.	.	.	.	32ee\	.
.	.	.	.	.	.	.	.	.	.	.	.	.	.	.	.	.	.	.	.	32cc#\JJ	.
8r	.	8r	.	8r	.	.	.	.	.	.	.	.	8r	8r	.	.	.	.	.	8a\J	.
8E\	.	8B/	.	8d/	.	.	.	.	.	.	.	.	8e\	8e\	.	.	.	.	.	16g#X\LL	.
.	.	.	.	.	.	.	.	.	.	.	.	.	.	.	.	.	.	.	.	16dd\	.
8r	.	8r	.	8r	.	.	.	.	.	.	.	.	8r	8r	.	.	.	.	.	16b\	.
.	.	.	.	.	.	.	.	.	.	.	.	.	.	.	.	.	.	.	.	16g#\JJ	.
!	!	!	!	!	!	!	!	!	!LO:LB:g=original	!	!	!	!	!	!	!	!	!	!	!	!
=82	=82	=82	=82	=82	=82	=82	=82	=82	=82	=82	=82	=82	=82	=82	=82	=82	=82	=82	=82	=82	=82
*	*	*	*	*	*	*	*	*	*	*	*	*	*	*	*	*	*	*	*	*tremolo	*
8A\	.	8A/	.	8c#/	.	2ryy	2ryy	2ryy	4r	.	4r	.	8A/	8e\	.	2r	2ryy	2r	.	8a/L	.
8r	.	8r	.	8r	.	.	.	.	.	.	.	.	8r	8r	.	.	.	.	.	8a/	.
!	!	!	!	!LO:LB:g=original	!	!	!	!	!	!	!	!	!	!	!	!	!	!	!	!	!
4r	.	4r	.	4r	.	.	.	.	8c#\	Be-	8a\	Be-	4r	4r	.	.	.	.	.	8a/	.
.	.	.	.	.	.	.	.	.	8c#\	-ne-	8a\	-ne-	.	.	.	.	.	.	.	8a/J	.
*	*	*	*	*	*	*	*	*	*	*	*	*	*	*	*	*	*	*	*	*Xtremolo	*
=83	=83	=83	=83	=83	=83	=83	=83	=83	=83	=83	=83	=83	=83	=83	=83	=83	=83	=83	=83	=83	=83
*	*	*tremolo	*	*tremolo	*	*	*	*	*	*	*	*	*	*	*	*	*	*	*	*	*
!	!	!	!	!	!	!	!	!	!	!	!	!	!LO:TX:a:t=1.	!LO:TX:a:t=1	!	!	!	!	!	!	!
8E\	.	16B\LL	.	16d/LL	.	2ryy	2ryy	2ryy	4d\	-di-	4g#X\	-di-	2r	2r	.	2r	2ryy	2r	.	2g#X/	.
.	.	16d\	.	16e/	.	.	.	.	.	.	.	.	.	.	.	.	.	.	.	.	.
8r	.	16B\	.	16d/	.	.	.	.	.	.	.	.	.	.	.	.	.	.	.	.	.
.	.	16d\	.	16e/	.	.	.	.	.	.	.	.	.	.	.	.	.	.	.	.	.
4r	.	16B\	.	16d/	.	.	.	.	8d\	-ctus	8g#\	-ctus	.	.	.	.	.	.	.	.	.
.	.	16d\	.	16e/	.	.	.	.	.	.	.	.	.	.	.	.	.	.	.	.	.
.	.	16B\	.	16d/	.	.	.	.	8d\	qui	8g#\	qui	.	.	.	.	.	.	.	.	.
.	.	16d\JJ	.	16e/JJ	.	.	.	.	.	.	.	.	.	.	.	.	.	.	.	.	.
!	!	!	!	!	!	!	!	!	!	!	!	!	!	!	!	!	!	!	!	!LO:LB:g=original	!
=84	=84	=84	=84	=84	=84	=84	=84	=84	=84	=84	=84	=84	=84	=84	=84	=84	=84	=84	=84	=84	=84
8AA/	.	16c#/LL	.	16A/LL	.	2ryy	2ryy	2ryy	2e\	ve-	2gn\	ve-	2A/	2e\	.	2r	2ryy	2r	.	2gn/	.
.	.	16A/	.	16e/	.	.	.	.	.	.	.	.	.	.	.	.	.	.	.	.	.
8r	.	16c#/	.	16A/	.	.	.	.	.	.	.	.	.	.	.	.	.	.	.	.	.
.	.	16A/	.	16e/	.	.	.	.	.	.	.	.	.	.	.	.	.	.	.	.	.
4r	.	16c#/	.	16A/	.	.	.	.	.	.	.	.	.	.	.	.	.	.	.	.	.
.	.	16A/	.	16e/	.	.	.	.	.	.	.	.	.	.	.	.	.	.	.	.	.
.	.	16c#/	.	16A/	.	.	.	.	.	.	.	.	.	.	.	.	.	.	.	.	.
.	.	16A/JJ	.	16e/JJ	.	.	.	.	.	.	.	.	.	.	.	.	.	.	.	.	.
*	*	*	*	*Xtremolo	*	*	*	*	*	*	*	*	*	*	*	*	*	*	*	*	*
!LO:LB:g=original	!	!	!	!	!	!	!	!	!	!	!	!	!	!	!	!	!	!	!	!	!
=85	=85	=85	=85	=85	=85	=85	=85	=85	=85	=85	=85	=85	=85	=85	=85	=85	=85	=85	=85	=85	=85
!LO:TX:t=P:problem=mixed beam	!	!	!	!	!	!	!	!	!	!	!	!	!	!	!	!	!	!	!	!	!
8D\L	.	8A/L	.	8d/	.	2ryy	2ryy	2ryy	8d\	-nit	8f#/	-nit	8d\	8f#\	.	2r	2ryy	2r	.	16f#/LL	.
.	.	.	.	.	.	.	.	.	.	.	.	.	.	.	.	.	.	.	.	16d/	.
8DD/J	.	8A/	.	8r	.	.	.	.	8r	.	8r	.	8r	8r	.	.	.	.	.	16f#/	.
.	.	.	.	.	.	.	.	.	.	.	.	.	.	.	.	.	.	.	.	16a/JJ	.
8r	.	8A/	.	8r	.	.	.	.	8f#\	Be-	8a\	Be-	4r	4r	.	.	.	.	.	16dd\LL	.
.	.	.	.	.	.	.	.	.	.	.	.	.	.	.	.	.	.	.	.	16ff#\	.
8D\	.	8A/J	.	8f#/	.	.	.	.	8f#\	-ne-	8a\	-ne-	.	.	.	.	.	.	.	16aa\	.
.	.	.	.	.	.	.	.	.	.	.	.	.	.	.	.	.	.	.	.	16aa\JJ	.
!	!	!	!	!	!	!	!	!	!	!	!	!	!LO:LB:g=original	!	!	!	!	!	!	!	!
=86	=86	=86	=86	=86	=86	=86	=86	=86	=86	=86	=86	=86	=86	=86	=86	=86	=86	=86	=86	=86	=86
!LO:TX:t=P:problem=mixed beam	!	!	!	!	!	!	!	!	!	!	!	!	!	!	!	!	!	!	!	!	!
8AA/L	.	8A/L	.	32e/LLL	.	2ryy	2ryy	2ryy	32e\LLL	-dic-	4a\	-di-	8r	8r	.	2r	2ryy	2r	.	32gg\LLL	.
.	.	.	.	32f#/	.	.	.	.	32f#\	.	.	.	.	.	.	.	.	.	.	32aa\	.
.	.	.	.	32e/	.	.	.	.	32e\	.	.	.	.	.	.	.	.	.	.	32gg\	.
.	.	.	.	32d/JJ	.	.	.	.	32d\JJJ	.	.	.	.	.	.	.	.	.	.	32ff#\JJ	.
8A\	.	8A/	.	8c#/J	.	.	.	.	8c#\	-tus	.	.	8A/L	8e\L	.	.	.	.	.	8ee\J	.
8AA/	.	8A/	.	16r	.	.	.	.	8r	.	8a\	-ctus	8A/	8e\	.	.	.	.	.	16r	.
.	.	.	.	16c#/LL	.	.	.	.	.	.	.	.	.	.	.	.	.	.	.	16ee\LL	.
8C#/J	.	8A/J	.	16c#/	.	.	.	.	8e\	qui	8a\	qui	8A/J	8e\J	.	.	.	.	.	16ee\	.
.	.	.	.	16e/JJ	.	.	.	.	.	.	.	.	.	.	.	.	.	.	.	16gg\JJ	.
!	!	!	!	!	!	!	!	!	!	!	!	!	!	!LO:LB:g=original	!	!	!	!	!	!	!
=87	=87	=87	=87	=87	=87	=87	=87	=87	=87	=87	=87	=87	=87	=87	=87	=87	=87	=87	=87	=87	=87
!	!	!	!	!	!	!	!	!	!	!	!	!	!	!	!	!	!	!	!	!LO:TX:t=P:problem=mixed beam	!
8D/L	.	8A/L	.	8d/	.	2ryy	2ryy	2ryy	4f#\	ve-	4a\	ve-	8d\	8f#\	.	2r	2ryy	2r	.	16ff#\LL	.
.	.	.	.	.	.	.	.	.	.	.	.	.	.	.	.	.	.	.	.	16d/	.
8DD/J	.	8A/	.	8r	.	.	.	.	.	.	.	.	8r	8r	.	.	.	.	.	16f#/	.
.	.	.	.	.	.	.	.	.	.	.	.	.	.	.	.	.	.	.	.	16a/JJ	.
8r	.	8A/	.	8r	.	.	.	.	8d\	-nit	8a\	-nit	4r	4r	.	.	.	.	.	16dd\LL	.
.	.	.	.	.	.	.	.	.	.	.	.	.	.	.	.	.	.	.	.	16ff#\	.
8D\	.	8A/J	.	8f#/	.	.	.	.	8f#\	qui	8a\	qui	.	.	.	.	.	.	.	16ff#\	.
.	.	.	.	.	.	.	.	.	.	.	.	.	.	.	.	.	.	.	.	16aa\JJ	.
!	!	!	!	!	!	!	!	!	!	!	!LO:LB:g=original	!	!	!	!	!	!	!	!	!	!
=88	=88	=88	=88	=88	=88	=88	=88	=88	=88	=88	=88	=88	=88	=88	=88	=88	=88	=88	=88	=88	=88
!LO:TX:t=P:problem=mixed beam	!	!	!	!	!	!	!	!	!	!	!	!	!	!	!	!	!	!	!	!	!
8AA/L	.	8A/L	.	32e/LLL	.	2ryy	2ryy	2ryy	32e\LLL	ve-	2a\	ve-	8r	8r	.	2r	2ryy	2r	.	32gg\LLL	.
.	.	.	.	32f#/	.	.	.	.	32f#\	.	.	.	.	.	.	.	.	.	.	32aa\	.
.	.	.	.	32e/	.	.	.	.	32e\	.	.	.	.	.	.	.	.	.	.	32gg\	.
.	.	.	.	32d/JJ	.	.	.	.	32d\JJJ	.	.	.	.	.	.	.	.	.	.	32ff#\JJ	.
8A\	.	8A/	.	8c#/J	.	.	.	.	8c#\	-nit	.	.	8A/L	8e\L	.	.	.	.	.	8ee\J	.
!	!	!	!	!	!	!	!	!	!LO:LB:g=original	!	!	!	!	!	!	!	!	!	!	!LO:LB:g=original	!
8AA/	.	8A/	.	16r	.	.	.	.	8r	.	.	.	8A/	8e\	.	.	.	.	.	16r	.
.	.	.	.	16c#/LL	.	.	.	.	.	.	.	.	.	.	.	.	.	.	.	16ee\LL	.
8C#/J	.	8A/J	.	16c#/	.	.	.	.	8e\	qui	.	.	8A/J	8e\J	.	.	.	.	.	16ee\	.
.	.	.	.	16e/JJ	.	.	.	.	.	.	.	.	.	.	.	.	.	.	.	16gg\JJ	.
*	*	*Xtremolo	*	*	*	*	*	*	*	*	*	*	*	*	*	*	*	*	*	*	*
!	!	!	!	!LO:LB:g=original	!	!	!	!	!	!	!	!	!	!	!	!	!	!	!	!	!
=89	=89	=89	=89	=89	=89	=89	=89	=89	=89	=89	=89	=89	=89	=89	=89	=89	=89	=89	=89	=89	=89
!	!	!	!	!	!	!	!	!	!	!	!	!	!LO:TX:t=P:problem=w taktach 89 i 90 liczne korekty	!	!	!	!	!	!	!	!
8D\	.	8d\	.	8d/L	.	2ryy	2ryy	2ryy	8f#\L	ve-	8a\	-nit	8d\	8f#\	.	2r	2ryy	2r	.	16ff#\LL	.
.	.	.	.	.	.	.	.	.	.	.	.	.	.	.	.	.	.	.	.	16dd\	.
!	!	!	!	!	!	!	!	!	!	!	!	!LO:SIC:v:l:s=qui	!	!	!	!	!	!	!	!	!
8r	.	8r	.	8g/	.	.	.	.	8b\	.	8dd\	qvi	8A/	8r	.	.	.	.	.	16bb\	.
.	.	.	.	.	.	.	.	.	.	.	.	.	.	.	.	.	.	.	.	16dd\JJ	.
!	!	!LO:LB:g=original	!	!	!	!	!	!	!	!	!	!	!	!	!	!	!	!	!	!	!
8r	.	8r	.	8f#/	.	.	.	.	8a\	.	8dd\L	ve-	8d\	8e\	.	.	.	.	.	16aa\LL	.
.	.	.	.	.	.	.	.	.	.	.	.	.	.	.	.	.	.	.	.	16dd\	.
8AA/	.	8A/	.	8e/J	.	.	.	.	8g\J	.	8cc#\J	.	8A/	8r	.	.	.	.	.	16cc#\	.
.	.	.	.	.	.	.	.	.	.	.	.	.	.	.	.	.	.	.	.	16gg\JJ	.
=90	=90	=90	=90	=90	=90	=90	=90	=90	=90	=90	=90	=90	=90	=90	=90	=90	=90	=90	=90	=90	=90
!	!	!	!	!	!	!	!	!	!	!	!	!	!	!	!	!	!	!	!	!LO:TX:t=P:problem=takt zapisany powtóką	!
8D\	.	8A/	.	8d/L	.	2ryy	2ryy	2ryy	8f#\L	.	8dd\	-nit	8d\	8f#\	.	2r	2ryy	2r	.	16ff#\LLyy	.
.	.	.	.	.	.	.	.	.	.	.	.	.	.	.	.	.	.	.	.	16dd\yy	.
8r	.	8r	.	8g/	.	.	.	.	8b\	.	8dd\	qui	8A\	8r	.	.	.	.	.	16bb\yy	.
.	.	.	.	.	.	.	.	.	.	.	.	.	.	.	.	.	.	.	.	16dd\JJyy	.
8r	.	4r	.	8f#/	.	.	.	.	8a\	.	8dd\L	ve-	8d/	8e\	.	.	.	.	.	16aa\LLyy	.
.	.	.	.	.	.	.	.	.	.	.	.	.	.	.	.	.	.	.	.	16dd\yy	.
8AA/	.	.	.	8e/J	.	.	.	.	8g\J	.	8cc#\J	.	8A/	8r	.	.	.	.	.	16cc#\yy	.
.	.	.	.	.	.	.	.	.	.	.	.	.	.	.	.	.	.	.	.	16gg\JJyy	.
=91	=91	=91	=91	=91	=91	=91	=91	=91	=91	=91	=91	=91	=91	=91	=91	=91	=91	=91	=91	=91	=91
8D\L	.	8d\L	.	8d/L	.	2ryy	2ryy	2ryy	8f#\L	.	8dd\L	.	8d\L	8f#\L	.	2r	2ryy	2r	.	16ff#\LL	.
.	.	.	.	.	.	.	.	.	.	.	.	.	.	.	.	.	.	.	.	16dd\	.
8C#\	.	16c#\L	.	8A/	.	.	.	.	8e\	.	8cc#\	.	8A\	8e\	.	.	.	.	.	16ee\	.
.	.	16e\JJ	.	.	.	.	.	.	.	.	.	.	.	.	.	.	.	.	.	16gg\JJ	.
8D\	.	8d\L	.	8A/	.	.	.	.	8f#\	.	8dd\	.	8d\	8f#\	.	.	.	.	.	16ff#\LL	.
.	.	.	.	.	.	.	.	.	.	.	.	.	.	.	.	.	.	.	.	16dd\	.
8C#\J	.	16c#\L	.	8A/J	.	.	.	.	8e\J	.	8cc#\J	.	8A\J	8e\J	.	.	.	.	.	16ee\	.
.	.	16e\JJ	.	.	.	.	.	.	.	.	.	.	.	.	.	.	.	.	.	16gg\JJ	.
=92	=92	=92	=92	=92	=92	=92	=92	=92	=92	=92	=92	=92	=92	=92	=92	=92	=92	=92	=92	=92	=92
!LO:TX:t=P:problem=mixed beam	!	!	!	!	!	!	!	!	!	!	!	!	!	!LO:TX:t=P:problem=mixed beam	!	!	!	!	!	!	!
.	.	.	.	.	.	.	.	.	.	.	.	.	.	.	.	.	.	.	.	8qgg/	.
8AA/L	.	8d\L	.	8A/L	.	2ryy	2ryy	2ryy	8f#\	.	8dd\	.	8d\L	8f#\L	.	2r	2ryy	2r	.	16ff#\LL	.
.	.	.	.	.	.	.	.	.	.	.	.	.	.	.	.	.	.	.	.	32ee\L	.
.	.	.	.	.	.	.	.	.	.	.	.	.	.	.	.	.	.	.	.	32ff#\JJ	.
8A\	.	8c#\	.	8c#/J	.	.	.	.	8e\	-nit	8cc#\	-nit	8A\	8e\	.	.	.	.	.	8ee\J	.
8AA/J	.	8A\J	.	4r	.	.	.	.	8r	.	4r	.	8A\J	8B/J	.	.	.	.	.	8r	.
8r	.	8r	.	.	.	.	.	.	16a\LL	qui	.	.	8r	8r	.	.	.	.	.	16aa\LL	.
.	.	.	.	.	.	.	.	.	16g\JJ	.	.	.	.	.	.	.	.	.	.	16gg\JJ	.
=93	=93	=93	=93	=93	=93	=93	=93	=93	=93	=93	=93	=93	=93	=93	=93	=93	=93	=93	=93	=93	=93
!	!	!LO:TX:t=P:problem=mixed beam	!	!	!	!	!	!	!	!	!	!	!LO:TX:a:t=4.	!LO:TX:a:t=4	!	!	!	!	!	!	!
8D\L	.	8d\L	.	8r	.	2ryy	2ryy	2ryy	8.f#\L	ve-	4r	.	2r	2r	.	2r	2ryy	2r	.	8.ff#\L	.
8D\	.	8d\	.	16a/LL	.	.	.	.	.	.	.	.	.	.	.	.	.	.	.	.	.
.	.	.	.	16g/JJ	.	.	.	.	16e\Jk	.	.	.	.	.	.	.	.	.	.	16ee\Jk	.
!	!	!	!	!LO:TX:t=P:problem=mixed beam	!	!	!	!	!	!	!	!	!	!	!	!	!	!	!	!	!
8F#\	.	8F#/	.	16f#/LL	.	.	.	.	8d\	-nit	8r	.	.	.	.	.	.	.	.	16dd\LL	.
.	.	.	.	16e/	.	.	.	.	.	.	.	.	.	.	.	.	.	.	.	16ff#\	.
!	!	!	!	!	!	!	!	!	!	!	!	!LO:SIC:v:l:s=qui	!	!	!	!	!	!	!	!	!
8F#\J	.	8F#/J	.	16d/	.	.	.	.	8a\	in	8dd\	qvi	.	.	.	.	.	.	.	16aa\	.
.	.	.	.	16dd\JJ	.	.	.	.	.	.	.	.	.	.	.	.	.	.	.	16aa\JJ	.
!	!	!	!	!	!	!	!	!	!	!	!LO:LB:g=original	!	!	!	!	!	!	!	!	!LO:LB:g=original	!
=94	=94	=94	=94	=94	=94	=94	=94	=94	=94	=94	=94	=94	=94	=94	=94	=94	=94	=94	=94	=94	=94
!	!	!LO:TX:t=P:problem=mixed beam	!	!	!	!	!	!	!	!	!	!	!	!	!	!	!	!	!	!	!
8G\L	.	8G/L	.	4b\	.	2ryy	2ryy	2ryy	16a\LL	no-	4b\	ve-	2r	2r	.	2r	2ryy	2r	.	16aa\LL	.
.	.	.	.	.	.	.	.	.	16b\	.	.	.	.	.	.	.	.	.	.	16bb\	.
8G\	.	8g\	.	.	.	.	.	.	16g\	.	.	.	.	.	.	.	.	.	.	16gg\	.
.	.	.	.	.	.	.	.	.	16f#\JJ	.	.	.	.	.	.	.	.	.	.	16ff#\JJ	.
8E\	.	8e\	.	16b\LL	.	.	.	.	4g\	.	16b\LL	.	.	.	.	.	.	.	.	[4gg\	.
.	.	.	.	16cc#\	.	.	.	.	.	.	16cc#\	.	.	.	.	.	.	.	.	.	.
8E\J	.	8e\J	.	16a\	.	.	.	.	.	.	16a\	.	.	.	.	.	.	.	.	.	.
.	.	.	.	16g\JJ	.	.	.	.	.	.	16g\JJ	.	.	.	.	.	.	.	.	.	.
=95	=95	=95	=95	=95	=95	=95	=95	=95	=95	=95	=95	=95	=95	=95	=95	=95	=95	=95	=95	=95	=95
8F#\L	.	8f#\L	.	4a\	.	2ryy	2ryy	2ryy	16g\LL	.	4a\	.	2r	2r	.	2r	2ryy	2r	.	16gg\LL]	.
.	.	.	.	.	.	.	.	.	16a\	.	.	.	.	.	.	.	.	.	.	16aa\	.
8F#\	.	8f#\	.	.	.	.	.	.	16f#\	.	.	.	.	.	.	.	.	.	.	16ff#\	.
.	.	.	.	.	.	.	.	.	16e\JJ	.	.	.	.	.	.	.	.	.	.	16ee\JJ	.
8D\	.	8d\	.	16a\LL	.	.	.	.	4f#\	.	16a\LL	.	.	.	.	.	.	.	.	[4ff#\	.
.	.	.	.	16b\	.	.	.	.	.	.	16b\	.	.	.	.	.	.	.	.	.	.
8D\J	.	8d\J	.	16g\	.	.	.	.	.	.	16g\	.	.	.	.	.	.	.	.	.	.
.	.	.	.	16f#\JJ	.	.	.	.	.	.	16f#\JJ	.	.	.	.	.	.	.	.	.	.
!LO:LB:g=original	!	!	!	!LO:LB:g=original	!	!	!	!	!	!	!	!	!	!	!	!	!	!	!	!	!
=96	=96	=96	=96	=96	=96	=96	=96	=96	=96	=96	=96	=96	=96	=96	=96	=96	=96	=96	=96	=96	=96
8E\L	.	8d\L	.	4g/	.	2ryy	2ryy	2ryy	16f#\LL	.	4g\	.	2r	2r	.	2r	2ryy	2r	.	16ff#\LL]	.
.	.	.	.	.	.	.	.	.	16g\	.	.	.	.	.	.	.	.	.	.	16gg\	.
8E\	.	16c#\L	.	.	.	.	.	.	16e\	.	.	.	.	.	.	.	.	.	.	16ee\	.
.	.	16B\JJ	.	.	.	.	.	.	16d\JJ	.	.	.	.	.	.	.	.	.	.	16dd\JJ	.
!	!	!LO:LB:g=original	!	!	!	!	!	!	!	!	!	!	!	!	!	!	!	!	!	!	!
8C#\	.	8c#\L	.	16g/LL	.	.	.	.	4e\	.	16g\LL	.	.	.	.	.	.	.	.	[4ee\	.
.	.	.	.	16a/	.	.	.	.	.	.	16a\	.	.	.	.	.	.	.	.	.	.
8C#\J	.	8c#\J	.	16f#/	.	.	.	.	.	.	16f#\	.	.	.	.	.	.	.	.	.	.
.	.	.	.	16e/JJ	.	.	.	.	.	.	16e\JJ	.	.	.	.	.	.	.	.	.	.
=97	=97	=97	=97	=97	=97	=97	=97	=97	=97	=97	=97	=97	=97	=97	=97	=97	=97	=97	=97	=97	=97
8D\L	.	4d\	.	4f#/	.	2ryy	2ryy	2ryy	16e\LL	.	4f#/	-nit	8r	8r	.	2r	2ryy	2r	.	16ee\LL]	.
.	.	.	.	.	.	.	.	.	16f#\	.	.	.	.	.	.	.	.	.	.	16ff#\	.
!	!	!	!	!	!	!	!	!	!LO:TX:t=P:problem=zapis poprawiany	!	!	!	!	!	!	!	!	!	!	!	!
8D\J	.	.	.	.	.	.	.	.	16d\	.	.	.	8D/L	8d\L	.	.	.	.	.	16dd\	.
!	!	!	!	!	!	!	!	!	!LO:TX:t=P:problem=zapis poprawiany	!	!	!	!	!	!	!	!	!	!	!	!
.	.	.	.	.	.	.	.	.	16c#\JJ	-mi-	.	.	.	.	.	.	.	.	.	16cc#\JJ	.
8B\L	.	16d\LL	.	16f#/LL	.	.	.	.	8d\	-ne	4dd\	in	8D/	8d\	.	.	.	.	.	[4dd\	.
.	.	16c#\	.	16d/	.	.	.	.	.	.	.	.	.	.	.	.	.	.	.	.	.
16A\L	.	16B\	.	16c#/	.	.	.	.	8r	.	.	.	8D/J	8d\J	.	.	.	.	.	.	.
16G\JJ	.	16A\JJ	.	16B/JJ	.	.	.	.	.	.	.	.	.	.	.	.	.	.	.	.	.
=98	=98	=98	=98	=98	=98	=98	=98	=98	=98	=98	=98	=98	=98	=98	=98	=98	=98	=98	=98	=98	=98
!	!	!LO:TX:t=P:problem=mixed beam	!	!LO:TX:t=P:problem=mixed beam	!	!	!	!	!	!	!	!	!	!	!	!	!	!	!	!	!
8F#\L	.	8F#/L	.	16A/LL	.	2ryy	2ryy	2ryy	4a\	in	4dd\	no-	4D/	8d\	.	2r	2ryy	2r	.	16dd\LL]	.
.	.	.	.	16dd\	.	.	.	.	.	.	.	.	.	.	.	.	.	.	.	16ff#\	.
8D\	.	8f#\	.	16dd\	.	.	.	.	.	.	.	.	.	8r	.	.	.	.	.	16aa\	.
.	.	.	.	16dd\JJ	.	.	.	.	.	.	.	.	.	.	.	.	.	.	.	16ddd\JJ	.
8G\	.	8g\	.	8dd\L	.	.	.	.	8b\	no-	8dd\	-mi-	4r	4r	.	.	.	.	.	16ccc#\LL	.
.	.	.	.	.	.	.	.	.	.	.	.	.	.	.	.	.	.	.	.	16bb\	.
8G\J	.	8F#/J	.	8dd\J	.	.	.	.	16g\	-mi-	8dd\	-ne	.	.	.	.	.	.	.	16aa\	.
.	.	.	.	.	.	.	.	.	16g\	-ne	.	.	.	.	.	.	.	.	.	16gg\JJ	.
!	!	!	!	!	!	!	!	!	!	!	!	!	!	!	!	!	!	!	!	!LO:LB:g=original	!
=99	=99	=99	=99	=99	=99	=99	=99	=99	=99	=99	=99	=99	=99	=99	=99	=99	=99	=99	=99	=99	=99
*	*	*tremolo	*	*	*	*	*	*	*	*	*	*	*	*	*	*	*	*	*	*tremolo	*
!LO:TX:t=P:problem=mixed beam	!	!	!	!	!	!	!	!	!	!	!	!	!	!	!	!	!	!	!	!	!
8A\L	.	8A/L	.	16dd\LL	.	2ryy	2ryy	2ryy	8f#\	Do-	4dd\	Do-	4d\	4f#\	.	2r	2ryy	2r	.	16ff#\LL	.
.	.	.	.	16dd\	.	.	.	.	.	.	.	.	.	.	.	.	.	.	.	16ff#\	.
8A\	.	8A/	.	16dd\	.	.	.	.	4e\	.	.	.	.	.	.	.	.	.	.	16ff#\	.
.	.	.	.	16dd\JJ	.	.	.	.	.	.	.	.	.	.	.	.	.	.	.	16ff#\JJ	.
8AA/	.	8A/	.	16cc#\LL	.	.	.	.	.	.	8.cc#\	.	4A/	4e\	.	.	.	.	.	16ee\LL	.
.	.	.	.	16cc#\	.	.	.	.	.	.	.	.	.	.	.	.	.	.	.	16ee\	.
8AA/J	.	8A/J	.	16cc#\	.	.	.	.	8e\	-mi-	.	.	.	.	.	.	.	.	.	16ee\	.
.	.	.	.	16cc#\JJ	.	.	.	.	.	.	16cc#\	-mi-	.	.	.	.	.	.	.	16ee\JJ	.
*	*	*Xtremolo	*	*	*	*	*	*	*	*	*	*	*	*	*	*	*	*	*	*Xtremolo	*
!	!	!	!	!	!	!	!	!	!	!	!LO:LB:g=original	!	!	!	!	!	!	!	!	!	!
=100	=100	=100	=100	=100	=100	=100	=100	=100	=100	=100	=100	=100	=100	=100	=100	=100	=100	=100	=100	=100	=100
*	*	*	*	*tremolo	*	*	*	*	*	*	*	*	*	*	*	*	*	*	*	*	*
!	!	!LO:TX:t=P:problem=mixed beam	!	!	!	!	!	!	!	!	!	!	!	!	!	!	!	!	!	!	!
8D\L	.	8d\L	.	16dd\LL	.	2ryy	2ryy	2ryy	8f#\	-ni	8dd\	-ni	8F#/	8d\	.	2r	2ryy	2r	.	16ff#\KL	.
.	.	.	.	16dd\	.	.	.	.	.	.	.	.	.	.	.	.	.	.	.	8gg\	.
8B\	.	8A/	.	16dd\	.	.	.	.	8g\	in	8dd\	in	8r	8r	.	.	.	.	.	.	.
.	.	.	.	16dd\	.	.	.	.	.	.	.	.	.	.	.	.	.	.	.	8aa\	.
8F#\	.	8F#/	.	16dd\	.	.	.	.	8a\	no-	8dd\	no-	4r	4r	.	.	.	.	.	.	.
.	.	.	.	16dd\	.	.	.	.	.	.	.	.	.	.	.	.	.	.	.	8bb\	.
8G\J	.	8G/J	.	16dd\	.	.	.	.	16b\	-mi-	16dd\	-mi-	.	.	.	.	.	.	.	.	.
.	.	.	.	16dd\JJ	.	.	.	.	16b\	-ne	16dd\	-ne	.	.	.	.	.	.	.	16ddd\Jk	.
!	!	!	!	!	!	!	!	!	!LO:LB:g=original	!	!	!	!	!	!	!	!	!	!	!	!
=101	=101	=101	=101	=101	=101	=101	=101	=101	=101	=101	=101	=101	=101	=101	=101	=101	=101	=101	=101	=101	=101
*tremolo	*	*tremolo	*	*	*	*	*	*	*	*	*	*	*	*	*	*	*	*	*	*	*
8A\L	.	8d\L	.	16d/LL	.	2ryy	2ryy	2ryy	2f#\	Do-	2dd\	Do-	2d\	2f#\	.	2r	2ryy	2r	.	2a/	.
.	.	.	.	16f#/	.	.	.	.	.	.	.	.	.	.	.	.	.	.	.	.	.
8A\	.	8d\	.	16d/	.	.	.	.	.	.	.	.	.	.	.	.	.	.	.	.	.
.	.	.	.	16f#/	.	.	.	.	.	.	.	.	.	.	.	.	.	.	.	.	.
8A\	.	8d\	.	16d/	.	.	.	.	.	.	.	.	.	.	.	.	.	.	.	.	.
.	.	.	.	16f#/	.	.	.	.	.	.	.	.	.	.	.	.	.	.	.	.	.
8A\J	.	8d\J	.	16d/	.	.	.	.	.	.	.	.	.	.	.	.	.	.	.	.	.
.	.	.	.	16f#/JJ	.	.	.	.	.	.	.	.	.	.	.	.	.	.	.	.	.
*	*	*	*	*Xtremolo	*	*	*	*	*	*	*	*	*	*	*	*	*	*	*	*	*
!	!	!	!	!	!	!	!	!	!	!	!	!	!	!LO:LB:g=original	!	!	!	!	!	!	!
=102	=102	=102	=102	=102	=102	=102	=102	=102	=102	=102	=102	=102	=102	=102	=102	=102	=102	=102	=102	=102	=102
8AA/L	.	8A/L	.	16dd\LL	.	2ryy	2ryy	2ryy	4.e\	.	4dd\	.	2A/	2e\	.	2r	2ryy	2r	.	2eeT\	.
.	.	.	.	16dd\	.	.	.	.	.	.	.	.	.	.	.	.	.	.	.	.	.
8AA/	.	8A/	.	16dd\	.	.	.	.	.	.	.	.	.	.	.	.	.	.	.	.	.
.	.	.	.	16dd\JJ	.	.	.	.	.	.	.	.	.	.	.	.	.	.	.	.	.
8AA/	.	8A/	.	16cc#\LL	.	.	.	.	.	.	4cc#\	-mi-	.	.	.	.	.	.	.	.	.
.	.	.	.	16cc#\	.	.	.	.	.	.	.	.	.	.	.	.	.	.	.	.	.
8AA/J	.	8A/J	.	16cc#\	.	.	.	.	8e\	-mi-	.	.	.	.	.	.	.	.	.	.	.
.	.	.	.	16cc#\JJ	.	.	.	.	.	.	.	.	.	.	.	.	.	.	.	.	.
*Xtremolo	*	*Xtremolo	*	*	*	*	*	*	*	*	*	*	*	*	*	*	*	*	*	*	*
!	!	!	!	!LO:LB:g=original	!	!	!	!	!	!	!	!	!	!	!	!	!	!	!	!	!
=103	=103	=103	=103	=103	=103	=103	=103	=103	=103	=103	=103	=103	=103	=103	=103	=103	=103	=103	=103	=103	=103
!	!	!	!	!LO:TX:t=P:problem=mixed beam	!	!	!	!	!	!	!	!	!	!	!	!	!	!	!	!LO:TX:t=P:problem=mixed beam	!
8D/L	.	8d\L	.	8dd\L	.	2ryy	2ryy	2ryy	8f#\	-ni	8dd\	-ni	8F#/	8d\	.	2r	2ryy	2r	.	8dd\L	.
8D/	.	8d\	.	8d/	.	.	.	.	8r	.	8r	.	8r	8r	.	.	.	.	.	8d/	.
8BB/	.	8B\	.	8B/	.	.	.	.	4r	.	4r	.	4r	4r	.	.	.	.	.	8B/	.
8GG#X/J	.	8G#X\J	.	8G#X/J	.	.	.	.	.	.	.	.	.	.	.	.	.	.	.	8G#X/J	.
!	!	!	!	!	!	!	!	!	!	!	!	!	!	!	!	!	!	!LO:LB:g=original	!	!	!
=104	=104	=104	=104	=104	=104	=104	=104	=104	=104	=104	=104	=104	=104	=104	=104	=104	=104	=104	=104	=104	=104
!	!LO:DY:a:t=p.	!	!	!	!	!	!	!	!LO:TX:a:t=13.	!	!LO:TX:a:t=13	!	!LO:TX:a:t=13.	!LO:TX:a:t=12	!	!	!	!	!	!	!
8AA/	p	8A/	.	8A/	.	2ryy	2ryy	2ryy	2r	.	2r	.	2r	2r	.	2r	2ryy	2aa\	.	4A/	.
8r	.	8r	.	8r	.	.	.	.	.	.	.	.	.	.	.	.	.	.	.	.	.
8C#/	.	4r	.	4r	.	.	.	.	.	.	.	.	.	.	.	.	.	.	.	16r	.
!	!	!	!	!	!	!	!	!	!	!	!	!	!	!	!	!	!	!	!	!	!LO:DY:b:t=pia
.	.	.	.	.	.	.	.	.	.	.	.	.	.	.	.	.	.	.	.	16A/LL	p
8r	.	.	.	.	.	.	.	.	.	.	.	.	.	.	.	.	.	.	.	16e/	.
.	.	.	.	.	.	.	.	.	.	.	.	.	.	.	.	.	.	.	.	16g/JJ	.
!	!	!LO:LB:g=original	!	!	!	!	!	!	!	!	!	!	!	!	!	!	!	!	!	!	!
=105	=105	=105	=105	=105	=105	=105	=105	=105	=105	=105	=105	=105	=105	=105	=105	=105	=105	=105	=105	=105	=105
8D/	.	8A/	.	8d/	.	2ryy	2ryy	2ryy	2r	.	2r	.	2r	2r	.	2r	2ryy	2aa\	.	16f#/LL	.
.	.	.	.	.	.	.	.	.	.	.	.	.	.	.	.	.	.	.	.	16A/	.
8r	.	8r	.	8r	.	.	.	.	.	.	.	.	.	.	.	.	.	.	.	16d/	.
.	.	.	.	.	.	.	.	.	.	.	.	.	.	.	.	.	.	.	.	16f#/JJ	.
!	!	!	!	!	!LO:DY:b	!	!	!	!	!	!	!	!	!	!	!	!	!	!	!	!
8C#/	.	8A/	.	16r	pp	.	.	.	.	.	.	.	.	.	.	.	.	.	.	16g/LL	.
.	.	.	.	16A/LL	.	.	.	.	.	.	.	.	.	.	.	.	.	.	.	16A/	.
8r	.	8r	.	16c#/	.	.	.	.	.	.	.	.	.	.	.	.	.	.	.	16e/	.
.	.	.	.	16e/JJ	.	.	.	.	.	.	.	.	.	.	.	.	.	.	.	16g/JJ	.
=106	=106	=106	=106	=106	=106	=106	=106	=106	=106	=106	=106	=106	=106	=106	=106	=106	=106	=106	=106	=106	=106
!	!	!LO:N:vis=4	!	!	!	!	!	!	!	!	!	!	!	!	!	!	!	!	!	!LO:TX:t=P:problem=zapis niewyraźny	!
8D/	.	8d\	.	8d/	.	2ryy	2ryy	2ryy	2r	.	2r	.	2r	2r	.	2r	2ryy	4aa\	.	8f#/	.
8r	.	8r	.	8r	.	.	.	.	.	.	.	.	.	.	.	.	.	.	.	8r	.
4r	.	4r	.	4r	.	.	.	.	.	.	.	.	.	.	.	.	.	(16gg\LL	.	4r	.
.	.	.	.	.	.	.	.	.	.	.	.	.	.	.	.	.	.	16ff#\)	.	.	.
.	.	.	.	.	.	.	.	.	.	.	.	.	.	.	.	.	.	(16ee\	.	.	.
.	.	.	.	.	.	.	.	.	.	.	.	.	.	.	.	.	.	16dd\JJ)	.	.	.
!	!	!	!	!	!	!	!	!	!	!	!	!	!	!	!	!	!	!	!	!LO:PB:g=original	!
=107	=107	=107	=107	=107	=107	=107	=107	=107	=107	=107	=107	=107	=107	=107	=107	=107	=107	=107	=107	=107	=107
!LO:TX:a:t=5.	!	!LO:TX:a:t=5	!	!	!	!	!	!	!	!	!	!	!	!	!	!	!	!	!	!	!
2r	.	2r	.	8r	.	2ryy	2ryy	2ryy	2r	.	2r	.	2r	2r	.	2r	2ryy	24dd|\LL	.	8r	.
.	.	.	.	.	.	.	.	.	.	.	.	.	.	.	.	.	.	24ff#|\	.	.	.
.	.	.	.	.	.	.	.	.	.	.	.	.	.	.	.	.	.	24aa|\JJ	.	.	.
.	.	.	.	8d/L	.	.	.	.	.	.	.	.	.	.	.	.	.	24ddd|\LL	.	8f#/L	.
.	.	.	.	.	.	.	.	.	.	.	.	.	.	.	.	.	.	24fff#|\	.	.	.
.	.	.	.	.	.	.	.	.	.	.	.	.	.	.	.	.	.	24eee|\JJ	.	.	.
.	.	.	.	8d/	.	.	.	.	.	.	.	.	.	.	.	.	.	24ddd|\LL	.	8f#/	.
.	.	.	.	.	.	.	.	.	.	.	.	.	.	.	.	.	.	24ccc#|\	.	.	.
.	.	.	.	.	.	.	.	.	.	.	.	.	.	.	.	.	.	24bb|\JJ	.	.	.
.	.	.	.	8d/J	.	.	.	.	.	.	.	.	.	.	.	.	.	(24aa\LL	.	8f#/J	.
.	.	.	.	.	.	.	.	.	.	.	.	.	.	.	.	.	.	24gg\)	.	.	.
.	.	.	.	.	.	.	.	.	.	.	.	.	.	.	.	.	.	24ff#|\JJ	.	.	.
=108	=108	=108	=108	=108	=108	=108	=108	=108	=108	=108	=108	=108	=108	=108	=108	=108	=108	=108	=108	=108	=108
2r	.	2r	.	8r	.	2ryy	2ryy	2ryy	2r	.	2r	.	2r	2r	.	2r	2ryy	(32aa\LLL	.	8r	.
.	.	.	.	.	.	.	.	.	.	.	.	.	.	.	.	.	.	32gg\)	.	.	.
.	.	.	.	.	.	.	.	.	.	.	.	.	.	.	.	.	.	32ff#\	.	.	.
.	.	.	.	.	.	.	.	.	.	.	.	.	.	.	.	.	.	32gg|\JJJ	.	.	.
.	.	.	.	8d/L	.	.	.	.	.	.	.	.	.	.	.	.	.	8gg\	.	8b\L	.
.	.	.	.	8d/	.	.	.	.	.	.	.	.	.	.	.	.	.	4r	.	8b\	.
.	.	.	.	8d/J	.	.	.	.	.	.	.	.	.	.	.	.	.	.	.	8b\J	.
=109	=109	=109	=109	=109	=109	=109	=109	=109	=109	=109	=109	=109	=109	=109	=109	=109	=109	=109	=109	=109	=109
2r	.	2r	.	8r	.	2ryy	2ryy	2ryy	2r	.	2r	.	2r	2r	.	2r	2ryy	24a|\LL	.	8r	.
.	.	.	.	.	.	.	.	.	.	.	.	.	.	.	.	.	.	24cc#|\	.	.	.
.	.	.	.	.	.	.	.	.	.	.	.	.	.	.	.	.	.	24ee|\JJ	.	.	.
.	.	.	.	8c#/L	.	.	.	.	.	.	.	.	.	.	.	.	.	24gg'\LL	.	8a\L	.
.	.	.	.	.	.	.	.	.	.	.	.	.	.	.	.	.	.	24aa'\	.	.	.
.	.	.	.	.	.	.	.	.	.	.	.	.	.	.	.	.	.	24gg'\JJ	.	.	.
.	.	.	.	8c#/	.	.	.	.	.	.	.	.	.	.	.	.	.	(24eee\LL	.	8a\	.
.	.	.	.	.	.	.	.	.	.	.	.	.	.	.	.	.	.	24ddd\)	.	.	.
.	.	.	.	.	.	.	.	.	.	.	.	.	.	.	.	.	.	24ccc#|\JJ	.	.	.
.	.	.	.	8c#/J	.	.	.	.	.	.	.	.	.	.	.	.	.	(24bb\LL	.	8a\J	.
.	.	.	.	.	.	.	.	.	.	.	.	.	.	.	.	.	.	24aa\)	.	.	.
.	.	.	.	.	.	.	.	.	.	.	.	.	.	.	.	.	.	24gg|\JJ	.	.	.
!	!	!	!	!	!	!	!	!	!	!	!	!	!	!	!	!	!	!LO:LB:g=original	!	!	!
=110	=110	=110	=110	=110	=110	=110	=110	=110	=110	=110	=110	=110	=110	=110	=110	=110	=110	=110	=110	=110	=110
2r	.	2r	.	8d/	.	2ryy	2ryy	2ryy	2r	.	2r	.	2r	2r	.	2r	2ryy	16ff#\LL	.	16a/LL	.
.	.	.	.	.	.	.	.	.	.	.	.	.	.	.	.	.	.	16aa\	.	16f#/	.
.	.	.	.	8r	.	.	.	.	.	.	.	.	.	.	.	.	.	16aa\	.	16f#/	.
.	.	.	.	.	.	.	.	.	.	.	.	.	.	.	.	.	.	16aa\JJ	.	16f#/JJ	.
.	.	.	.	8r	.	.	.	.	.	.	.	.	.	.	.	.	.	24aa|\LL	.	16f#/LL	.
.	.	.	.	.	.	.	.	.	.	.	.	.	.	.	.	.	.	(24gg\	.	.	.
.	.	.	.	.	.	.	.	.	.	.	.	.	.	.	.	.	.	.	.	32e/L	.
.	.	.	.	.	.	.	.	.	.	.	.	.	.	.	.	.	.	24ff#\JJ)	.	.	.
.	.	.	.	.	.	.	.	.	.	.	.	.	.	.	.	.	.	.	.	32d/JJJ	.
.	.	.	.	8d/	.	.	.	.	.	.	.	.	.	.	.	.	.	24aa|\LL	.	16f#/LL	.
.	.	.	.	.	.	.	.	.	.	.	.	.	.	.	.	.	.	(24gg\	.	.	.
.	.	.	.	.	.	.	.	.	.	.	.	.	.	.	.	.	.	.	.	32e/L	.
.	.	.	.	.	.	.	.	.	.	.	.	.	.	.	.	.	.	24ff#\JJ)	.	.	.
.	.	.	.	.	.	.	.	.	.	.	.	.	.	.	.	.	.	.	.	32d/JJJ	.
!	!	!	!	!LO:LB:g=original	!	!	!	!	!	!	!	!	!	!	!	!	!	!	!	!	!
=111	=111	=111	=111	=111	=111	=111	=111	=111	=111	=111	=111	=111	=111	=111	=111	=111	=111	=111	=111	=111	=111
.	.	.	.	.	.	.	.	.	.	.	.	.	.	.	.	.	.	8qqgg/	.	8qd/	.
2r	.	2r	.	8r	.	2ryy	2ryy	2ryy	2r	.	2r	.	2r	2r	.	2r	2ryy	16ff#\LL	.	8c#/L	.
.	.	.	.	.	.	.	.	.	.	.	.	.	.	.	.	.	.	32ee\L	.	.	.
.	.	.	.	.	.	.	.	.	.	.	.	.	.	.	.	.	.	32ff#\JJ	.	.	.
.	.	.	.	8A/L	.	.	.	.	.	.	.	.	.	.	.	.	.	8ee\J	.	8c#/	.
.	.	.	.	8a/J	.	.	.	.	.	.	.	.	.	.	.	.	.	8r	.	8c#/J	.
.	.	.	.	8r	.	.	.	.	.	.	.	.	.	.	.	.	.	(32aa\LLL	.	8r	.
.	.	.	.	.	.	.	.	.	.	.	.	.	.	.	.	.	.	32gg#X\)	.	.	.
.	.	.	.	.	.	.	.	.	.	.	.	.	.	.	.	.	.	(32bb\	.	.	.
.	.	.	.	.	.	.	.	.	.	.	.	.	.	.	.	.	.	32aa\JJJ)	.	.	.
!LO:LB:g=original	!	!	!	!	!	!	!	!	!	!	!	!	!	!	!	!	!	!	!	!	!
=112	=112	=112	=112	=112	=112	=112	=112	=112	=112	=112	=112	=112	=112	=112	=112	=112	=112	=112	=112	=112	=112
!	!	!	!LO:DY:a:t=p.	!	!	!	!	!	!	!	!	!	!	!	!	!	!	!	!	!	!
!	!LO:DY:b:t=pia.	!	!	!	!	!	!	!	!	!	!	!	!	!	!	!	!	!	!	!	!
8C#/	p	8A/	p	8c#/	.	2ryy	2ryy	2ryy	2r	.	2r	.	2r	2r	.	2r	2ryy	(24ggn\LL	.	8a/L	.
.	.	.	.	.	.	.	.	.	.	.	.	.	.	.	.	.	.	24ff#\	.	.	.
.	.	.	.	.	.	.	.	.	.	.	.	.	.	.	.	.	.	24ee\)	.	.	.
*	*	*	*	*	*	*	*	*	*	*	*	*	*	*	*	*	*	*	*	*tuplet	*
!	!	!	!	!	!	!	!	!	!	!	!	!	!	!	!	!	!	!	!	!LO:TUP:b:problem=klamra łukowa	!
8r	.	8r	.	8r	.	.	.	.	.	.	.	.	.	.	.	.	.	(24bb\	.	24g/L	.
.	.	.	.	.	.	.	.	.	.	.	.	.	.	.	.	.	.	24aa\	.	24f#/	.
.	.	.	.	.	.	.	.	.	.	.	.	.	.	.	.	.	.	24gg\JJ)	.	24e/JJ	.
8D/	.	8A/	.	8d/	.	.	.	.	.	.	.	.	.	.	.	.	.	(16ff#\LL	.	(16d/LL	.
.	.	.	.	.	.	.	.	.	.	.	.	.	.	.	.	.	.	16ddd\)	.	16f#/)	.
8r	.	8r	.	8r	.	.	.	.	.	.	.	.	.	.	.	.	.	16aa|\	.	16f#|/	.
.	.	.	.	.	.	.	.	.	.	.	.	.	.	.	.	.	.	16aa|\JJ	.	16f#|/JJ	.
=113	=113	=113	=113	=113	=113	=113	=113	=113	=113	=113	=113	=113	=113	=113	=113	=113	=113	=113	=113	=113	=113
8C#/	.	8A/	.	8c#/	.	2ryy	2ryy	2ryy	2r	.	2r	.	2r	2r	.	2r	2ryy	(24gg\LL	.	8e/L	.
.	.	.	.	.	.	.	.	.	.	.	.	.	.	.	.	.	.	24ff#\	.	.	.
.	.	.	.	.	.	.	.	.	.	.	.	.	.	.	.	.	.	24ee\)	.	.	.
*	*	*	*	*	*	*	*	*	*	*	*	*	*	*	*	*	*	*	*	*Xtuplet	*
8r	.	8r	.	8r	.	.	.	.	.	.	.	.	.	.	.	.	.	(24bb\	.	24g/L	.
.	.	.	.	.	.	.	.	.	.	.	.	.	.	.	.	.	.	24aa\	.	24f#/	.
.	.	.	.	.	.	.	.	.	.	.	.	.	.	.	.	.	.	24gg\JJ)	.	24e/JJ	.
8D/	.	8A/	.	8d/	.	.	.	.	.	.	.	.	.	.	.	.	.	(16ff#\LL	.	(16d/LL	.
.	.	.	.	.	.	.	.	.	.	.	.	.	.	.	.	.	.	16ddd\)	.	16f#/)	.
8r	.	8r	.	8r	.	.	.	.	.	.	.	.	.	.	.	.	.	16aa|\	.	16f#|/	.
.	.	.	.	.	.	.	.	.	.	.	.	.	.	.	.	.	.	16aa|\JJ	.	16f#|/JJ	.
!	!	!	!	!	!	!	!	!	!	!	!	!	!	!	!	!	!	!	!	!LO:LB:g=original	!
=114	=114	=114	=114	=114	=114	=114	=114	=114	=114	=114	=114	=114	=114	=114	=114	=114	=114	=114	=114	=114	=114
.	.	.	.	.	.	.	.	.	.	.	.	.	.	.	.	.	.	8qqaa#X/	.	.	.
8r	.	8r	.	8r	.	2ryy	2ryy	2ryy	2r	.	2r	.	2r	2r	.	2r	2ryy	4bb\	.	8r	.
!	!	!LO:TX:t=P:problem=mixed beam	!	!	!	!	!	!	!	!	!	!	!	!	!	!	!	!	!	!	!
8G\L	.	8g\L	.	8g/L	.	.	.	.	.	.	.	.	.	.	.	.	.	.	.	8d/L	.
8G\J	.	8G/J	.	8g/J	.	.	.	.	.	.	.	.	.	.	.	.	.	32bb\LLL	.	8d/J	.
.	.	.	.	.	.	.	.	.	.	.	.	.	.	.	.	.	.	32ccc#\	.	.	.
.	.	.	.	.	.	.	.	.	.	.	.	.	.	.	.	.	.	32ddd\	.	.	.
.	.	.	.	.	.	.	.	.	.	.	.	.	.	.	.	.	.	32ccc#\JJJ	.	.	.
!	!	!	!	!	!	!	!	!	!	!	!	!	!	!	!	!	!	!LO:LB:g=original	!	!	!
8r	.	8r	.	8r	.	.	.	.	.	.	.	.	.	.	.	.	.	(32ddd\LLL	.	8r	.
.	.	.	.	.	.	.	.	.	.	.	.	.	.	.	.	.	.	32bb\	.	.	.
.	.	.	.	.	.	.	.	.	.	.	.	.	.	.	.	.	.	32aany\	.	.	.
.	.	.	.	.	.	.	.	.	.	.	.	.	.	.	.	.	.	32gg\JJJ)	.	.	.
=115	=115	=115	=115	=115	=115	=115	=115	=115	=115	=115	=115	=115	=115	=115	=115	=115	=115	=115	=115	=115	=115
*	*	*tremolo	*	*	*	*	*	*	*	*	*	*	*	*	*	*	*	*	*	*tremolo	*
!LO:TX:t=P:problem=mixed beam	!	!	!	!	!	!	!	!	!	!	!	!	!	!	!	!	!	!	!	!	!
8A\L	.	8A/L	.	8f#/L	.	2r	2ryy	2ryy	2r	.	2r	.	2r	2r	.	2r	2r	(16ff#\LL	.	16dd\LL	.
.	.	.	.	.	.	.	.	.	.	.	.	.	.	.	.	.	.	32aa\L	.	16dd\	.
.	.	.	.	.	.	.	.	.	.	.	.	.	.	.	.	.	.	32gg\)	.	.	.
8A\	.	8A/	.	8f#/	.	.	.	.	.	.	.	.	.	.	.	.	.	(32ff#\	.	16dd\	.
.	.	.	.	.	.	.	.	.	.	.	.	.	.	.	.	.	.	32ee\	.	.	.
!	!	!	!	!	!	!	!	!	!	!	!	!	!	!	!	!	!	!LO:N:vis=32	!	!	!
.	.	.	.	.	.	.	.	.	.	.	.	.	.	.	.	.	.	16dd\JJJ)	.	16dd\JJ	.
*	*	*	*	*	*	*	*	*	*	*	*	*	*	*	*	*	*	*	*	*Xtremolo	*
8AA/	.	8A/	.	8e/	.	.	.	.	.	.	.	.	.	.	.	.	.	4eeT\	.	16dd\LL	.
.	.	.	.	.	.	.	.	.	.	.	.	.	.	.	.	.	.	.	.	16dd\	.
8AA/J	.	8A/J	.	8e/J	.	.	.	.	.	.	.	.	.	.	.	.	.	.	.	16cc#\	.
.	.	.	.	.	.	.	.	.	.	.	.	.	.	.	.	.	.	.	.	16cc#\JJ	.
*	*	*Xtremolo	*	*	*	*	*	*	*	*	*	*	*	*	*	*	*	*	*	*	*
=116	=116	=116	=116	=116	=116	=116	=116	=116	=116	=116	=116	=116	=116	=116	=116	=116	=116	=116	=116	=116	=116
*	*	*	*	*	*	*	*	*	*	*	*	*	*	*	*	*	*	*	*	*tremolo	*
!	!	!	!	!	!	!	!	!	!	!	!	!	!	!LO:TX:t=P:problem=pominięty takt	!	!	!	!	!	!LO:TX:a:t=....:note=pomocniczy zapis tremola	!
8D/	.	8A/	.	8f#/	.	2r	2ryy	2ryy	2r	.	2r	.	2r	2ryy	.	2r	2r	4dd\	.	8dd\L	.
8r	.	8r	.	8r	.	.	.	.	.	.	.	.	.	.	.	.	.	.	.	8dd\	.
4r	.	4r	.	4r	.	.	.	.	.	.	.	.	.	.	.	.	.	4r	.	8dd\	.
.	.	.	.	.	.	.	.	.	.	.	.	.	.	.	.	.	.	.	.	8dd\J	.
*	*	*	*	*	*	*	*	*	*	*	*	*	*	*	*	*	*	*	*	*Xtremolo	*
!	!	!LO:LB:g=original	!	!	!	!	!	!	!	!	!	!	!	!	!	!	!	!	!	!	!
=117	=117	=117	=117	=117	=117	=117	=117	=117	=117	=117	=117	=117	=117	=117	=117	=117	=117	=117	=117	=117	=117
*	*	*tremolo	*	*	*	*	*	*	*	*	*	*	*	*	*	*	*	*	*	*	*
!	!	!	!	!	!	!	!	!	!LO:TX:t=P:problem=pominięte takty	!	!LO:TX:t=P:problem=pominięte takty	!	!	!	!	!	!	!LO:TX:a:t=2.	!	!	!
.	.	.	.	.	.	.	.	.	.	.	.	.	.	.	.	.	.	.	.	8qa/	.
!	!LO:DY:a:t=for&colon;	!	!LO:DY:a:t=for	!	!	!	!	!	!	!	!	!	!	!	!	!	!	!	!	!	!
!	!	!	!	!	!	!	!	!	!	!	!	!	!	!	!	!	!	!	!	!	!LO:DY:b:t=for
!	!	!	!	!	!LO:DY:b:t=for	!	!	!	!	!	!	!	!	!	!	!	!	!	!	!	!
8C#\L	f	16c#\LL	f	16e/LL	f	2r	2ryy	2ryy	2ryy	.	2ryy	.	2A/	(2e\	.	2r	2r	2r	.	2gg\	f
.	.	16e\	.	16a/	.	.	.	.	.	.	.	.	.	.	.	.	.	.	.	.	.
8E\	.	16c#\	.	16e/	.	.	.	.	.	.	.	.	.	.	.	.	.	.	.	.	.
.	.	16e\	.	16a/	.	.	.	.	.	.	.	.	.	.	.	.	.	.	.	.	.
8AA\	.	16c#\	.	16e/	.	.	.	.	.	.	.	.	.	.	.	.	.	.	.	.	.
.	.	16e\	.	16a/	.	.	.	.	.	.	.	.	.	.	.	.	.	.	.	.	.
8C#\J	.	16c#\	.	16e/	.	.	.	.	.	.	.	.	.	.	.	.	.	.	.	.	.
.	.	16e\JJ	.	16a/JJ	.	.	.	.	.	.	.	.	.	.	.	.	.	.	.	.	.
!	!	!	!	!LO:LB:g=original	!	!	!	!	!	!	!	!	!LO:LB:g=original	!	!	!	!	!	!	!	!
=118	=118	=118	=118	=118	=118	=118	=118	=118	=118	=118	=118	=118	=118	=118	=118	=118	=118	=118	=118	=118	=118
!	!LO:DY:a:t=p.	!	!LO:DY:a:t=p.	!	!	!	!	!	!	!	!	!	!	!	!	!	!	!	!	!	!
!	!	!	!	!	!	!	!	!	!	!	!	!	!	!	!	!	!	!	!	!	!LO:DY:b:t=pia
!	!	!	!	!	!LO:DY:b:t=p&colon;	!	!	!	!	!	!	!	!	!	!	!	!	!	!	!	!
8D\L	p	16d\LL	p	16f#/LL	p	2r	2ryy	2ryy	2ryy	.	2ryy	.	2d\	2f#\)	.	2r	2r	2r	.	(16ff#\LL	p
.	.	16f#\	.	16a/	.	.	.	.	.	.	.	.	.	.	.	.	.	.	.	16gg\)	.
8F#\	.	16d\	.	16f#/	.	.	.	.	.	.	.	.	.	.	.	.	.	.	.	16dd\	.
.	.	16f#\	.	16a/JJ	.	.	.	.	.	.	.	.	.	.	.	.	.	.	.	16dd\JJ	.
8D\	.	16d\	.	16f#/LL	.	.	.	.	.	.	.	.	.	.	.	.	.	.	.	16dd\LL	.
.	.	16f#\	.	16a/	.	.	.	.	.	.	.	.	.	.	.	.	.	.	.	16ff#\	.
8F#\J	.	16d\	.	16f#/	.	.	.	.	.	.	.	.	.	.	.	.	.	.	.	16ff#\	.
.	.	16f#\JJ	.	16a/JJ	.	.	.	.	.	.	.	.	.	.	.	.	.	.	.	16aa\JJ	.
=119	=119	=119	=119	=119	=119	=119	=119	=119	=119	=119	=119	=119	=119	=119	=119	=119	=119	=119	=119	=119	=119
!LO:TX:t=P:problem=mixed beam	!	!	!	!	!	!	!	!	!	!	!	!	!	!	!	!	!	!	!	!	!
!	!	!	!	!	!	!	!	!	!	!	!	!	!	!	!	!	!	!	!	!	!LO:DY:b:t=for.
8C#\L	.	16c#\LL	.	16e/LL	.	2r	2ryy	2ryy	2ryy	.	2ryy	.	2A/	2e\	.	2r	2r	4r	.	4.gg\	f
.	.	16e\	.	16a/	.	.	.	.	.	.	.	.	.	.	.	.	.	.	.	.	.
8E\	.	16c#\	.	16e/	.	.	.	.	.	.	.	.	.	.	.	.	.	.	.	.	.
.	.	16e\	.	16a/JJ	.	.	.	.	.	.	.	.	.	.	.	.	.	.	.	.	.
8AA/	.	16c#\	.	16e/LL	.	.	.	.	.	.	.	.	.	.	.	.	.	8r	.	.	.
.	.	16e\	.	16a/	.	.	.	.	.	.	.	.	.	.	.	.	.	.	.	.	.
8A\J	.	16c#\	.	16e/	.	.	.	.	.	.	.	.	.	.	.	.	.	8ccc#\	.	(16ee\LL	.
.	.	16e\JJ	.	16a/JJ	.	.	.	.	.	.	.	.	.	.	.	.	.	.	.	16cc#\JJ)	.
*	*	*Xtremolo	*	*	*	*	*	*	*	*	*	*	*	*	*	*	*	*	*	*	*
=120	=120	=120	=120	=120	=120	=120	=120	=120	=120	=120	=120	=120	=120	=120	=120	=120	=120	=120	=120	=120	=120
!	!	!	!LO:DY:a:t=p.	!	!	!	!	!	!	!	!	!	!	!	!	!	!	!	!	!	!
!	!	!	!	!	!	!	!	!	!	!	!	!	!	!	!	!	!	!	!	!	!LO:DY:b:t=pia
8d\L	.	4A/	p	4e/	.	2r	2ryy	2ryy	2ryy	.	2ryy	.	4A/	4e\	.	2r	2r	4ccc#\	.	(4cc#\	p
8A\	.	.	.	.	.	.	.	.	.	.	.	.	.	.	.	.	.	.	.	.	.
8D\J	.	8A/	.	8f#/	.	.	.	.	.	.	.	.	8d\	8f#\	.	.	.	8ddd\	.	8dd\)	.
8r	.	8r	.	8r	.	.	.	.	.	.	.	.	8r	8r	.	.	.	8r	.	8r	.
==	==	==	==	==	==	==	==	==	==	==	==	==	==	==	==	==	==	==	==	==	==
*-	*-	*-	*-	*-	*-	*-	*-	*-	*-	*-	*-	*-	*-	*-	*-	*-	*-	*-	*-	*-	*-
!!!system-decoration: [(g1)][(g2)][(g3)][(g4)]s14
!!!ENC: Andrzej Gręziak
!!!END: 2020-09-25
!!!AIN: 1 alto 1 bass 2 cor 2 flt 2 oboe 1 organ 1 soprn 1 tenor 1 viola 2 violn
!!!ENC: Kamil Watkowski
!!!END: 2022-02-15
!!!RDF**kern: > = above
!!!RDF**kern: < = below
!!!RDF**kern: | = vertical stroke
